<?xml version="1.0" encoding="UTF-8"?>
<map version="1.10" tiledversion="1.11.2" orientation="orthogonal" renderorder="right-down" width="20" height="12" tilewidth="32" tileheight="32" infinite="0" nextlayerid="8" nextobjectid="10">
 <tileset firstgid="1" name="CastleTiles" tilewidth="32" tileheight="32" tilecount="56" columns="8">
  <image source="tilesets/CastleTiles.png" width="256" height="224"/>
 </tileset>
 <tileset firstgid="57" name="runes" tilewidth="32" tileheight="32" tilecount="9" columns="0">
  <grid orientation="orthogonal" width="1" height="1"/>
  <tile id="0">
   <image source="tilesets/runes/1-32x32.png" width="32" height="32"/>
  </tile>
  <tile id="1">
   <image source="tilesets/runes/2-32x32.png" width="32" height="32"/>
  </tile>
  <tile id="2">
   <image source="tilesets/runes/3-32x32.png" width="32" height="32"/>
  </tile>
  <tile id="3">
   <image source="tilesets/runes/4-32x32.png" width="32" height="32"/>
  </tile>
  <tile id="4">
   <image source="tilesets/runes/5-32x32.png" width="32" height="32"/>
  </tile>
  <tile id="5">
   <image source="tilesets/runes/6-32x32.png" width="32" height="32"/>
  </tile>
  <tile id="6">
   <image source="tilesets/runes/7-32x32.png" width="32" height="32"/>
  </tile>
  <tile id="7">
   <image source="tilesets/runes/8-32x32.png" width="32" height="32"/>
  </tile>
  <tile id="8">
   <image source="tilesets/runes/9-32x32.png" width="32" height="32"/>
  </tile>
 </tileset>
 <layer id="2" name="backdrop" width="20" height="12">
  <data encoding="csv">
10,10,10,10,10,10,10,10,10,10,10,10,10,10,10,10,10,10,10,10,
10,10,10,10,10,10,10,10,10,10,10,10,10,10,10,10,10,10,10,10,
10,10,10,10,10,10,10,10,10,10,10,10,10,10,10,10,10,10,10,10,
10,10,10,10,10,10,10,10,10,10,10,10,10,10,10,10,10,10,10,10,
10,10,10,10,10,10,10,10,10,10,10,10,10,10,10,10,10,10,10,10,
10,10,10,10,10,10,10,10,10,10,10,10,10,10,10,10,10,10,10,10,
10,10,10,10,10,10,10,10,10,10,10,10,10,10,10,10,10,10,10,10,
10,16,16,16,16,10,10,10,10,10,10,10,10,10,10,10,10,10,10,10,
10,10,10,10,10,10,10,10,10,10,10,10,10,10,10,10,10,10,10,10,
10,10,10,10,10,10,10,10,10,10,10,10,10,10,10,10,10,10,10,10,
10,10,10,10,10,10,10,10,10,10,10,10,10,10,10,10,10,10,10,10,
10,10,10,10,10,10,10,10,10,10,10,10,10,10,10,10,10,10,10,10
</data>
 </layer>
 <layer id="1" name="terrain" width="20" height="12">
  <data encoding="csv">
0,0,0,0,0,0,0,0,0,0,0,0,0,0,0,0,0,0,0,0,
25,26,26,26,26,26,26,26,26,26,26,26,26,26,26,26,26,26,26,26,
33,0,0,0,0,0,0,0,0,0,0,0,0,0,0,0,0,0,0,0,
33,0,0,0,0,0,0,0,0,0,0,0,0,0,0,0,0,0,0,0,
33,0,0,0,0,0,0,0,0,0,0,0,0,0,0,0,0,0,0,0,
33,47,47,0,0,46,0,46,0,46,0,0,46,0,0,46,0,0,0,0,
33,47,47,47,47,45,47,47,47,45,47,45,47,47,45,45,47,47,47,47,
33,47,47,47,47,47,47,47,47,47,47,47,47,47,47,47,47,47,47,47,
41,2,2,2,2,2,2,2,2,2,2,2,2,2,2,2,2,2,2,2,
0,0,0,0,0,0,0,0,0,0,0,0,0,0,0,0,0,0,0,0,
0,0,0,0,0,0,0,0,0,0,0,0,0,0,0,0,0,0,0,0,
0,0,0,0,0,0,0,0,0,0,0,0,0,0,0,0,0,0,0,0
</data>
 </layer>
 <layer id="3" name="props" width="20" height="12">
  <data encoding="csv">
0,0,0,0,0,0,0,0,0,0,0,0,0,0,0,0,0,0,0,0,
0,0,0,0,0,0,0,0,0,0,0,0,0,0,0,0,0,0,0,0,
0,39,0,0,0,0,0,0,0,0,0,0,0,0,0,0,0,0,0,0,
0,0,0,0,0,0,0,0,0,0,0,0,0,0,0,0,0,0,0,0,
0,0,60,0,0,0,0,0,0,0,0,0,0,0,0,0,0,0,0,0,
0,58,0,59,0,0,0,0,0,0,0,0,0,0,0,0,0,0,0,0,
0,0,57,0,0,0,0,0,0,0,0,0,0,0,0,0,0,0,0,0,
0,14,16,0,0,0,0,51,0,0,0,0,51,0,0,6,0,0,0,0,
0,0,0,0,0,0,0,0,0,0,0,0,0,0,0,0,0,0,0,0,
0,0,0,0,0,0,0,0,0,0,0,0,0,0,0,0,0,0,0,0,
0,0,0,0,0,0,0,0,0,0,0,0,0,0,0,0,0,0,0,0,
0,0,0,0,0,0,0,0,0,0,0,0,0,0,0,0,0,0,0,0
</data>
 </layer>
 <objectgroup id="4" name="collisions">
  <object id="1" x="0" y="32" width="640" height="32"/>
  <object id="2" x="0" y="64" width="32" height="224"/>
  <object id="3" x="32" y="256" width="608" height="32"/>
  <object id="6" x="640" y="32" width="32" height="256"/>
 </objectgroup>
 <objectgroup id="5" name="interactables">
  <object id="4" x="480" y="224" width="32" height="32">
   <properties>
    <property name="description">
WELCOME ADVENTURER
PRESS A AND D TO MOVE || W AND SPACE TO JUMP</property>
    <property name="header" value="MOVEMENT"/>
    <property name="isHero" type="bool" value="false"/>
   </properties>
  </object>
 </objectgroup>
 <objectgroup id="6" name="transitions">
  <properties>
   <property name="spawnX" type="float" value="0"/>
   <property name="spawnY" type="float" value="0"/>
   <property name="targetMap" value=""/>
  </properties>
  <object id="5" x="608" y="64" width="32" height="192">
   <properties>
    <property name="spawnX" type="float" value="100"/>
    <property name="spawnY" type="float" value="200"/>
    <property name="targetMap" value="prologue1.tmx"/>
   </properties>
  </object>
 </objectgroup>
</map>
