<?xml version="1.0" encoding="UTF-8"?>
<map version="1.10" tiledversion="1.11.2" orientation="orthogonal" renderorder="right-down" width="40" height="12" tilewidth="32" tileheight="32" infinite="0" nextlayerid="9" nextobjectid="59">
 <tileset firstgid="1" source="tilesets/terrain/dungeon bricks/dungeon_terrain.tsx"/>
 <tileset firstgid="113" source="../runes/runesOnline.tsx"/>
 <layer id="2" name="backdrio" width="40" height="12">
  <data encoding="csv">
18,18,18,18,18,18,18,18,18,18,18,18,18,18,18,18,18,18,18,18,18,18,18,18,18,18,18,18,18,18,18,18,18,18,18,18,18,18,18,18,
18,18,18,18,18,18,18,18,18,18,18,18,18,18,18,18,18,18,18,18,18,18,18,18,18,18,18,18,18,18,18,18,18,18,18,18,18,18,18,18,
18,18,18,18,18,18,18,18,18,18,18,18,18,18,18,18,18,18,18,18,18,18,18,18,18,18,18,18,18,18,18,18,18,18,18,18,18,18,18,18,
18,18,18,18,18,18,18,18,18,18,18,18,18,18,18,18,18,18,18,18,18,18,18,18,18,18,18,18,18,18,18,18,18,18,18,18,18,18,18,18,
18,18,18,18,18,18,18,18,18,18,18,18,18,18,18,18,18,18,18,18,18,18,18,18,18,18,18,18,18,18,18,18,18,18,18,18,18,18,18,18,
18,18,18,18,18,18,18,18,18,18,18,18,18,18,18,18,18,18,18,18,18,18,18,18,18,18,18,18,18,18,18,18,18,18,18,18,18,18,18,18,
18,18,18,18,18,18,18,18,18,18,18,18,18,18,18,18,18,18,18,18,18,18,18,18,18,18,18,18,18,18,18,18,18,18,18,18,18,18,18,18,
18,18,18,18,18,18,18,18,18,18,18,18,18,18,18,18,18,18,18,18,18,18,18,18,18,18,18,18,18,18,18,18,18,18,18,18,18,18,18,18,
18,18,18,18,18,18,18,18,18,18,18,18,18,18,18,18,18,18,18,18,18,18,18,18,18,18,18,18,18,18,18,18,18,18,18,18,18,18,18,18,
18,18,18,18,18,18,18,18,18,18,18,18,18,18,18,18,18,18,18,18,18,18,18,18,18,18,18,18,18,18,18,18,18,18,18,18,18,18,18,18,
18,18,18,18,18,18,18,18,18,18,18,18,18,18,18,18,18,18,18,18,18,18,18,18,18,18,18,18,18,18,18,18,18,18,18,18,18,18,18,18,
18,18,18,18,18,18,18,18,18,18,18,18,18,18,18,18,18,18,18,18,18,18,18,18,18,18,18,18,18,18,18,18,18,18,18,18,18,18,18,18
</data>
 </layer>
 <layer id="1" name="terrain" width="40" height="12">
  <data encoding="csv">
0,0,0,0,0,0,0,0,0,0,0,0,0,0,0,0,0,0,0,0,0,0,0,0,0,0,0,0,0,0,0,4,0,0,0,0,0,0,0,0,
0,0,0,0,0,0,0,0,0,0,0,0,0,0,0,0,0,0,0,0,0,0,0,0,0,0,0,0,0,0,0,4,0,0,0,0,0,0,0,0,
0,0,0,0,0,0,0,0,0,0,0,0,0,0,0,0,0,0,0,5,0,50,50,0,0,0,0,0,0,0,0,4,0,0,0,0,0,0,0,0,
0,0,0,0,0,0,0,0,0,0,0,0,0,0,0,0,0,0,0,5,0,0,0,0,0,0,0,0,0,0,0,4,0,0,0,0,0,0,0,0,
0,0,0,0,0,0,0,0,0,0,0,0,0,0,0,0,0,0,0,5,0,0,49,50,50,0,0,0,0,0,0,4,0,65,66,66,66,66,66,66,
82,82,82,82,82,82,82,82,82,82,82,82,82,82,82,82,82,82,82,82,0,0,0,0,0,0,50,50,0,0,0,4,0,81,82,82,82,82,82,4,
0,0,0,0,0,0,0,0,0,0,0,0,0,0,0,0,0,0,0,0,0,0,0,0,0,0,0,0,49,50,51,4,0,0,0,0,0,0,0,4,
0,0,0,0,0,0,0,0,0,0,66,2,66,0,0,0,0,0,0,0,0,0,0,0,0,49,50,51,0,0,0,0,0,0,0,0,0,0,0,4,
0,0,0,0,0,0,0,0,0,0,17,18,19,0,0,0,0,0,0,0,0,0,0,0,0,0,0,0,0,0,0,0,0,0,0,0,0,0,0,4,
2,2,2,2,2,3,0,0,0,0,17,18,19,0,0,0,66,66,66,66,0,0,1,2,2,2,2,2,2,3,4,4,0,0,0,0,0,0,0,4,
18,18,18,18,0,19,0,0,0,0,17,18,19,0,0,0,66,66,66,66,0,0,17,18,18,18,18,18,18,19,4,4,18,18,18,18,18,18,18,4,
34,34,34,34,34,35,50,50,50,50,33,34,35,50,50,50,66,66,66,66,50,50,33,18,18,18,18,18,18,35,4,4,4,4,4,4,4,4,4,4
</data>
 </layer>
 <layer id="3" name="runes_visual" width="40" height="12">
  <data encoding="csv">
0,0,0,0,0,0,0,0,0,0,0,0,0,0,0,0,0,0,0,0,0,0,0,0,0,0,0,0,0,0,0,0,0,0,0,0,0,0,0,0,
137,0,0,0,0,0,0,0,0,0,0,0,0,0,0,0,0,0,0,125,0,0,0,0,0,0,0,0,0,0,0,0,0,0,0,0,0,0,0,0,
0,0,0,0,0,0,0,0,0,0,0,0,0,0,0,0,0,0,0,0,0,0,0,0,0,0,0,0,0,0,0,0,0,0,0,0,0,0,0,0,
0,0,0,0,0,0,0,0,0,0,0,0,0,0,0,0,0,0,0,0,0,0,0,0,0,0,0,0,0,0,0,0,0,0,0,0,0,0,0,0,
0,0,0,0,0,0,0,0,0,0,0,0,0,0,0,0,0,0,0,0,0,0,0,0,0,0,0,0,0,0,0,0,0,0,0,0,0,0,0,0,
53,0,0,0,0,0,0,0,0,0,0,0,0,0,0,0,0,0,0,0,0,0,0,0,0,0,0,0,0,0,0,0,0,0,0,0,0,0,0,0,
0,0,0,0,0,0,0,0,0,0,0,125,0,0,0,0,0,0,0,0,0,0,0,0,0,0,0,0,0,0,0,0,0,0,0,0,0,0,0,0,
0,0,0,0,0,0,0,0,0,0,0,0,0,0,0,0,0,0,0,0,0,0,0,0,0,0,0,0,0,0,0,0,0,0,0,0,0,0,0,0,
0,0,0,0,0,0,0,0,0,0,0,0,0,0,0,0,0,0,0,0,0,0,0,0,0,0,0,0,0,0,0,0,0,0,0,0,0,0,0,0,
0,0,0,0,0,0,0,0,0,0,0,0,0,0,0,0,0,0,0,0,0,0,0,0,0,0,0,0,0,0,0,0,0,0,0,0,0,0,0,0,
0,0,0,0,0,0,0,0,0,0,0,0,0,0,0,0,0,0,0,0,0,0,0,0,0,0,0,0,0,0,0,0,0,0,0,0,0,0,0,0,
0,0,0,0,0,0,0,0,0,0,0,0,0,0,0,0,0,0,0,0,0,0,0,0,0,0,0,0,0,0,0,0,0,0,0,0,0,0,0,0
</data>
 </layer>
 <objectgroup id="4" name="lava_zones">
  <object id="1" x="416.5" y="320" width="96" height="69.5"/>
  <object id="2" x="642.667" y="287.875" width="56.6667" height="26.75"/>
  <object id="54" x="198.667" y="288" width="117.333" height="96"/>
  <object id="55" x="423.333" y="288.5" width="82.6667" height="31"/>
  <object id="56" x="640" y="315" width="64" height="69"/>
 </objectgroup>
 <objectgroup color="#005500" id="5" name="collisions">
  <object id="3" x="704" y="160">
   <polygon points="0,0 96,0 96,-16 0,-16"/>
  </object>
  <object id="4" x="832" y="176">
   <polygon points="0,0 64,0 64,16 8,16 0,16"/>
  </object>
  <object id="5" x="904" y="208">
   <polygon points="0,0 72,0 72,16 0,16"/>
  </object>
  <object id="6" x="880" y="240">
   <polygon points="0,0 -72,0 -72,16 8,16"/>
  </object>
  <object id="7" x="704" y="288" width="32" height="96"/>
  <object id="11" x="1088" y="128" width="192" height="32"/>
  <object id="13" x="640" y="176">
   <polygon points="0,0 -608,0 -608,-16 0,-16"/>
  </object>
  <object id="14" x="0" y="160" width="32" height="32"/>
  <object id="15" x="0" y="288" width="192" height="32"/>
  <object id="16" x="160" y="320" width="32" height="64"/>
  <object id="17" x="192" y="384" width="448" height="32"/>
  <object id="19" x="0" y="352" width="160" height="32"/>
  <object id="20" x="512" y="288" width="128" height="96"/>
  <object id="21" x="672" y="80">
   <polygon points="0,0 64,0 64,16 0,16"/>
  </object>
  <object id="22" x="608" y="64" width="32" height="96"/>
  <object id="25" x="736" y="288" width="288" height="32"/>
  <object id="26" x="992" y="320" width="32" height="64"/>
  <object id="27" x="1024" y="352" width="256" height="32"/>
  <object id="28" x="1248" y="160" width="32" height="192"/>
  <object id="29" x="992" y="0" width="32" height="224"/>
  <object id="35" x="-32" y="0" width="32" height="160"/>
  <object id="36" x="0" y="-32" width="640" height="32"/>
  <object id="37" x="-32" y="192" width="32" height="96"/>
  <object id="38" x="0" y="320" width="32" height="32"/>
  <object id="39" x="1280" y="0" width="32" height="128"/>
  <object id="40" x="640" y="384" width="320" height="32"/>
  <object id="52" x="320" y="224" width="96" height="160"/>
 </objectgroup>
 <objectgroup color="#55ffff" id="7" name="water_zones">
  <object id="23" x="0" y="64" width="608" height="96"/>
 </objectgroup>
 <objectgroup id="6" name="runes">
  <object id="31" x="352" y="192" width="32" height="32">
   <properties>
    <property name="elementType" value="WATER"/>
    <property name="isSpawner" type="bool" value="false"/>
   </properties>
  </object>
  <object id="33" x="0" y="32" width="32" height="32">
   <properties>
    <property name="elementType" value="SAND"/>
    <property name="isSpawner" type="bool" value="true"/>
    <property name="runeID" type="int" value="7"/>
   </properties>
  </object>
  <object id="43" x="608" y="32" width="32" height="32">
   <properties>
    <property name="elementType" value="SAND"/>
    <property name="isSpawner" type="bool" value="false"/>
   </properties>
  </object>
  <object id="45" x="1024" y="160" width="224.5" height="190.375">
   <properties>
    <property name="elementType" value="SAND"/>
    <property name="isContainer" type="bool" value="true"/>
    <property name="runeID" type="int" value="7"/>
   </properties>
  </object>
  <object id="47" x="1024.88" y="128.438" width="62.5" height="32.625">
   <properties>
    <property name="elementType" value="SAND"/>
    <property name="isContainer" type="bool" value="true"/>
    <property name="runeID" type="int" value="7"/>
   </properties>
  </object>
 </objectgroup>
 <objectgroup id="8" name="transitions">
  <object id="48" x="2" y="193" width="32" height="96">
   <properties>
    <property name="spawnX" type="float" value="550"/>
    <property name="spawnY" type="float" value="250"/>
    <property name="targetMap" value="level2.tmx"/>
   </properties>
  </object>
  <object id="51" x="1248" y="0" width="32" height="128">
   <properties>
    <property name="spawnX" type="float" value="100"/>
    <property name="spawnY" type="float" value="800"/>
    <property name="targetMap" value="level2end.tmx"/>
   </properties>
  </object>
 </objectgroup>
</map>
