<?xml version="1.0" encoding="UTF-8"?>
<map version="1.10" tiledversion="1.11.2" orientation="orthogonal" renderorder="right-down" width="40" height="12" tilewidth="32" tileheight="32" infinite="0" nextlayerid="14" nextobjectid="57">
 <tileset firstgid="1" source="../runes/runesOnline.tsx"/>
 <tileset firstgid="181" source="Tileset_forest.tsx"/>
 <tileset firstgid="385" source="Objects.tsx"/>
 <tileset firstgid="785" source="key.tsx"/>
 <tileset firstgid="797" source="Fairys.tsx"/>
 <tileset firstgid="809" name="#2 - Transparent &amp; Drop Shadow" tilewidth="32" tileheight="32" tilecount="320" columns="16">
  <image source="../Shikashi's Fantasy Icons Pack/Shikashi's Fantasy Icons Pack/#2 - Transparent &amp; Drop Shadow.png" width="512" height="640"/>
 </tileset>
 <tileset firstgid="1129" source="../portal.tsx"/>
 <imagelayer id="7" name="background" offsetx="-0.00414299" offsety="0.0108902" repeatx="1">
  <image source="tileset_forest/TILED_files/Full_bgx32.png" width="960" height="544"/>
 </imagelayer>
 <layer id="9" name="inner" width="40" height="12">
  <data encoding="csv">
0,0,0,0,0,0,0,0,0,0,0,0,0,0,0,0,0,0,0,0,0,0,0,0,0,0,0,0,0,0,0,0,0,0,0,0,0,0,0,0,
0,0,0,0,0,0,0,0,0,0,0,0,0,0,0,0,0,0,0,0,0,0,0,0,0,0,0,0,0,0,0,0,0,0,0,0,0,0,0,0,
0,0,0,0,0,0,0,0,0,0,0,0,0,0,0,0,0,0,0,0,0,0,0,0,0,0,0,0,0,0,0,0,0,0,0,0,0,0,0,0,
0,0,0,0,0,0,0,0,0,0,0,0,0,0,0,0,0,0,0,0,0,0,0,0,0,0,0,0,0,0,0,0,0,0,0,0,0,0,0,0,
0,0,0,0,0,0,0,0,0,0,0,0,0,0,0,0,0,0,0,0,0,0,0,0,0,0,0,0,0,0,0,0,0,0,0,0,0,0,0,0,
0,0,0,0,0,0,0,0,0,0,0,0,0,0,0,0,0,0,0,0,0,0,0,0,0,0,0,0,0,0,0,0,0,0,0,0,0,0,0,0,
0,404,405,0,0,2147484051,2147484050,2147484049,0,0,0,0,0,0,0,0,0,0,0,0,0,0,0,0,0,0,0,0,0,0,0,0,0,0,0,0,0,0,0,0,
0,444,445,446,0,2147484091,2147484090,2147484089,0,0,0,0,0,0,0,0,0,0,0,0,0,0,0,0,0,0,0,0,0,0,0,0,0,0,0,0,0,0,0,0,
0,484,485,486,0,2147484131,2147484130,2147484129,2147484128,0,0,0,0,0,0,0,0,0,0,0,0,0,0,0,0,0,327,327,327,327,327,0,0,0,0,0,0,0,0,0,
0,524,525,526,670,2147484171,2147484170,2147484169,0,0,0,0,0,0,0,0,0,0,0,0,0,0,0,0,0,0,327,327,327,327,327,0,0,0,0,0,0,0,0,0,
0,564,565,0,710,2147484211,2147484210,2147484209,0,0,0,0,0,0,0,0,0,0,0,0,0,0,0,0,0,0,0,0,0,0,0,0,0,0,0,0,0,0,0,0,
0,0,0,0,0,0,0,0,0,0,0,0,0,0,0,0,0,0,0,0,0,0,0,0,0,0,0,0,0,0,0,0,0,0,0,0,0,0,0,0
</data>
 </layer>
 <layer id="1" name="terrain" width="40" height="12">
  <data encoding="csv">
351,352,352,352,352,352,352,352,352,352,1073742203,1073742204,1073742204,1073742205,1073742206,1073742207,1073742208,352,352,352,352,352,352,352,352,352,352,352,352,352,352,352,352,352,352,352,352,352,352,353,
0,0,0,0,0,0,0,0,0,0,0,1073742187,1073742187,0,1073742189,1073742190,0,0,0,0,0,0,0,0,0,0,0,191,314,314,314,314,314,194,0,0,0,0,0,268,
0,0,0,0,0,0,0,0,0,0,330,331,332,282,330,331,332,0,195,196,197,263,197,0,797,0,0,208,0,0,0,0,0,211,0,0,0,0,284,285,
181,182,0,184,0,0,2147484445,0,0,0,347,348,349,299,347,348,349,0,212,213,214,280,281,0,0,0,0,0,0,0,0,0,0,0,0,0,209,210,301,302,
198,199,200,201,202,0,0,0,0,0,0,0,0,0,0,0,0,0,229,230,231,297,231,0,0,0,0,0,0,0,0,0,0,0,0,0,226,227,301,302,
215,216,0,218,0,0,290,291,0,0,0,0,0,0,0,0,0,0,0,0,0,0,0,0,308,309,310,310,310,310,310,311,312,0,0,0,0,0,301,302,
232,233,0,235,236,0,0,0,0,0,0,0,267,0,0,0,0,0,0,0,0,0,0,0,0,326,327,327,327,327,327,328,0,0,0,0,0,0,301,302,
249,250,0,252,0,0,0,0,0,308,309,310,310,310,311,312,0,282,282,0,261,262,263,0,0,326,327,327,327,327,327,328,0,0,0,0,0,0,301,302,
0,0,0,0,0,0,0,0,0,0,326,327,327,327,328,0,0,299,299,0,278,279,280,281,0,326,363,363,364,365,366,328,0,0,0,0,0,0,301,319,
0,0,0,0,0,0,0,0,0,342,343,344,344,344,345,346,0,0,0,0,295,296,297,298,0,379,380,380,381,382,383,384,0,0,0,0,0,0,318,319,
238,239,239,239,239,239,239,239,239,239,239,239,239,239,239,239,239,239,239,239,239,239,239,239,239,239,239,239,239,239,239,239,239,239,239,239,239,239,0,336,
255,256,256,256,256,256,256,256,256,256,256,256,256,256,256,256,256,256,256,256,256,256,256,256,256,256,256,256,256,256,256,256,256,256,256,256,256,256,256,257
</data>
 </layer>
 <layer id="10" name="keys_visual" width="40" height="12">
  <data encoding="csv">
0,0,0,0,0,0,0,0,0,0,0,0,0,0,0,0,0,0,0,0,0,0,0,0,0,0,0,0,0,0,0,0,0,0,0,0,0,0,0,0,
0,0,0,0,0,0,0,0,0,0,0,0,0,994,0,0,0,0,0,0,0,0,0,0,0,0,0,0,0,0,0,0,0,0,0,0,0,0,0,0,
0,0,0,0,0,0,0,0,0,0,0,0,0,0,0,0,0,0,0,0,0,0,0,0,0,0,0,0,0,0,0,0,0,0,0,0,0,0,0,0,
0,0,0,0,0,0,0,0,0,0,0,0,0,0,0,0,0,0,0,0,0,0,0,0,0,0,0,0,0,0,0,0,0,0,0,0,0,0,0,0,
0,0,0,0,0,0,0,0,0,0,0,0,0,0,0,0,0,0,0,0,0,0,0,0,0,0,0,0,0,0,0,0,0,0,0,0,0,0,0,0,
0,0,0,0,0,0,0,0,0,0,0,0,0,0,0,0,0,0,0,0,0,0,0,0,0,0,0,0,0,0,0,0,0,0,0,0,0,0,0,0,
0,0,0,0,0,0,0,0,0,0,0,0,0,0,0,0,0,0,0,0,0,0,0,0,0,0,0,0,0,0,0,0,0,0,0,0,0,0,0,0,
0,0,0,0,0,0,0,0,0,0,0,0,0,0,0,0,0,0,0,0,0,0,0,0,0,0,0,0,0,0,0,0,0,0,0,0,0,0,0,0,
0,0,0,0,0,0,0,0,0,0,0,0,0,0,0,0,0,0,0,0,0,0,0,0,0,0,0,0,0,0,0,0,0,0,0,0,0,0,0,0,
0,0,0,0,0,0,0,0,0,0,0,0,0,0,0,0,0,0,0,0,0,0,0,0,0,0,0,0,0,0,0,0,0,0,0,0,0,0,0,0,
0,0,0,0,0,0,0,0,0,0,0,0,0,0,0,0,0,0,0,0,0,0,0,0,0,0,0,0,0,0,0,0,0,0,0,0,0,0,0,0,
0,0,0,0,0,0,0,0,0,0,0,0,0,0,0,0,0,0,0,0,0,0,0,0,0,0,0,0,0,0,0,0,0,0,0,0,0,0,0,0
</data>
 </layer>
 <layer id="4" name="runes_visual" width="40" height="12">
  <data encoding="csv">
0,0,0,0,0,0,0,0,0,0,0,0,0,0,0,0,0,0,0,0,0,0,0,0,0,0,0,0,0,0,0,0,0,0,0,0,0,0,0,0,
0,0,0,0,0,0,0,0,0,0,0,0,0,0,0,0,0,0,0,0,0,0,0,0,0,0,0,0,0,0,0,0,0,0,0,0,0,0,0,0,
0,0,0,0,0,0,0,0,0,0,0,0,0,0,0,0,0,0,0,0,13,0,0,0,0,0,0,0,0,0,0,0,0,0,0,0,0,0,0,0,
0,0,25,0,0,0,0,0,0,0,0,0,0,0,0,0,0,0,0,0,0,0,0,0,0,0,0,0,0,0,0,0,0,0,0,0,0,0,0,0,
0,0,0,0,0,0,0,0,0,0,0,0,0,0,0,0,0,0,0,0,0,0,0,0,0,0,0,0,0,0,0,0,0,0,0,0,0,0,0,0,
0,0,0,0,0,0,0,0,0,0,0,0,0,0,0,0,0,0,0,0,0,0,0,0,0,0,0,0,0,0,0,0,0,0,0,0,0,0,0,0,
0,0,0,0,0,0,0,0,0,0,0,0,0,0,0,0,0,0,0,0,0,0,0,0,0,0,0,0,0,0,0,0,0,0,0,0,0,0,0,0,
0,0,0,0,0,0,0,0,0,0,0,0,0,0,0,0,0,0,0,0,0,0,0,0,0,0,0,0,0,0,0,0,0,0,0,0,0,0,0,0,
0,0,0,0,0,0,0,0,0,0,0,0,0,0,0,0,0,0,0,0,0,0,0,0,0,0,0,0,0,0,0,0,0,0,0,0,0,0,0,0,
0,0,0,0,0,0,0,0,0,0,0,0,0,0,0,0,0,13,0,0,0,0,0,0,0,0,0,0,0,0,0,0,0,0,25,0,0,0,0,0,
0,0,0,0,0,0,0,0,0,0,0,0,0,0,0,0,0,0,0,0,0,0,0,0,0,0,0,0,0,0,0,0,0,0,0,0,0,0,0,0,
0,0,0,0,0,0,0,0,0,0,0,0,0,0,0,0,0,0,0,0,0,0,0,0,0,0,0,0,0,0,0,0,0,0,0,0,0,0,0,0
</data>
 </layer>
 <layer id="12" name="portal_closed" width="40" height="12">
  <data encoding="csv">
0,0,0,0,0,0,0,0,0,0,0,0,0,0,0,0,0,0,0,0,0,0,0,0,0,0,0,0,0,0,0,0,0,0,0,0,0,0,0,0,
0,0,0,0,0,0,0,0,0,0,0,0,0,0,0,0,0,0,0,0,0,0,0,0,0,0,0,0,0,0,0,0,0,0,0,0,0,0,0,0,
0,0,0,0,0,0,0,0,0,0,0,0,0,0,0,0,0,0,0,0,0,0,0,0,0,0,0,0,0,0,0,0,0,0,0,0,0,1132,0,0,
0,0,0,0,0,0,0,0,0,0,0,0,0,0,0,0,0,0,0,0,0,0,0,0,0,0,0,0,0,0,0,0,0,0,0,0,0,0,0,0,
0,0,0,0,0,0,0,0,0,0,0,0,0,0,0,0,0,0,0,0,0,0,0,0,0,0,0,0,0,0,0,0,0,0,0,0,0,0,0,0,
0,0,0,0,0,0,0,0,0,0,0,0,0,0,0,0,0,0,0,0,0,0,0,0,0,0,0,0,0,0,0,0,0,0,0,0,0,0,0,0,
0,0,0,0,0,0,0,0,0,0,0,0,0,0,0,0,0,0,0,0,0,0,0,0,0,0,0,0,0,0,0,0,0,0,0,0,0,0,0,0,
0,0,0,0,0,0,0,0,0,0,0,0,0,0,0,0,0,0,0,0,0,0,0,0,0,0,0,0,0,0,0,0,0,0,0,0,0,0,0,0,
0,0,0,0,0,0,0,0,0,0,0,0,0,0,0,0,0,0,0,0,0,0,0,0,0,0,0,0,0,0,0,0,0,0,0,0,0,0,0,0,
0,0,0,0,0,0,0,0,0,0,0,0,0,0,0,0,0,0,0,0,0,0,0,0,0,0,0,0,0,0,0,0,0,0,0,0,0,0,0,0,
0,0,0,0,0,0,0,0,0,0,0,0,0,0,0,0,0,0,0,0,0,0,0,0,0,0,0,0,0,0,0,0,0,0,0,0,0,0,0,0,
0,0,0,0,0,0,0,0,0,0,0,0,0,0,0,0,0,0,0,0,0,0,0,0,0,0,0,0,0,0,0,0,0,0,0,0,0,0,0,0
</data>
 </layer>
 <layer id="13" name="portal_open" width="40" height="12" visible="0">
  <data encoding="csv">
0,0,0,0,0,0,0,0,0,0,0,0,0,0,0,0,0,0,0,0,0,0,0,0,0,0,0,0,0,0,0,0,0,0,0,0,0,0,0,0,
0,0,0,0,0,0,0,0,0,0,0,0,0,0,0,0,0,0,0,0,0,0,0,0,0,0,0,0,0,0,0,0,0,0,0,0,0,0,0,0,
0,0,0,0,0,0,0,0,0,0,0,0,0,0,0,0,0,0,0,0,0,0,0,0,0,0,0,0,0,0,0,0,0,0,0,0,0,1129,0,0,
0,0,0,0,0,0,0,0,0,0,0,0,0,0,0,0,0,0,0,0,0,0,0,0,0,0,0,0,0,0,0,0,0,0,0,0,0,0,0,0,
0,0,0,0,0,0,0,0,0,0,0,0,0,0,0,0,0,0,0,0,0,0,0,0,0,0,0,0,0,0,0,0,0,0,0,0,0,0,0,0,
0,0,0,0,0,0,0,0,0,0,0,0,0,0,0,0,0,0,0,0,0,0,0,0,0,0,0,0,0,0,0,0,0,0,0,0,0,0,0,0,
0,0,0,0,0,0,0,0,0,0,0,0,0,0,0,0,0,0,0,0,0,0,0,0,0,0,0,0,0,0,0,0,0,0,0,0,0,0,0,0,
0,0,0,0,0,0,0,0,0,0,0,0,0,0,0,0,0,0,0,0,0,0,0,0,0,0,0,0,0,0,0,0,0,0,0,0,0,0,0,0,
0,0,0,0,0,0,0,0,0,0,0,0,0,0,0,0,0,0,0,0,0,0,0,0,0,0,0,0,0,0,0,0,0,0,0,0,0,0,0,0,
0,0,0,0,0,0,0,0,0,0,0,0,0,0,0,0,0,0,0,0,0,0,0,0,0,0,0,0,0,0,0,0,0,0,0,0,0,0,0,0,
0,0,0,0,0,0,0,0,0,0,0,0,0,0,0,0,0,0,0,0,0,0,0,0,0,0,0,0,0,0,0,0,0,0,0,0,0,0,0,0,
0,0,0,0,0,0,0,0,0,0,0,0,0,0,0,0,0,0,0,0,0,0,0,0,0,0,0,0,0,0,0,0,0,0,0,0,0,0,0,0
</data>
 </layer>
 <objectgroup color="#00aa00" id="2" name="collisions">
  <object id="1" x="-0.00177557" y="320.004" width="1280" height="64"/>
  <object id="2" x="1216" y="0" width="64" height="320"/>
  <object id="3" x="0.000509511" y="159.337" width="64.0034" height="160.663"/>
  <object id="4" x="0.00213068" y="128.001" width="159.998" height="31.6655"/>
  <object id="5" x="0" y="0" width="63.9961" height="127.996"/>
  <object id="6" x="63.9966" y="0" width="1152" height="31.9987"/>
  <object id="8" x="320" y="224.004" width="160" height="95.9961"/>
  <object id="9" x="320.004" y="96" width="223.996" height="32.0039"/>
  <object id="10" x="544" y="224.125" width="64.0034" height="51.9956"/>
  <object id="11" x="640.25" y="223.754" width="95.9961" height="95.9336"/>
  <object id="12" x="800.004" y="160.004" width="223.996" height="160.018"/>
  <object id="13" x="575.996" y="96.0011" width="159.999" height="63.9989"/>
  <object id="15" x="1152" y="96.0013" width="63.9987" height="64.0669"/>
  <object id="16" x="864.007" y="31.9961" width="223.989" height="32"/>
  <object id="22" x="192.001" y="159.998" width="64.1076" height="31.9917"/>
  <object id="35" x="480.002" y="288.004" width="31.9968" height="31.9929"/>
  <object id="36" x="480.127" y="224.004" width="31.9968" height="31.9929"/>
  <object id="37" x="288.03" y="288.094" width="31.9968" height="31.9929"/>
  <object id="38" x="288.155" y="224.094" width="31.9968" height="31.9929"/>
  <object id="39" x="128.335" y="192.337" width="31.9968" height="31.9929"/>
  <object id="41" x="95.9394" y="96.0909" width="32.1212" height="159.909"/>
  <object id="42" x="608.093" y="63.8217" width="31.9968" height="31.9929"/>
  <object id="43" x="672.183" y="64.3672" width="31.9968" height="31.9929"/>
  <object id="44" x="736.183" y="255.871" width="31.9968" height="31.9929"/>
  <object id="45" x="1023.96" y="159.913" width="31.9968" height="31.9929"/>
  <object id="46" x="767.97" y="160.035" width="31.9968" height="31.9929"/>
  <object id="47" x="864.014" y="63.9854" width="31.9968" height="31.9929"/>
  <object id="48" x="1056" y="64.0085" width="31.9968" height="31.9929"/>
  <object id="52" x="415.911" y="63.9581" width="31.9968" height="31.9929"/>
  <object id="53" x="352.02" y="64.0207" width="31.9968" height="31.9929"/>
  <object id="54" x="479.877" y="63.8786" width="31.9968" height="31.9929"/>
 </objectgroup>
 <objectgroup color="#000000" id="3" name="runes">
  <object id="20" x="544.333" y="288.159" width="32" height="31.0156">
   <properties>
    <property name="elementType" value="LAVA"/>
    <property name="isSpawner" type="bool" value="false"/>
   </properties>
  </object>
  <object id="23" x="64" y="96.3333" width="31.9957" height="32">
   <properties>
    <property name="elementType" value="LAVA"/>
    <property name="isSpawner" type="bool" value="true"/>
    <property name="runeID" type="int" value="1"/>
   </properties>
  </object>
  <object id="24" x="640.5" y="64.3672" width="32" height="31.0156">
   <properties>
    <property name="elementType" value="LAVA"/>
    <property name="isSpawner" type="bool" value="false"/>
   </properties>
  </object>
  <object id="25" x="1086.67" y="288" width="31.9957" height="32">
   <properties>
    <property name="elementType" value="LAVA"/>
    <property name="isSpawner" type="bool" value="true"/>
    <property name="runeID" type="int" value="1"/>
   </properties>
  </object>
  <object id="26" x="1026.51" y="160.505" width="188.488" height="158.489">
   <properties>
    <property name="elementType" value="LAVA"/>
    <property name="isContainer" type="bool" value="true"/>
    <property name="runeID" type="int" value="1"/>
   </properties>
  </object>
 </objectgroup>
 <objectgroup color="#ffff00" id="11" name="keys">
  <object id="50" name="Key" x="416" y="31.9375" width="32" height="32">
   <properties>
    <property name="isKey" type="bool" value="true"/>
   </properties>
  </object>
  <object id="56" x="1183.35" y="64.5152" width="31.6364" height="31.303">
   <properties>
    <property name="isDoor" type="bool" value="true"/>
    <property name="spawnX" type="float" value="100"/>
    <property name="spawnY" type="float" value="800"/>
    <property name="targetMap" value="levelEnding.tmx"/>
   </properties>
  </object>
 </objectgroup>
 <objectgroup color="#ff0000" id="5" name="enemies">
  <object id="27" x="685.333" y="212.667">
   <properties>
    <property name="enemyType" value="slime"/>
   </properties>
  </object>
  <object id="28" x="627.333" y="309.636">
   <properties>
    <property name="enemyType" value="slime"/>
   </properties>
  </object>
  <object id="29" x="398.424" y="213.697">
   <properties>
    <property name="enemyType" value="slime"/>
   </properties>
  </object>
  <object id="30" x="1194.25" y="297.917">
   <properties>
    <property name="enemyType" value="slime"/>
   </properties>
  </object>
  <object id="31" x="1045.36" y="298.076">
   <properties>
    <property name="enemyType" value="slime"/>
   </properties>
  </object>
 </objectgroup>
</map>
