<?xml version="1.0" encoding="UTF-8"?>
<map version="1.10" tiledversion="1.11.2" orientation="orthogonal" renderorder="right-down" width="60" height="12" tilewidth="32" tileheight="32" infinite="0" nextlayerid="16" nextobjectid="123">
 <tileset firstgid="1" name="obstacles" tilewidth="175" tileheight="190" tilecount="57" columns="0">
  <grid orientation="orthogonal" width="1" height="1"/>
  <tile id="0">
   <image source="tileset/test4/3 Objects/Benches/1.png" width="45" height="22"/>
  </tile>
  <tile id="1">
   <image source="tileset/test4/3 Objects/Benches/2.png" width="48" height="22"/>
  </tile>
  <tile id="2">
   <image source="tileset/test4/3 Objects/Benches/3.png" width="45" height="10"/>
  </tile>
  <tile id="3">
   <image source="tileset/test4/3 Objects/Benches/4.png" width="48" height="10"/>
  </tile>
  <tile id="4">
   <image source="tileset/test4/3 Objects/Bushes/1.png" width="32" height="33"/>
  </tile>
  <tile id="5">
   <image source="tileset/test4/3 Objects/Bushes/2.png" width="32" height="33"/>
  </tile>
  <tile id="6">
   <image source="tileset/test4/3 Objects/Bushes/3.png" width="32" height="33"/>
  </tile>
  <tile id="7">
   <image source="tileset/test4/3 Objects/Bushes/4.png" width="32" height="33"/>
  </tile>
  <tile id="8">
   <image source="tileset/test4/3 Objects/Bushes/5.png" width="32" height="25"/>
  </tile>
  <tile id="9">
   <image source="tileset/test4/3 Objects/Bushes/6.png" width="32" height="25"/>
  </tile>
  <tile id="10">
   <image source="tileset/test4/3 Objects/Bushes/7.png" width="32" height="25"/>
  </tile>
  <tile id="11">
   <image source="tileset/test4/3 Objects/Bushes/8.png" width="32" height="25"/>
  </tile>
  <tile id="12">
   <image source="tileset/test4/3 Objects/Bushes/9.png" width="32" height="16"/>
  </tile>
  <tile id="13">
   <image source="tileset/test4/3 Objects/Bushes/10.png" width="32" height="16"/>
  </tile>
  <tile id="14">
   <image source="tileset/test4/3 Objects/Bushes/11.png" width="32" height="16"/>
  </tile>
  <tile id="15">
   <image source="tileset/test4/3 Objects/Bushes/12.png" width="32" height="16"/>
  </tile>
  <tile id="16">
   <image source="tileset/test4/3 Objects/Bushes/13.png" width="40" height="17"/>
  </tile>
  <tile id="17">
   <image source="tileset/test4/3 Objects/Bushes/14.png" width="40" height="16"/>
  </tile>
  <tile id="18">
   <image source="tileset/test4/3 Objects/Bushes/15.png" width="38" height="13"/>
  </tile>
  <tile id="19">
   <image source="tileset/test4/3 Objects/Bushes/16.png" width="22" height="10"/>
  </tile>
  <tile id="20">
   <image source="tileset/test4/3 Objects/Bushes/17.png" width="50" height="25"/>
  </tile>
  <tile id="21">
   <image source="tileset/test4/3 Objects/Bushes/18.png" width="41" height="24"/>
  </tile>
  <tile id="22">
   <image source="tileset/test4/3 Objects/Bushes/19.png" width="43" height="22"/>
  </tile>
  <tile id="23">
   <image source="tileset/test4/3 Objects/Bushes/20.png" width="30" height="19"/>
  </tile>
  <tile id="24">
   <image source="tileset/test4/3 Objects/Fence/1.png" width="35" height="64"/>
  </tile>
  <tile id="25">
   <image source="tileset/test4/3 Objects/Fence/2.png" width="35" height="64"/>
  </tile>
  <tile id="26">
   <image source="tileset/test4/3 Objects/Fence/2_1.png" width="17" height="41"/>
  </tile>
  <tile id="27">
   <image source="tileset/test4/3 Objects/Fence/3.png" width="35" height="64"/>
  </tile>
  <tile id="28">
   <image source="tileset/test4/3 Objects/Fence/4.png" width="35" height="64"/>
  </tile>
  <tile id="29">
   <image source="tileset/test4/3 Objects/Fence/4_1.png" width="3" height="41"/>
  </tile>
  <tile id="30">
   <image source="tileset/test4/3 Objects/Fence/5.png" width="35" height="64"/>
  </tile>
  <tile id="31">
   <image source="tileset/test4/3 Objects/Fence/6.png" width="48" height="64"/>
  </tile>
  <tile id="32">
   <image source="tileset/test4/3 Objects/Fence/7.png" width="48" height="64"/>
  </tile>
  <tile id="33">
   <image source="tileset/test4/3 Objects/Fountain/1.png" width="72" height="72"/>
  </tile>
  <tile id="34">
   <image source="tileset/test4/3 Objects/Fountain/2.png" width="72" height="72"/>
  </tile>
  <tile id="35">
   <image source="tileset/test4/3 Objects/Other/Box.png" width="32" height="25"/>
  </tile>
  <tile id="36">
   <image source="tileset/test4/3 Objects/Other/Garbage_Can1.png" width="15" height="13"/>
  </tile>
  <tile id="37">
   <image source="tileset/test4/3 Objects/Other/Garbage_Can2.png" width="15" height="13"/>
  </tile>
  <tile id="38">
   <image source="tileset/test4/3 Objects/Other/Ladder1.png" width="23" height="32"/>
  </tile>
  <tile id="39">
   <image source="tileset/test4/3 Objects/Other/Ladder2.png" width="23" height="32"/>
  </tile>
  <tile id="40">
   <image source="tileset/test4/3 Objects/Other/Ramp1.png" width="92" height="48"/>
  </tile>
  <tile id="41">
   <image source="tileset/test4/3 Objects/Other/Ramp2.png" width="92" height="48"/>
  </tile>
  <tile id="42">
   <image source="tileset/test4/3 Objects/Other/Rapm3.png" width="144" height="39"/>
  </tile>
  <tile id="43">
   <image source="tileset/test4/3 Objects/Other/Skateboard1.png" width="26" height="7"/>
  </tile>
  <tile id="44">
   <image source="tileset/test4/3 Objects/Other/Skateboard2.png" width="11" height="20"/>
  </tile>
  <tile id="45">
   <image source="tileset/test4/3 Objects/Other/Skateboard3.png" width="10" height="20"/>
  </tile>
  <tile id="46">
   <image source="tileset/test4/3 Objects/Other/Skateboard4.png" width="12" height="20"/>
  </tile>
  <tile id="47">
   <image source="tileset/test4/3 Objects/Other/Tree1.png" width="62" height="103"/>
  </tile>
  <tile id="48">
   <image source="tileset/test4/3 Objects/Other/Tree2.png" width="124" height="129"/>
  </tile>
  <tile id="49">
   <image source="tileset/test4/3 Objects/Other/Tree3.png" width="175" height="190"/>
  </tile>
  <tile id="50">
   <image source="tileset/test4/3 Objects/Other/Tree4.png" width="175" height="190"/>
  </tile>
  <tile id="51">
   <image source="tileset/test4/3 Objects/Stones/1.png" width="10" height="7"/>
  </tile>
  <tile id="52">
   <image source="tileset/test4/3 Objects/Stones/2.png" width="22" height="14"/>
  </tile>
  <tile id="53">
   <image source="tileset/test4/3 Objects/Stones/3.png" width="27" height="16"/>
  </tile>
  <tile id="54">
   <image source="tileset/test4/3 Objects/Stones/4.png" width="39" height="17"/>
  </tile>
  <tile id="55">
   <image source="tileset/test4/3 Objects/Stones/5.png" width="46" height="22"/>
  </tile>
  <tile id="56">
   <image source="tileset/test4/3 Objects/Stones/6.png" width="70" height="44"/>
  </tile>
 </tileset>
 <tileset firstgid="58" name="startingarea" tilewidth="32" tileheight="32" tilecount="96" columns="0">
  <grid orientation="orthogonal" width="1" height="1"/>
  <tile id="0">
   <image source="tileset/test4/1 Tiles/Tile_01.png" width="32" height="32"/>
  </tile>
  <tile id="1">
   <image source="tileset/test4/1 Tiles/Tile_02.png" width="32" height="32"/>
  </tile>
  <tile id="2">
   <image source="tileset/test4/1 Tiles/Tile_03.png" width="32" height="32"/>
  </tile>
  <tile id="3">
   <image source="tileset/test4/1 Tiles/Tile_04.png" width="32" height="32"/>
  </tile>
  <tile id="4">
   <image source="tileset/test4/1 Tiles/Tile_05.png" width="32" height="32"/>
  </tile>
  <tile id="5">
   <image source="tileset/test4/1 Tiles/Tile_06.png" width="32" height="32"/>
  </tile>
  <tile id="6">
   <image source="tileset/test4/1 Tiles/Tile_07.png" width="32" height="32"/>
  </tile>
  <tile id="7">
   <image source="tileset/test4/1 Tiles/Tile_08.png" width="32" height="32"/>
  </tile>
  <tile id="8">
   <image source="tileset/test4/1 Tiles/Tile_09.png" width="32" height="32"/>
  </tile>
  <tile id="9">
   <image source="tileset/test4/1 Tiles/Tile_10.png" width="32" height="32"/>
  </tile>
  <tile id="10">
   <image source="tileset/test4/1 Tiles/Tile_11.png" width="32" height="32"/>
  </tile>
  <tile id="11">
   <image source="tileset/test4/1 Tiles/Tile_12.png" width="32" height="32"/>
  </tile>
  <tile id="12">
   <image source="tileset/test4/1 Tiles/Tile_13.png" width="32" height="32"/>
  </tile>
  <tile id="13">
   <image source="tileset/test4/1 Tiles/Tile_14.png" width="32" height="32"/>
  </tile>
  <tile id="14">
   <image source="tileset/test4/1 Tiles/Tile_15.png" width="32" height="32"/>
  </tile>
  <tile id="15">
   <image source="tileset/test4/1 Tiles/Tile_16.png" width="32" height="32"/>
  </tile>
  <tile id="16">
   <image source="tileset/test4/1 Tiles/Tile_17.png" width="32" height="32"/>
  </tile>
  <tile id="17">
   <image source="tileset/test4/1 Tiles/Tile_18.png" width="32" height="32"/>
  </tile>
  <tile id="18">
   <image source="tileset/test4/1 Tiles/Tile_19.png" width="32" height="32"/>
  </tile>
  <tile id="19">
   <image source="tileset/test4/1 Tiles/Tile_20.png" width="32" height="32"/>
  </tile>
  <tile id="20">
   <image source="tileset/test4/1 Tiles/Tile_21.png" width="32" height="32"/>
  </tile>
  <tile id="21">
   <image source="tileset/test4/1 Tiles/Tile_22.png" width="32" height="32"/>
  </tile>
  <tile id="22">
   <image source="tileset/test4/1 Tiles/Tile_23.png" width="32" height="32"/>
  </tile>
  <tile id="23">
   <image source="tileset/test4/1 Tiles/Tile_24.png" width="32" height="32"/>
  </tile>
  <tile id="24">
   <image source="tileset/test4/1 Tiles/Tile_25.png" width="32" height="32"/>
  </tile>
  <tile id="25">
   <image source="tileset/test4/1 Tiles/Tile_26.png" width="32" height="32"/>
  </tile>
  <tile id="26">
   <image source="tileset/test4/1 Tiles/Tile_27.png" width="32" height="32"/>
  </tile>
  <tile id="27">
   <image source="tileset/test4/1 Tiles/Tile_28.png" width="32" height="32"/>
  </tile>
  <tile id="28">
   <image source="tileset/test4/1 Tiles/Tile_29.png" width="32" height="32"/>
  </tile>
  <tile id="29">
   <image source="tileset/test4/1 Tiles/Tile_30.png" width="32" height="32"/>
  </tile>
  <tile id="30">
   <image source="tileset/test4/1 Tiles/Tile_31.png" width="32" height="32"/>
  </tile>
  <tile id="31">
   <image source="tileset/test4/1 Tiles/Tile_32.png" width="32" height="32"/>
  </tile>
  <tile id="32">
   <image source="tileset/test4/1 Tiles/Tile_33.png" width="32" height="32"/>
  </tile>
  <tile id="33">
   <image source="tileset/test4/1 Tiles/Tile_34.png" width="32" height="32"/>
  </tile>
  <tile id="34">
   <image source="tileset/test4/1 Tiles/Tile_35.png" width="32" height="32"/>
  </tile>
  <tile id="35">
   <image source="tileset/test4/1 Tiles/Tile_36.png" width="32" height="32"/>
  </tile>
  <tile id="36">
   <image source="tileset/test4/1 Tiles/Tile_37.png" width="32" height="32"/>
  </tile>
  <tile id="37">
   <image source="tileset/test4/1 Tiles/Tile_38.png" width="32" height="32"/>
  </tile>
  <tile id="38">
   <image source="tileset/test4/1 Tiles/Tile_39.png" width="32" height="32"/>
  </tile>
  <tile id="39">
   <image source="tileset/test4/1 Tiles/Tile_40.png" width="32" height="32"/>
  </tile>
  <tile id="40">
   <image source="tileset/test4/1 Tiles/Tile_41.png" width="32" height="32"/>
  </tile>
  <tile id="41">
   <image source="tileset/test4/1 Tiles/Tile_42.png" width="32" height="32"/>
  </tile>
  <tile id="42">
   <image source="tileset/test4/1 Tiles/Tile_43.png" width="32" height="32"/>
  </tile>
  <tile id="43">
   <image source="tileset/test4/1 Tiles/Tile_44.png" width="32" height="32"/>
  </tile>
  <tile id="44">
   <image source="tileset/test4/1 Tiles/Tile_45.png" width="32" height="32"/>
  </tile>
  <tile id="45">
   <image source="tileset/test4/1 Tiles/Tile_46.png" width="32" height="32"/>
  </tile>
  <tile id="46">
   <image source="tileset/test4/1 Tiles/Tile_47.png" width="32" height="32"/>
  </tile>
  <tile id="47">
   <image source="tileset/test4/1 Tiles/Tile_48.png" width="32" height="32"/>
  </tile>
  <tile id="48">
   <image source="tileset/test4/1 Tiles/Tile_49.png" width="32" height="32"/>
  </tile>
  <tile id="49">
   <image source="tileset/test4/1 Tiles/Tile_50.png" width="32" height="32"/>
  </tile>
  <tile id="50">
   <image source="tileset/test4/1 Tiles/Tile_51.png" width="32" height="32"/>
  </tile>
  <tile id="51">
   <image source="tileset/test4/1 Tiles/Tile_52.png" width="32" height="32"/>
  </tile>
  <tile id="52">
   <image source="tileset/test4/1 Tiles/Tile_53.png" width="32" height="32"/>
  </tile>
  <tile id="53">
   <image source="tileset/test4/1 Tiles/Tile_54.png" width="32" height="32"/>
  </tile>
  <tile id="54">
   <image source="tileset/test4/1 Tiles/Tile_55.png" width="32" height="32"/>
  </tile>
  <tile id="55">
   <image source="tileset/test4/1 Tiles/Tile_56.png" width="32" height="32"/>
  </tile>
  <tile id="56">
   <image source="tileset/test4/1 Tiles/Tile_57.png" width="32" height="32"/>
  </tile>
  <tile id="57">
   <image source="tileset/test4/1 Tiles/Tile_58.png" width="32" height="32"/>
  </tile>
  <tile id="58">
   <image source="tileset/test4/1 Tiles/Tile_59.png" width="32" height="32"/>
  </tile>
  <tile id="59">
   <image source="tileset/test4/1 Tiles/Tile_60.png" width="32" height="32"/>
  </tile>
  <tile id="60">
   <image source="tileset/test4/1 Tiles/Tile_61.png" width="32" height="32"/>
  </tile>
  <tile id="61">
   <image source="tileset/test4/1 Tiles/Tile_62.png" width="32" height="32"/>
  </tile>
  <tile id="62">
   <image source="tileset/test4/1 Tiles/Tile_63.png" width="32" height="32"/>
  </tile>
  <tile id="63">
   <image source="tileset/test4/1 Tiles/Tile_64.png" width="32" height="32"/>
  </tile>
  <tile id="64">
   <image source="tileset/test4/1 Tiles/Tile_65.png" width="32" height="32"/>
  </tile>
  <tile id="65">
   <image source="tileset/test4/1 Tiles/Tile_66.png" width="32" height="32"/>
  </tile>
  <tile id="66">
   <image source="tileset/test4/1 Tiles/Tile_67.png" width="32" height="32"/>
  </tile>
  <tile id="67">
   <image source="tileset/test4/1 Tiles/Tile_68.png" width="32" height="32"/>
  </tile>
  <tile id="68">
   <image source="tileset/test4/1 Tiles/Tile_69.png" width="32" height="32"/>
  </tile>
  <tile id="69">
   <image source="tileset/test4/1 Tiles/Tile_70.png" width="32" height="32"/>
  </tile>
  <tile id="70">
   <image source="tileset/test4/1 Tiles/Tile_71.png" width="32" height="32"/>
  </tile>
  <tile id="71">
   <image source="tileset/test4/1 Tiles/Tile_72.png" width="32" height="32"/>
  </tile>
  <tile id="72">
   <image source="tileset/test4/1 Tiles/Tile_73.png" width="32" height="32"/>
  </tile>
  <tile id="73">
   <image source="tileset/test4/1 Tiles/Tile_74.png" width="32" height="32"/>
  </tile>
  <tile id="74">
   <image source="tileset/test4/1 Tiles/Tile_75.png" width="32" height="32"/>
  </tile>
  <tile id="75">
   <image source="tileset/test4/1 Tiles/Tile_76.png" width="32" height="32"/>
  </tile>
  <tile id="76">
   <image source="tileset/test4/1 Tiles/Tile_77.png" width="32" height="32"/>
  </tile>
  <tile id="77">
   <image source="tileset/test4/1 Tiles/Tile_78.png" width="32" height="32"/>
  </tile>
  <tile id="78">
   <image source="tileset/test4/1 Tiles/Tile_79.png" width="32" height="32"/>
  </tile>
  <tile id="79">
   <image source="tileset/test4/1 Tiles/Tile_80.png" width="32" height="32"/>
  </tile>
  <tile id="80">
   <image source="tileset/test4/1 Tiles/Tile_81.png" width="32" height="32"/>
  </tile>
  <tile id="81">
   <image source="tileset/test4/1 Tiles/Tile_82.png" width="32" height="32"/>
  </tile>
  <tile id="82">
   <image source="tileset/test4/1 Tiles/Tile_83.png" width="32" height="32"/>
  </tile>
  <tile id="83">
   <image source="tileset/test4/1 Tiles/Tile_84.png" width="32" height="32"/>
  </tile>
  <tile id="84">
   <image source="tileset/test4/1 Tiles/Tile_85.png" width="32" height="32"/>
  </tile>
  <tile id="85">
   <image source="tileset/test4/1 Tiles/Tile_86.png" width="32" height="32"/>
  </tile>
  <tile id="86">
   <image source="tileset/test4/1 Tiles/Tile_87.png" width="32" height="32"/>
  </tile>
  <tile id="87">
   <image source="tileset/test4/1 Tiles/Tile_88.png" width="32" height="32"/>
  </tile>
  <tile id="88">
   <image source="tileset/test4/1 Tiles/Tile_89.png" width="32" height="32"/>
  </tile>
  <tile id="89">
   <image source="tileset/test4/1 Tiles/Tile_90.png" width="32" height="32"/>
  </tile>
  <tile id="90">
   <image source="tileset/test4/1 Tiles/Tile_91.png" width="32" height="32"/>
  </tile>
  <tile id="91">
   <image source="tileset/test4/1 Tiles/Tile_92.png" width="32" height="32"/>
  </tile>
  <tile id="92">
   <image source="tileset/test4/1 Tiles/Tile_93.png" width="32" height="32"/>
  </tile>
  <tile id="93">
   <image source="tileset/test4/1 Tiles/Tile_94.png" width="32" height="32"/>
  </tile>
  <tile id="94">
   <image source="tileset/test4/1 Tiles/Tile_95.png" width="32" height="32"/>
  </tile>
  <tile id="95">
   <image source="tileset/test4/1 Tiles/Tile_96.png" width="32" height="32"/>
  </tile>
 </tileset>
 <tileset firstgid="154" name="camp" tilewidth="1024" tileheight="544" tilecount="38" columns="0">
  <grid orientation="orthogonal" width="1" height="1"/>
  <tile id="0">
   <image source="tileset/GandalfHardcore FREE Platformer Assets/Angel Statue.png" width="64" height="64"/>
  </tile>
  <tile id="1">
   <image source="tileset/GandalfHardcore FREE Platformer Assets/BG Dirt1.png" width="192" height="128"/>
  </tile>
  <tile id="2">
   <image source="tileset/GandalfHardcore FREE Platformer Assets/BG Dirt2.png" width="192" height="128"/>
  </tile>
  <tile id="3">
   <image source="tileset/GandalfHardcore FREE Platformer Assets/Birch1.png" width="80" height="112"/>
  </tile>
  <tile id="4">
   <image source="tileset/GandalfHardcore FREE Platformer Assets/Birch2.png" width="80" height="112"/>
  </tile>
  <tile id="5">
   <image source="tileset/GandalfHardcore FREE Platformer Assets/Birch3.png" width="80" height="112"/>
  </tile>
  <tile id="6">
   <image source="tileset/GandalfHardcore FREE Platformer Assets/birds1.png" width="20" height="20"/>
  </tile>
  <tile id="7">
   <image source="tileset/GandalfHardcore FREE Platformer Assets/birds2.png" width="12" height="24"/>
  </tile>
  <tile id="8">
   <image source="tileset/GandalfHardcore FREE Platformer Assets/birds3.png" width="7" height="7"/>
  </tile>
  <tile id="9">
   <image source="tileset/GandalfHardcore FREE Platformer Assets/birds4.png" width="9" height="9"/>
  </tile>
  <tile id="10">
   <image source="tileset/GandalfHardcore FREE Platformer Assets/Boat.png" width="800" height="32"/>
  </tile>
  <tile id="11">
   <image source="tileset/GandalfHardcore FREE Platformer Assets/Christmas tree.png" width="32" height="64"/>
  </tile>
  <tile id="12">
   <image source="tileset/GandalfHardcore FREE Platformer Assets/cloud1.png" width="25" height="10"/>
  </tile>
  <tile id="13">
   <image source="tileset/GandalfHardcore FREE Platformer Assets/cloud2.png" width="43" height="15"/>
  </tile>
  <tile id="14">
   <image source="tileset/GandalfHardcore FREE Platformer Assets/cloud3.png" width="55" height="16"/>
  </tile>
  <tile id="15">
   <image source="tileset/GandalfHardcore FREE Platformer Assets/cloud4.png" width="73" height="29"/>
  </tile>
  <tile id="16">
   <image source="tileset/GandalfHardcore FREE Platformer Assets/cloud5.png" width="110" height="35"/>
  </tile>
  <tile id="17">
   <image source="tileset/GandalfHardcore FREE Platformer Assets/cloud6.png" width="165" height="101"/>
  </tile>
  <tile id="18">
   <image source="tileset/GandalfHardcore FREE Platformer Assets/GandalfHardcore Background layers/wow.png" width="50" height="51"/>
  </tile>
  <tile id="19">
   <image source="tileset/GandalfHardcore FREE Platformer Assets/hot air balloon.png" width="20" height="35"/>
  </tile>
  <tile id="20">
   <image source="tileset/GandalfHardcore FREE Platformer Assets/House Tiles.png" width="448" height="224"/>
  </tile>
  <tile id="21">
   <image source="tileset/GandalfHardcore FREE Platformer Assets/Large Pine Tree.png" width="128" height="176"/>
  </tile>
  <tile id="22">
   <image source="tileset/GandalfHardcore FREE Platformer Assets/Large Tent.png" width="96" height="128"/>
  </tile>
  <tile id="23">
   <image source="tileset/GandalfHardcore FREE Platformer Assets/Ores.png" width="128" height="128"/>
  </tile>
  <tile id="24">
   <image source="tileset/GandalfHardcore FREE Platformer Assets/Pine forest sheet.png" width="320" height="208"/>
  </tile>
  <tile id="25">
   <image source="tileset/GandalfHardcore FREE Platformer Assets/Pine Trees.png" width="672" height="192"/>
  </tile>
  <tile id="26">
   <image source="tileset/GandalfHardcore FREE Platformer Assets/pixel Art Bonsai.png" width="64" height="64"/>
  </tile>
  <tile id="27">
   <image source="tileset/GandalfHardcore FREE Platformer Assets/Pixel Art Furnace and Sawmill.png" width="384" height="128"/>
  </tile>
  <tile id="28">
   <image source="tileset/GandalfHardcore FREE Platformer Assets/Pixel Art Wheat.png" width="256" height="32"/>
  </tile>
  <tile id="29">
   <image source="tileset/GandalfHardcore FREE Platformer Assets/sun.png" width="32" height="32"/>
  </tile>
  <tile id="30">
   <image source="tileset/GandalfHardcore FREE Platformer Assets/Tree1.png" width="256" height="208"/>
  </tile>
  <tile id="31">
   <image source="tileset/GandalfHardcore FREE Platformer Assets/Tree2.png" width="256" height="208"/>
  </tile>
  <tile id="32">
   <image source="tileset/GandalfHardcore FREE Platformer Assets/Tree3.png" width="256" height="208"/>
  </tile>
  <tile id="33">
   <image source="tileset/GandalfHardcore FREE Platformer Assets/Tree4.png" width="256" height="208"/>
  </tile>
  <tile id="34">
   <image source="tileset/GandalfHardcore FREE Platformer Assets/Weeping Willow1.png" width="224" height="192"/>
  </tile>
  <tile id="35">
   <image source="tileset/GandalfHardcore FREE Platformer Assets/Weeping Willow2.png" width="224" height="192"/>
  </tile>
  <tile id="36">
   <image source="tileset/GandalfHardcore FREE Platformer Assets/Weeping Willow3.png" width="224" height="192"/>
  </tile>
  <tile id="37">
   <image source="tileset/GandalfHardcore FREE Platformer Assets/Decor.png" width="416" height="544"/>
  </tile>
 </tileset>
 <tileset firstgid="192" name="camprops" tilewidth="96" tileheight="59" tilecount="68" columns="0">
  <grid orientation="orthogonal" width="1" height="1"/>
  <tile id="15">
   <image source="tileset/GandalfHardcore FREE Platformer Assets/aseprite/apple.png" width="7" height="7"/>
  </tile>
  <tile id="16">
   <image source="tileset/GandalfHardcore FREE Platformer Assets/aseprite/apple.png" width="7" height="7"/>
  </tile>
  <tile id="17">
   <image source="tileset/GandalfHardcore FREE Platformer Assets/aseprite/applebasket.png" width="17" height="15"/>
  </tile>
  <tile id="18">
   <image source="tileset/GandalfHardcore FREE Platformer Assets/aseprite/applebasket.png" width="17" height="15"/>
  </tile>
  <tile id="19">
   <image source="tileset/GandalfHardcore FREE Platformer Assets/aseprite/applepile.png" width="19" height="11"/>
  </tile>
  <tile id="20">
   <image source="tileset/GandalfHardcore FREE Platformer Assets/aseprite/applepile.png" width="19" height="11"/>
  </tile>
  <tile id="21">
   <image source="tileset/GandalfHardcore FREE Platformer Assets/aseprite/applepile2.png" width="28" height="18"/>
  </tile>
  <tile id="22">
   <image source="tileset/GandalfHardcore FREE Platformer Assets/aseprite/applepile2.png" width="28" height="18"/>
  </tile>
  <tile id="23">
   <image source="tileset/GandalfHardcore FREE Platformer Assets/aseprite/axed.png" width="18" height="29"/>
  </tile>
  <tile id="24">
   <image source="tileset/GandalfHardcore FREE Platformer Assets/aseprite/axed.png" width="18" height="29"/>
  </tile>
  <tile id="25">
   <image source="tileset/GandalfHardcore FREE Platformer Assets/aseprite/axed2.png" width="21" height="21"/>
  </tile>
  <tile id="26">
   <image source="tileset/GandalfHardcore FREE Platformer Assets/aseprite/axed2.png" width="21" height="21"/>
  </tile>
  <tile id="27">
   <image source="tileset/GandalfHardcore FREE Platformer Assets/aseprite/barrel1.png" width="15" height="18"/>
  </tile>
  <tile id="28">
   <image source="tileset/GandalfHardcore FREE Platformer Assets/aseprite/barrel1.png" width="15" height="18"/>
  </tile>
  <tile id="29">
   <image source="tileset/GandalfHardcore FREE Platformer Assets/aseprite/barrel2.png" width="29" height="18"/>
  </tile>
  <tile id="30">
   <image source="tileset/GandalfHardcore FREE Platformer Assets/aseprite/barrel2.png" width="29" height="18"/>
  </tile>
  <tile id="31">
   <image source="tileset/GandalfHardcore FREE Platformer Assets/aseprite/basket.png" width="17" height="15"/>
  </tile>
  <tile id="32">
   <image source="tileset/GandalfHardcore FREE Platformer Assets/aseprite/basket.png" width="17" height="15"/>
  </tile>
  <tile id="33">
   <image source="tileset/GandalfHardcore FREE Platformer Assets/aseprite/basketfood.png" width="17" height="15"/>
  </tile>
  <tile id="34">
   <image source="tileset/GandalfHardcore FREE Platformer Assets/aseprite/basketfood.png" width="17" height="15"/>
  </tile>
  <tile id="35">
   <image source="tileset/GandalfHardcore FREE Platformer Assets/aseprite/bottles.png" width="25" height="12"/>
  </tile>
  <tile id="36">
   <image source="tileset/GandalfHardcore FREE Platformer Assets/aseprite/bottles.png" width="25" height="12"/>
  </tile>
  <tile id="37">
   <image source="tileset/GandalfHardcore FREE Platformer Assets/aseprite/bottlwe.png" width="5" height="12"/>
  </tile>
  <tile id="38">
   <image source="tileset/GandalfHardcore FREE Platformer Assets/aseprite/bottlwe.png" width="5" height="12"/>
  </tile>
  <tile id="39">
   <image source="tileset/GandalfHardcore FREE Platformer Assets/aseprite/brick.png" width="50" height="51"/>
  </tile>
  <tile id="40">
   <image source="tileset/GandalfHardcore FREE Platformer Assets/aseprite/brick.png" width="50" height="51"/>
  </tile>
  <tile id="41">
   <image source="tileset/GandalfHardcore FREE Platformer Assets/aseprite/bucket.png" width="12" height="12"/>
  </tile>
  <tile id="42">
   <image source="tileset/GandalfHardcore FREE Platformer Assets/aseprite/bucket.png" width="12" height="12"/>
  </tile>
  <tile id="43">
   <image source="tileset/GandalfHardcore FREE Platformer Assets/aseprite/bucket2.png" width="10" height="15"/>
  </tile>
  <tile id="44">
   <image source="tileset/GandalfHardcore FREE Platformer Assets/aseprite/bucket2.png" width="10" height="15"/>
  </tile>
  <tile id="45">
   <image source="tileset/GandalfHardcore FREE Platformer Assets/aseprite/cauldron.png" width="19" height="15"/>
  </tile>
  <tile id="46">
   <image source="tileset/GandalfHardcore FREE Platformer Assets/aseprite/cauldron.png" width="19" height="15"/>
  </tile>
  <tile id="47">
   <image source="tileset/GandalfHardcore FREE Platformer Assets/aseprite/chair.png" width="18" height="12"/>
  </tile>
  <tile id="48">
   <image source="tileset/GandalfHardcore FREE Platformer Assets/aseprite/chair.png" width="18" height="12"/>
  </tile>
  <tile id="49">
   <image source="tileset/GandalfHardcore FREE Platformer Assets/aseprite/chair2.png" width="18" height="26"/>
  </tile>
  <tile id="50">
   <image source="tileset/GandalfHardcore FREE Platformer Assets/aseprite/chair2.png" width="18" height="26"/>
  </tile>
  <tile id="51">
   <image source="tileset/GandalfHardcore FREE Platformer Assets/aseprite/crate1.png" width="27" height="16"/>
  </tile>
  <tile id="52">
   <image source="tileset/GandalfHardcore FREE Platformer Assets/aseprite/crate1.png" width="27" height="16"/>
  </tile>
  <tile id="53">
   <image source="tileset/GandalfHardcore FREE Platformer Assets/aseprite/crate2.png" width="27" height="32"/>
  </tile>
  <tile id="54">
   <image source="tileset/GandalfHardcore FREE Platformer Assets/aseprite/crate2.png" width="27" height="32"/>
  </tile>
  <tile id="55">
   <image source="tileset/GandalfHardcore FREE Platformer Assets/aseprite/fallen.png" width="26" height="55"/>
  </tile>
  <tile id="56">
   <image source="tileset/GandalfHardcore FREE Platformer Assets/aseprite/fallen.png" width="26" height="55"/>
  </tile>
  <tile id="57">
   <image source="tileset/GandalfHardcore FREE Platformer Assets/aseprite/headstone.png" width="23" height="24"/>
  </tile>
  <tile id="58">
   <image source="tileset/GandalfHardcore FREE Platformer Assets/aseprite/headstone.png" width="23" height="24"/>
  </tile>
  <tile id="59">
   <image source="tileset/GandalfHardcore FREE Platformer Assets/aseprite/headstone2.png" width="21" height="24"/>
  </tile>
  <tile id="60">
   <image source="tileset/GandalfHardcore FREE Platformer Assets/aseprite/headstone2.png" width="21" height="24"/>
  </tile>
  <tile id="61">
   <image source="tileset/GandalfHardcore FREE Platformer Assets/aseprite/headstone3.png" width="22" height="21"/>
  </tile>
  <tile id="62">
   <image source="tileset/GandalfHardcore FREE Platformer Assets/aseprite/headstone3.png" width="22" height="21"/>
  </tile>
  <tile id="63">
   <image source="tileset/GandalfHardcore FREE Platformer Assets/aseprite/headstone4.png" width="21" height="27"/>
  </tile>
  <tile id="64">
   <image source="tileset/GandalfHardcore FREE Platformer Assets/aseprite/headstone4.png" width="21" height="27"/>
  </tile>
  <tile id="65">
   <image source="tileset/GandalfHardcore FREE Platformer Assets/aseprite/headstone5.png" width="28" height="22"/>
  </tile>
  <tile id="66">
   <image source="tileset/GandalfHardcore FREE Platformer Assets/aseprite/headstone5.png" width="28" height="22"/>
  </tile>
  <tile id="67">
   <image source="tileset/GandalfHardcore FREE Platformer Assets/aseprite/logs.png" width="47" height="21"/>
  </tile>
  <tile id="68">
   <image source="tileset/GandalfHardcore FREE Platformer Assets/aseprite/logs.png" width="47" height="21"/>
  </tile>
  <tile id="69">
   <image source="tileset/GandalfHardcore FREE Platformer Assets/aseprite/poopbarrel.png" width="23" height="18"/>
  </tile>
  <tile id="70">
   <image source="tileset/GandalfHardcore FREE Platformer Assets/aseprite/poopbarrel.png" width="23" height="18"/>
  </tile>
  <tile id="71">
   <image source="tileset/GandalfHardcore FREE Platformer Assets/aseprite/scarecrow.png" width="40" height="59"/>
  </tile>
  <tile id="72">
   <image source="tileset/GandalfHardcore FREE Platformer Assets/aseprite/scarecrow.png" width="40" height="59"/>
  </tile>
  <tile id="73">
   <image source="tileset/GandalfHardcore FREE Platformer Assets/aseprite/stool.png" width="14" height="13"/>
  </tile>
  <tile id="74">
   <image source="tileset/GandalfHardcore FREE Platformer Assets/aseprite/stool.png" width="14" height="13"/>
  </tile>
  <tile id="75">
   <image source="tileset/GandalfHardcore FREE Platformer Assets/aseprite/table.png" width="39" height="19"/>
  </tile>
  <tile id="76">
   <image source="tileset/GandalfHardcore FREE Platformer Assets/aseprite/table.png" width="39" height="19"/>
  </tile>
  <tile id="77">
   <image source="tileset/GandalfHardcore FREE Platformer Assets/aseprite/tablefood.png" width="39" height="30"/>
  </tile>
  <tile id="78">
   <image source="tileset/GandalfHardcore FREE Platformer Assets/aseprite/tablefood.png" width="39" height="30"/>
  </tile>
  <tile id="79">
   <image source="tileset/GandalfHardcore FREE Platformer Assets/aseprite/tent1.png" width="96" height="39"/>
  </tile>
  <tile id="80">
   <image source="tileset/GandalfHardcore FREE Platformer Assets/aseprite/tent1.png" width="96" height="39"/>
  </tile>
  <tile id="81">
   <image source="tileset/GandalfHardcore FREE Platformer Assets/aseprite/tent2.png" width="96" height="39"/>
  </tile>
  <tile id="82">
   <image source="tileset/GandalfHardcore FREE Platformer Assets/aseprite/tent2.png" width="96" height="39"/>
  </tile>
 </tileset>
 <tileset firstgid="275" source="Campfire sheet.tsx"/>
 <tileset firstgid="315" name="runes" tilewidth="32" tileheight="32" tilecount="9" columns="0">
  <grid orientation="orthogonal" width="1" height="1"/>
  <tile id="0">
   <image source="tileset/GandalfHardcore FREE Platformer Assets/free_asset_pixel_runes_byArijkx_v1/free_asset_pixel_runes_byArijkx_v1/asset32x32/1-32x32.png" width="32" height="32"/>
  </tile>
  <tile id="1">
   <image source="tileset/GandalfHardcore FREE Platformer Assets/free_asset_pixel_runes_byArijkx_v1/free_asset_pixel_runes_byArijkx_v1/asset32x32/2-32x32.png" width="32" height="32"/>
  </tile>
  <tile id="2">
   <image source="tileset/GandalfHardcore FREE Platformer Assets/free_asset_pixel_runes_byArijkx_v1/free_asset_pixel_runes_byArijkx_v1/asset32x32/3-32x32.png" width="32" height="32"/>
  </tile>
  <tile id="3">
   <image source="tileset/GandalfHardcore FREE Platformer Assets/free_asset_pixel_runes_byArijkx_v1/free_asset_pixel_runes_byArijkx_v1/asset32x32/4-32x32.png" width="32" height="32"/>
  </tile>
  <tile id="4">
   <image source="tileset/GandalfHardcore FREE Platformer Assets/free_asset_pixel_runes_byArijkx_v1/free_asset_pixel_runes_byArijkx_v1/asset32x32/5-32x32.png" width="32" height="32"/>
  </tile>
  <tile id="5">
   <image source="tileset/GandalfHardcore FREE Platformer Assets/free_asset_pixel_runes_byArijkx_v1/free_asset_pixel_runes_byArijkx_v1/asset32x32/6-32x32.png" width="32" height="32"/>
  </tile>
  <tile id="6">
   <image source="tileset/GandalfHardcore FREE Platformer Assets/free_asset_pixel_runes_byArijkx_v1/free_asset_pixel_runes_byArijkx_v1/asset32x32/7-32x32.png" width="32" height="32"/>
  </tile>
  <tile id="7">
   <image source="tileset/GandalfHardcore FREE Platformer Assets/free_asset_pixel_runes_byArijkx_v1/free_asset_pixel_runes_byArijkx_v1/asset32x32/8-32x32.png" width="32" height="32"/>
  </tile>
  <tile id="8">
   <image source="tileset/GandalfHardcore FREE Platformer Assets/free_asset_pixel_runes_byArijkx_v1/free_asset_pixel_runes_byArijkx_v1/asset32x32/9-32x32.png" width="32" height="32"/>
  </tile>
 </tileset>
 <group id="7" name="parralaxtypeshet">
  <imagelayer id="2" name="backdrop" parallaxx="0.01" repeatx="1">
   <image source="tileset/test4/2 Background/Day/1.png" width="576" height="324"/>
  </imagelayer>
  <imagelayer id="3" name="background" parallaxx="0.25" repeatx="1">
   <image source="tileset/test4/2 Background/Day/2.png" width="576" height="324"/>
  </imagelayer>
  <imagelayer id="4" name="middleground" parallaxx="0.6" repeatx="1">
   <image source="tileset/test4/2 Background/Day/3.png" width="576" height="324"/>
  </imagelayer>
  <imagelayer id="5" name="trainmiddleground" offsetx="1.5" offsety="-0.5" parallaxx="0.65" repeatx="1">
   <image source="tileset/test4/2 Background/Day/4.png" width="576" height="324"/>
  </imagelayer>
  <imagelayer id="6" name="foreground" parallaxx="0.8" repeatx="1">
   <image source="tileset/test4/2 Background/Day/5.png" width="576" height="324"/>
  </imagelayer>
 </group>
 <objectgroup id="12" name="obstacles backdrop">
  <object id="50" gid="167" x="242.5" y="25.75" width="43" height="15"/>
  <object id="51" gid="167" x="286.625" y="45.625" width="43" height="15"/>
  <object id="52" gid="167" x="222.333" y="53.6667" width="43" height="15"/>
  <object id="56" gid="245" x="1120" y="256" width="27" height="32"/>
  <object id="57" gid="243" x="1096" y="256" width="27" height="16"/>
  <object id="58" gid="243" x="1104" y="248" width="27" height="16"/>
  <object id="59" gid="227" x="1088" y="256" width="25" height="12"/>
  <object id="61" gid="222" x="1136" y="256" width="29" height="18"/>
  <object id="68" gid="275" x="1264" y="256" width="32" height="32"/>
  <object id="69" gid="49" x="1392" y="256" width="124" height="129"/>
  <object id="70" gid="50" x="1256" y="256" width="175" height="190"/>
  <object id="71" gid="50" x="1072" y="256" width="175" height="190"/>
  <object id="72" gid="48" x="1200" y="256" width="62" height="103"/>
  <object id="73" gid="23" x="288" y="320" width="43" height="22"/>
  <object id="75" gid="24" x="416" y="320" width="30" height="19"/>
  <object id="91" gid="171" x="339" y="108" width="165" height="101"/>
  <object id="92" gid="170" x="509" y="58" width="110" height="35"/>
  <object id="93" gid="170" x="571.667" y="101.333" width="110" height="35"/>
  <object id="94" gid="169" x="694" y="35.6667" width="73" height="29"/>
  <object id="95" gid="171" x="1738" y="118.333" width="165" height="101"/>
  <object id="96" gid="169" x="1630.67" y="37" width="73" height="29"/>
  <object id="101" gid="250" x="1541.22" y="256.043" width="23" height="24"/>
  <object id="102" gid="154" x="1520" y="256" width="64" height="64"/>
 </objectgroup>
 <layer id="11" name="terrainbackdrop" width="60" height="12">
  <data encoding="csv">
0,0,0,0,0,0,0,0,0,0,0,0,0,0,0,0,0,0,0,0,0,0,0,0,0,0,0,0,0,0,0,0,0,0,0,0,0,0,0,0,0,0,0,0,0,0,0,0,0,0,0,0,0,0,0,0,0,0,0,0,
0,0,130,130,130,130,0,0,0,0,0,0,0,0,0,0,0,0,0,0,0,0,0,0,0,0,0,0,0,0,0,0,0,0,0,0,0,0,0,0,0,0,0,0,0,0,0,0,0,0,0,0,0,0,0,0,0,0,0,0,
0,0,0,130,140,141,0,0,0,0,0,0,0,0,0,0,0,0,0,0,0,0,0,0,0,0,0,0,0,0,0,0,0,0,0,0,0,0,0,0,0,0,0,0,0,0,0,0,0,0,0,0,0,0,0,0,0,0,0,0,
0,0,0,151,0,0,0,0,0,0,0,0,0,0,0,0,0,0,0,0,0,0,0,0,0,0,0,0,0,0,0,0,0,0,0,0,0,0,0,0,0,0,0,0,0,0,0,0,0,0,0,0,0,0,0,0,0,0,0,0,
0,0,0,132,0,0,0,0,0,0,0,0,0,0,0,0,0,0,0,0,0,0,0,0,0,0,0,0,0,0,0,0,0,0,0,0,0,0,0,0,0,0,0,0,0,0,0,0,0,0,0,0,0,0,0,0,0,0,0,0,
0,0,0,152,0,0,0,0,0,0,0,0,0,0,0,0,0,0,0,0,0,0,0,0,0,0,0,0,0,0,0,0,0,0,0,0,0,0,0,0,0,0,0,0,0,0,0,0,0,0,0,0,0,0,0,0,0,0,0,0,
0,0,0,138,0,0,0,0,0,0,0,0,0,0,0,0,0,0,0,0,0,0,0,0,0,0,0,0,0,0,0,0,0,0,0,0,0,0,0,0,0,0,0,0,0,0,0,0,0,0,0,0,0,0,0,0,0,0,0,0,
0,0,0,131,0,0,0,0,0,0,0,0,0,0,0,0,0,0,0,0,0,0,0,0,0,0,0,0,0,0,0,0,0,0,0,0,0,0,0,0,0,0,0,0,0,0,0,0,0,0,0,0,0,0,0,0,0,0,0,0,
0,0,0,138,0,0,0,0,0,0,0,0,0,0,0,0,0,0,0,0,0,0,0,0,0,0,0,0,0,0,0,0,0,0,0,0,0,0,0,0,0,0,0,0,0,0,0,0,0,0,0,0,0,0,0,0,0,0,0,0,
0,0,0,151,0,0,0,0,0,0,0,0,0,0,0,0,0,0,0,0,0,0,0,0,0,0,0,0,0,0,0,0,0,0,0,0,0,0,0,0,0,0,0,0,0,0,0,0,0,0,0,0,0,0,0,0,0,0,0,0,
0,0,0,0,0,0,0,0,0,0,0,0,0,0,0,0,0,0,0,0,0,0,0,0,0,0,0,0,0,0,0,0,0,0,0,0,0,0,0,0,0,0,0,0,0,0,0,0,0,0,0,0,0,0,0,0,0,0,0,0,
0,0,0,0,0,0,0,0,0,0,0,0,0,0,0,0,0,0,0,0,0,0,0,0,0,0,0,0,0,0,0,0,0,0,0,0,0,0,0,0,0,0,0,0,0,0,0,0,0,0,0,0,0,0,0,0,0,0,0,0
</data>
 </layer>
 <layer id="1" name="terrain" width="60" height="12">
  <data encoding="csv">
123,123,123,123,123,123,0,0,0,0,0,0,0,0,0,0,0,0,0,0,0,0,0,0,0,0,0,0,0,0,0,0,0,0,0,0,0,0,0,0,0,0,0,0,0,0,0,0,0,0,0,0,0,0,0,0,0,0,0,0,
118,61,76,114,114,115,0,0,0,0,0,0,0,0,0,0,0,0,0,0,0,0,0,0,0,0,0,130,130,0,0,130,130,0,0,0,0,0,0,0,0,0,0,0,0,0,0,0,0,0,0,0,0,0,0,0,0,0,0,0,
118,61,119,0,0,0,0,0,0,0,0,0,0,0,0,0,0,0,0,0,0,0,0,0,0,0,0,139,130,0,0,130,141,0,0,0,0,0,0,0,0,0,0,0,0,0,0,0,0,0,0,0,0,0,0,0,0,0,0,0,
118,61,119,0,0,0,0,0,0,0,0,0,0,0,0,0,0,0,0,0,0,0,0,0,0,0,0,0,150,0,0,138,0,0,0,0,0,0,0,0,0,0,0,0,0,0,0,0,0,0,0,0,0,0,0,0,0,0,0,0,
118,61,119,0,0,0,0,0,0,0,0,0,0,0,0,0,0,0,0,0,0,0,0,0,0,0,0,0,132,0,0,130,0,0,0,0,0,0,0,0,0,0,0,0,0,0,0,0,0,0,0,0,0,0,0,0,0,0,0,0,
118,61,119,0,0,0,0,0,0,0,0,0,0,0,0,0,0,0,0,0,0,0,0,0,0,0,0,0,131,0,0,132,0,0,0,0,0,0,0,0,0,0,0,0,0,0,0,0,0,0,0,0,0,0,0,0,0,0,0,0,
118,61,119,0,0,0,0,0,0,0,0,0,0,0,0,0,0,0,0,0,0,0,0,0,0,0,0,0,136,0,0,137,0,0,0,0,0,0,0,0,0,0,0,0,0,0,0,0,0,0,0,0,0,0,0,0,0,0,0,0,
118,61,119,0,0,0,0,0,0,0,0,0,0,0,0,0,0,0,0,0,0,0,0,0,0,0,0,0,150,0,0,151,0,0,0,0,0,0,0,0,0,0,0,0,0,0,0,0,0,0,0,0,0,0,0,0,0,0,0,0,
118,61,119,0,0,0,0,0,0,0,0,0,0,0,0,0,0,0,0,0,100,59,59,59,59,59,59,0,106,107,107,108,0,59,59,59,59,59,59,59,59,59,59,59,59,59,59,59,59,0,0,0,0,0,0,0,0,0,0,0,
82,61,85,0,0,0,0,0,0,0,0,0,0,0,0,0,0,0,0,100,112,72,72,72,72,72,72,0,0,0,0,0,0,72,72,72,72,72,72,72,72,72,72,72,72,72,72,72,0,0,0,0,0,0,0,0,0,0,0,0,
59,59,59,59,59,59,59,59,59,59,59,59,59,59,59,59,59,59,59,110,98,61,61,61,61,61,61,67,68,68,68,68,67,61,61,61,61,61,61,61,61,61,61,61,61,61,61,61,0,130,130,130,130,130,130,130,130,130,130,130,
72,72,72,72,72,72,72,72,72,72,72,72,72,72,72,72,72,72,72,61,61,61,61,61,61,61,61,61,61,61,61,61,61,61,61,61,61,61,61,61,61,61,61,61,61,61,61,61,0,0,0,0,0,0,0,0,0,0,0,0
</data>
 </layer>
 <layer id="9" name="obstacles" width="60" height="12">
  <data encoding="csv">
0,0,0,0,0,0,0,0,0,0,0,0,0,0,0,0,0,0,0,0,0,0,0,0,0,0,0,0,0,0,0,0,0,0,0,0,0,0,0,0,0,0,0,0,0,0,0,0,0,0,0,0,0,0,0,0,0,0,0,0,
0,0,0,0,0,0,0,0,0,0,0,0,0,0,0,0,0,0,0,0,0,0,0,0,0,0,0,113,114,77,76,114,115,0,0,0,0,0,0,0,0,0,0,0,0,0,0,0,0,0,0,0,0,0,0,0,0,0,0,0,
0,0,0,0,0,0,0,0,0,0,0,0,0,0,0,0,0,0,0,0,0,0,0,0,0,0,0,0,0,118,119,0,0,0,0,0,0,0,0,0,0,0,0,0,0,0,0,0,0,0,0,0,0,0,0,0,0,0,0,0,
0,0,0,0,0,0,0,0,0,0,0,0,0,0,0,0,0,0,0,0,0,0,0,0,0,0,0,0,0,118,119,0,0,0,0,0,0,0,0,0,0,0,0,0,0,0,0,0,0,0,0,0,0,0,0,0,0,0,0,0,
0,0,0,0,0,0,0,0,0,0,0,0,0,0,0,0,0,0,0,0,0,0,0,0,0,0,0,0,0,118,119,0,0,0,0,0,0,0,0,0,0,0,0,0,0,0,0,0,0,0,0,0,0,0,0,0,0,0,0,0,
0,0,0,0,0,0,0,0,0,0,0,0,0,0,0,0,0,0,0,0,0,0,0,0,0,0,0,0,0,118,119,0,0,0,0,0,0,0,0,0,0,0,0,0,0,0,0,0,0,0,0,0,0,0,0,0,0,0,0,0,
0,0,0,0,0,0,0,0,0,0,0,0,0,0,0,0,0,0,0,0,0,0,0,0,0,0,0,0,0,118,119,0,0,0,0,0,0,0,0,0,0,0,0,0,0,0,0,0,0,0,0,0,0,0,0,0,0,0,0,0,
0,0,0,0,0,0,0,0,0,0,0,0,0,0,0,0,0,0,0,0,50,21,49,0,0,22,0,0,0,82,85,0,0,0,0,263,271,0,0,0,0,273,213,241,269,259,0,217,0,0,0,0,0,0,0,0,0,0,0,0,
0,0,0,0,0,0,0,0,0,0,0,0,0,0,0,0,0,0,0,0,0,0,0,0,0,0,0,0,0,0,0,0,0,0,0,0,0,0,0,0,0,0,0,0,0,0,0,0,0,133,134,134,134,134,134,134,134,134,134,135,
53,55,57,56,51,0,0,0,0,0,49,0,0,50,48,0,0,0,0,0,0,0,0,0,0,0,0,0,0,0,0,0,0,0,0,0,0,0,0,0,0,0,0,0,0,0,0,0,127,130,130,130,130,130,130,130,130,130,130,130,
0,0,0,0,0,0,0,0,0,0,0,0,0,0,0,0,0,0,0,0,0,0,0,0,0,0,0,0,0,0,0,0,0,0,0,0,0,0,0,0,0,0,0,0,0,0,0,0,119,0,0,0,0,0,0,0,0,0,0,0,
0,0,0,0,0,0,0,0,0,0,0,0,0,0,0,0,0,0,0,0,0,0,0,0,0,0,0,0,0,0,0,0,0,0,0,0,0,0,0,0,0,0,0,0,0,0,0,0,119,78,79,79,79,79,79,79,79,79,79,80
</data>
 </layer>
 <objectgroup color="#5500ff" id="15" name="runes">
  <object id="115" gid="316" x="1536" y="192" width="32" height="32"/>
  <object id="116" gid="315" x="896" y="256" width="32" height="32"/>
  <object id="117" x="896" y="224" width="32" height="32"/>
  <object id="118" x="1536" y="160" width="32" height="32"/>
 </objectgroup>
 <objectgroup color="#00ffff" id="13" name="water_zones">
  <object id="78" x="1568" y="256" width="352" height="96"/>
 </objectgroup>
 <objectgroup color="#ffaa00" id="14" name="sand_zones">
  <object id="119" x="864" y="256" width="32" height="64"/>
  <object id="120" x="896" y="288" width="160" height="32"/>
  <object id="121" x="1024" y="256" width="32" height="32"/>
 </objectgroup>
 <objectgroup id="8" name="collisions">
  <object id="6" x="0" y="320" width="1567.67" height="64"/>
  <object id="8" x="0" y="0" width="96" height="320"/>
  <object id="10" x="96" y="0" width="96" height="64"/>
  <object id="24" x="608" y="320">
   <polygon points="0,0 64,-64 64,0"/>
  </object>
  <object id="80" x="864" y="0" width="192" height="64"/>
  <object id="81" x="928" y="64" width="64" height="192"/>
  <object id="83" x="1568" y="352" width="352" height="32"/>
  <object id="84" x="672" y="256" width="192" height="64"/>
  <object id="85" x="896" y="256" width="128" height="32"/>
  <object id="86" x="1056" y="256" width="512" height="64"/>
  <object id="122" x="896" y="256" width="128" height="32"/>
 </objectgroup>
</map>
