<?xml version="1.0" encoding="UTF-8"?>
<map version="1.10" tiledversion="1.11.2" orientation="orthogonal" renderorder="right-down" width="20" height="48" tilewidth="32" tileheight="32" infinite="0" nextlayerid="16" nextobjectid="159">
 <tileset firstgid="1" source="level2assets/tilesets/terrain/dungeon bricks/dungeon_terrain.tsx"/>
 <tileset firstgid="113" source="runes/runesOnline.tsx"/>
 <tileset firstgid="293" source="Fantasy Icons.tsx"/>
 <tileset firstgid="613" source="portal.tsx"/>
 <tileset firstgid="619" source="level3assets/key.tsx"/>
 <layer id="1" name="backdrop" width="20" height="48">
  <data encoding="csv">
18,18,18,18,18,18,18,18,18,18,18,18,18,18,18,18,18,18,18,18,
18,18,18,18,18,18,18,18,18,18,18,18,18,18,18,18,18,18,18,18,
18,18,18,18,18,18,18,18,18,18,18,18,18,18,18,18,18,18,18,18,
18,18,18,18,18,18,18,18,18,18,18,18,18,18,18,18,18,18,18,18,
18,18,18,18,18,18,18,18,18,18,18,18,18,18,18,18,18,18,18,18,
18,18,18,18,18,18,18,18,18,18,18,18,18,18,18,18,18,18,18,18,
18,18,18,18,18,18,18,18,18,18,18,18,18,18,18,18,18,18,18,18,
18,18,18,18,18,18,18,18,18,18,18,18,18,18,18,18,18,18,18,18,
18,18,18,18,18,18,18,18,18,18,18,18,18,18,18,18,18,18,18,18,
18,18,18,18,18,18,18,18,18,18,18,18,18,18,18,18,18,18,18,18,
18,18,18,18,18,18,18,18,18,18,18,18,18,18,18,18,18,18,18,18,
18,18,18,18,18,18,18,18,18,18,18,18,18,18,18,18,18,18,18,18,
18,18,18,18,18,18,18,18,18,18,18,18,18,18,18,18,18,18,18,18,
18,18,18,18,18,18,18,18,18,18,18,18,18,18,18,18,18,18,18,18,
18,18,18,18,18,18,18,18,18,18,18,18,18,18,18,18,18,18,18,18,
18,18,18,18,18,18,18,18,18,18,18,18,18,18,18,18,18,18,18,18,
18,18,18,18,18,18,18,18,18,18,18,18,18,18,18,18,18,18,18,18,
18,18,18,18,18,18,18,18,18,18,18,18,18,18,18,18,18,18,18,18,
18,18,18,18,18,18,18,18,18,18,18,18,18,18,18,18,18,18,18,18,
18,18,18,18,18,18,18,18,18,18,18,18,18,18,18,18,18,18,18,18,
18,18,18,18,18,18,18,18,18,18,18,18,18,18,18,18,18,18,18,18,
18,18,18,18,18,18,18,18,18,18,18,18,18,18,18,18,18,18,18,18,
18,18,18,18,18,18,18,18,18,18,18,18,18,18,18,18,18,18,18,18,
18,18,18,18,18,18,18,18,18,18,18,18,18,18,18,18,18,18,18,18,
18,18,18,18,18,18,18,18,18,18,18,18,18,18,18,18,18,18,18,18,
18,18,18,18,18,18,18,18,18,18,18,18,18,18,18,18,18,18,18,18,
18,18,18,18,18,18,18,18,18,18,18,18,18,18,18,18,18,18,18,18,
18,18,18,18,18,18,18,18,18,18,18,18,18,18,18,18,18,18,18,18,
18,18,18,18,18,18,18,18,18,18,18,18,18,18,18,18,18,18,18,18,
18,18,18,18,18,18,18,18,18,18,18,18,18,18,18,18,18,18,18,18,
18,18,18,18,18,18,18,18,18,18,18,18,18,18,18,18,18,18,18,18,
18,18,18,18,18,18,18,18,18,18,18,18,18,18,18,18,18,18,18,18,
18,18,18,18,18,18,18,18,18,18,18,18,18,18,18,18,18,18,18,18,
18,18,18,18,18,18,18,18,18,18,18,18,18,18,18,18,18,18,18,18,
18,18,18,18,18,18,18,18,18,18,18,18,18,18,18,18,18,18,18,18,
18,18,18,18,18,18,18,18,18,18,18,18,18,18,18,18,18,18,18,18,
18,18,18,18,18,18,18,18,18,18,18,18,18,18,18,18,18,18,18,18,
18,18,18,18,18,18,18,18,18,18,18,18,18,18,18,18,18,18,18,18,
18,18,18,18,18,18,18,18,18,18,18,18,18,18,18,18,18,18,18,18,
18,18,18,18,18,18,18,18,18,18,18,18,18,18,18,18,18,18,18,18,
18,18,18,18,18,18,18,18,18,18,18,18,18,18,18,18,18,18,18,18,
18,18,18,18,18,18,18,18,18,18,18,18,18,18,18,18,18,18,18,18,
18,18,18,18,18,18,18,18,18,18,18,18,18,18,18,18,18,18,18,18,
18,18,18,18,18,18,18,18,18,18,18,18,18,18,18,18,18,18,18,18,
18,18,18,18,18,18,18,18,18,18,18,18,18,18,18,18,18,18,18,18,
18,18,18,18,18,18,18,18,18,18,18,18,18,18,18,18,18,18,18,18,
18,18,18,18,18,18,18,18,18,18,18,18,18,18,18,18,18,18,18,18,
18,18,18,18,18,18,18,18,18,18,18,18,18,18,18,18,18,18,18,18
</data>
 </layer>
 <layer id="2" name="terrain" width="20" height="48">
  <data encoding="csv">
2,2,2,0,0,0,0,0,0,0,0,0,0,0,0,0,0,0,0,0,
0,0,0,0,0,0,0,0,0,0,0,0,0,0,0,0,0,0,0,0,
2,2,2,83,0,0,0,0,0,0,0,0,0,0,0,0,0,0,0,0,
1,2,3,4,5,6,18,18,9,10,11,12,13,14,15,16,16,0,0,0,
18,18,18,4,5,6,18,18,9,10,11,12,13,14,15,16,32,0,0,0,
18,18,18,4,5,6,18,18,9,10,11,12,13,14,15,16,16,16,16,0,
18,18,18,5,6,18,18,18,10,11,12,13,14,15,16,16,32,32,32,0,
137,18,18,18,18,18,18,18,18,9,10,11,12,13,14,15,16,16,48,0,
18,18,18,21,18,18,18,18,18,18,9,10,11,12,13,14,15,16,64,0,
18,18,18,20,51,18,18,18,18,18,25,26,27,28,29,30,31,32,80,0,
18,18,20,0,18,0,37,38,18,18,41,42,43,44,45,46,47,48,96,0,
18,18,20,0,18,20,18,18,55,56,57,58,59,60,61,62,63,64,0,0,
18,18,20,20,18,20,18,18,71,72,73,74,75,76,77,78,79,80,0,0,
18,18,20,20,18,18,18,86,87,88,89,90,91,92,93,94,95,96,0,0,
0,18,20,20,20,4,18,86,87,88,89,90,91,92,93,94,95,96,0,0,
1,2,3,4,5,6,18,18,9,10,11,12,13,14,15,16,16,0,0,0,
2,18,18,3,4,5,6,18,18,9,10,18,18,18,18,18,18,18,16,16,
1,18,18,18,4,5,6,18,18,9,18,18,18,18,18,18,18,18,18,32,
17,18,18,3,4,5,6,18,18,9,18,18,18,18,18,18,18,18,18,48,
33,18,18,18,4,5,6,18,18,9,18,18,18,18,18,18,18,18,18,64,
18,18,2,3,4,5,6,18,18,18,10,11,12,13,14,15,16,80,80,80,
18,18,18,2,3,4,5,6,18,18,18,10,11,12,13,14,15,16,96,96,
81,18,49,1,18,2,3,4,5,18,18,18,18,18,18,18,18,18,15,16,
0,18,18,18,18,18,18,20,21,22,18,18,18,18,18,18,18,18,18,32,
0,49,18,18,18,18,18,36,37,38,39,40,41,42,43,44,45,18,18,48,
0,18,18,51,18,18,18,52,53,54,55,56,57,58,59,60,61,18,18,64,
0,18,18,18,18,18,18,18,18,18,18,18,18,18,18,18,18,18,18,80,
0,0,81,81,18,82,83,18,18,18,18,18,18,18,18,18,18,18,18,96,
7,18,18,10,11,12,13,14,15,0,0,0,0,0,16,16,16,16,16,16,
10,18,18,13,14,15,16,16,0,0,0,0,0,32,32,32,32,32,32,32,
9,18,18,12,13,14,15,16,32,0,0,0,21,48,48,48,48,48,48,48,
25,18,18,28,29,30,31,32,48,48,0,64,64,64,64,64,64,64,64,64,
41,18,18,44,45,46,47,48,64,64,80,80,80,80,80,80,80,80,80,80,
57,18,18,60,61,62,63,64,80,80,96,96,96,96,96,96,96,96,96,96,
73,18,18,76,77,78,79,80,96,96,18,18,0,0,0,0,0,0,0,0,
1,18,18,21,18,18,18,18,18,18,18,18,18,12,18,14,15,16,0,0,
18,18,18,21,18,18,18,18,18,18,18,18,18,18,18,18,18,15,16,0,
18,18,18,21,18,18,18,18,18,18,18,18,18,18,18,18,18,14,15,16,
18,18,18,21,18,18,18,18,18,18,18,18,18,18,18,18,18,18,31,32,
65,65,18,21,18,18,18,18,18,18,18,18,18,18,18,18,45,46,47,48,
81,81,65,49,0,21,51,18,18,18,18,18,18,58,59,60,61,62,63,64,
0,0,81,65,0,2,3,4,18,18,18,18,18,10,11,12,13,14,15,16,
5,6,7,8,21,10,11,12,18,18,18,18,18,16,16,16,16,16,16,16,
18,18,18,18,0,18,18,18,18,18,18,18,18,18,18,18,18,32,32,32,
18,18,18,18,18,18,18,18,18,18,18,18,18,18,18,18,18,18,18,48,
18,18,18,18,18,18,18,18,18,18,18,18,18,18,18,18,18,18,18,18,
18,18,18,18,18,18,18,18,18,18,18,18,18,18,18,18,18,18,18,18,
18,18,18,18,18,18,18,18,18,18,18,18,18,18,18,18,18,18,18,18
</data>
 </layer>
 <layer id="7" name="rune_visuals" width="20" height="48">
  <data encoding="csv">
0,0,0,0,0,0,0,0,0,0,0,0,0,0,0,0,0,0,0,0,
0,0,0,0,0,0,0,0,0,0,0,0,0,0,0,0,0,0,0,0,
0,0,0,0,0,0,0,0,0,0,0,0,0,0,0,0,125,0,0,0,
0,0,0,0,0,0,0,0,0,0,0,0,0,0,0,0,0,0,0,0,
0,0,0,0,0,0,0,0,0,0,0,0,0,0,0,0,0,0,0,0,
0,0,0,0,0,0,0,0,0,0,0,0,0,0,0,0,0,0,0,0,
0,0,0,0,0,0,0,0,0,0,0,0,0,0,0,0,0,0,0,0,
0,0,0,125,0,0,0,0,0,0,0,0,0,0,0,0,0,0,0,0,
0,0,0,0,0,0,0,0,0,0,0,0,0,0,0,0,0,0,0,0,
0,0,0,0,0,0,0,0,0,0,0,0,0,0,0,0,0,0,0,0,
0,0,0,0,0,0,0,0,125,0,0,0,0,0,0,0,0,0,0,0,
0,0,0,0,0,0,0,0,0,0,0,0,0,0,0,0,0,0,0,0,
0,0,0,0,0,0,0,137,0,0,0,0,0,0,0,0,0,0,0,0,
0,0,0,0,0,0,0,0,0,0,0,0,0,0,0,0,0,0,0,0,
0,0,0,0,0,0,0,0,0,0,0,0,0,0,0,0,0,0,0,0,
0,0,0,0,0,0,0,0,0,0,0,0,0,0,0,0,0,0,0,0,
0,0,0,0,0,0,0,0,0,0,0,0,0,0,0,0,0,0,0,0,
0,0,0,125,0,0,0,0,0,0,0,0,0,0,0,0,0,0,0,0,
0,0,0,0,0,0,0,0,0,0,0,0,0,0,0,0,0,0,0,0,
0,0,0,0,0,0,0,0,0,0,0,0,0,0,0,0,0,0,0,0,
0,0,0,0,0,0,0,0,0,0,0,0,0,0,0,0,0,0,0,0,
0,0,0,0,0,0,0,0,0,0,0,0,0,0,0,0,0,0,0,0,
0,0,0,0,0,0,0,0,0,0,0,0,0,0,0,0,0,0,0,0,
0,0,0,0,0,0,0,0,0,0,0,0,0,0,0,0,0,0,0,0,
0,0,0,0,0,0,0,0,0,0,0,0,0,0,0,0,0,0,0,0,
0,0,0,0,0,0,0,0,0,0,0,0,0,0,0,0,0,0,0,0,
0,0,0,0,0,0,0,0,0,0,0,0,0,0,0,0,0,0,0,0,
0,0,0,0,0,0,0,0,0,0,0,0,0,0,0,0,0,0,0,0,
0,0,0,0,0,0,0,0,0,0,0,0,0,0,0,0,0,0,0,0,
0,0,0,0,0,0,0,0,0,0,0,0,0,0,0,0,0,0,0,0,
0,0,0,0,0,0,0,0,0,0,0,0,0,0,0,0,0,0,0,0,
0,0,0,0,0,0,0,0,0,0,0,0,0,0,0,0,0,0,0,0,
0,0,0,0,0,0,0,0,0,0,0,0,0,0,0,0,0,0,0,0,
0,0,0,0,0,0,0,0,0,0,0,0,0,0,0,0,0,0,0,0,
0,0,0,0,0,0,0,0,0,0,0,0,0,0,0,0,0,0,0,0,
0,0,0,0,0,0,0,0,0,0,0,0,0,0,0,0,0,0,0,0,
0,0,0,0,0,0,0,0,0,0,0,0,0,0,0,0,0,0,0,0,
0,0,0,0,0,0,0,0,0,0,0,0,0,0,0,0,0,0,0,0,
0,0,0,0,0,0,0,0,0,0,0,0,0,0,0,0,0,0,0,0,
0,0,0,0,0,0,0,0,0,0,0,0,0,0,0,0,0,0,0,0,
0,0,0,0,0,0,0,0,0,0,0,0,0,0,0,0,0,0,0,0,
0,0,0,0,0,0,0,0,0,0,0,0,0,0,0,0,0,0,0,0,
0,0,0,0,0,0,0,0,0,0,0,0,0,0,0,0,0,0,0,0,
0,0,0,0,0,0,0,0,0,0,0,0,0,0,0,0,0,0,0,0,
0,0,0,0,0,0,0,0,0,0,0,0,0,0,0,0,0,0,0,0,
0,0,0,0,0,0,0,0,0,0,0,0,0,0,0,0,0,0,0,0,
0,0,0,0,0,0,0,0,0,0,0,0,0,0,0,0,0,0,0,0,
0,0,0,0,0,0,0,0,0,0,0,0,0,0,0,0,0,0,0,0
</data>
 </layer>
 <layer id="13" name="keys_visual" width="20" height="48">
  <data encoding="csv">
0,0,0,0,0,0,0,0,0,0,0,0,0,0,0,0,0,0,0,0,
0,0,0,0,0,0,0,0,0,0,0,0,0,0,0,0,0,0,0,0,
0,0,0,0,0,0,0,0,0,0,0,0,0,0,0,0,0,0,0,0,
0,0,0,0,0,0,0,0,0,0,0,0,0,0,0,0,0,0,0,0,
0,0,0,0,0,0,0,0,0,0,0,0,0,0,0,0,0,0,0,0,
0,0,0,0,0,0,0,0,0,0,0,0,0,0,0,0,0,0,0,0,
0,0,0,0,0,0,0,0,0,0,0,0,0,0,0,0,0,0,0,0,
0,0,0,0,0,0,0,0,0,0,0,0,0,0,0,0,0,0,0,0,
0,0,0,0,0,0,0,0,0,0,0,0,0,0,0,0,0,0,0,0,
0,0,0,0,0,0,0,0,0,0,0,0,0,0,0,0,0,0,0,0,
0,0,0,0,0,0,0,0,0,0,0,0,0,0,0,0,0,0,0,0,
0,0,0,0,0,0,0,0,0,0,0,0,0,0,0,0,0,0,0,0,
0,0,0,0,0,0,0,0,0,0,0,0,0,0,0,0,0,0,0,0,
0,0,0,0,0,0,0,0,0,0,0,0,0,0,0,0,0,0,0,0,
0,0,0,0,0,0,0,0,0,0,0,0,0,0,0,0,0,0,0,0,
0,0,0,0,0,0,0,0,0,0,0,0,0,0,0,0,0,0,0,0,
0,0,0,0,0,0,0,0,0,0,0,0,0,0,0,0,0,0,0,0,
0,0,0,0,0,0,0,0,0,0,0,0,0,0,0,0,0,0,0,0,
0,0,0,0,0,0,0,0,0,0,0,0,0,0,0,0,0,0,0,0,
0,0,0,0,0,0,0,0,0,0,0,0,619,0,0,0,0,0,0,0,
0,0,0,0,0,0,0,0,0,0,0,0,0,0,0,0,0,0,0,0,
0,0,0,0,0,0,0,0,0,0,0,0,0,0,0,0,0,0,0,0,
0,0,0,0,0,0,0,0,0,0,0,0,0,0,0,0,0,0,0,0,
0,0,0,0,0,0,0,0,0,0,0,0,0,0,0,0,0,0,0,0,
0,0,0,0,0,0,0,0,0,0,0,0,0,0,0,0,0,0,0,0,
0,0,0,0,0,0,0,0,0,0,0,0,0,0,0,0,0,0,0,0,
0,0,0,0,0,0,0,0,0,0,0,0,0,0,0,0,0,0,0,0,
0,0,0,0,0,0,0,0,0,0,0,0,0,0,0,0,0,0,0,0,
0,0,0,0,0,0,0,0,0,0,0,0,0,0,0,0,0,0,0,0,
0,0,0,0,0,0,0,0,0,0,0,0,0,0,0,0,0,0,0,0,
0,0,0,0,0,0,0,0,0,0,0,0,0,0,0,0,0,0,0,0,
0,0,0,0,0,0,0,0,0,0,0,0,0,0,0,0,0,0,0,0,
0,0,0,0,0,0,0,0,0,0,0,0,0,0,0,0,0,0,0,0,
0,0,0,0,0,0,0,0,0,0,0,0,0,0,0,0,0,0,0,0,
0,0,0,0,0,0,0,0,0,0,0,0,0,0,0,0,0,0,0,0,
0,0,0,0,0,0,0,0,0,0,0,0,0,0,0,0,0,0,0,0,
0,0,0,0,0,0,0,0,0,0,0,0,0,0,0,0,0,0,0,0,
0,0,0,0,0,0,0,0,0,0,0,0,0,0,0,0,0,0,0,0,
0,0,0,0,0,0,0,0,0,0,0,0,0,0,0,0,0,0,0,0,
0,0,0,0,0,0,0,0,0,0,0,0,0,0,0,0,0,0,0,0,
0,0,0,0,0,0,0,0,0,0,0,0,0,0,0,0,0,0,0,0,
0,0,0,0,0,0,0,0,0,0,0,0,0,0,0,0,0,0,0,0,
0,0,0,0,0,0,0,0,0,0,0,0,0,0,0,0,0,0,0,0,
0,0,0,0,0,0,0,0,0,0,0,0,0,0,0,0,0,0,0,0,
0,0,0,0,0,0,0,0,0,0,0,0,0,0,0,0,0,0,0,0,
0,0,0,0,0,0,0,0,0,0,0,0,0,0,0,0,0,0,0,0,
0,0,0,0,0,0,0,0,0,0,0,0,0,0,0,0,0,0,0,0,
0,0,0,0,0,0,0,0,0,0,0,0,0,0,0,0,0,0,0,0
</data>
 </layer>
 <layer id="14" name="portal_closed" width="20" height="48">
  <data encoding="csv">
0,0,0,0,0,0,0,0,0,0,0,0,0,0,0,0,0,0,0,0,
0,0,0,0,0,0,0,0,0,0,0,0,0,0,0,0,0,0,0,0,
0,0,0,0,0,0,0,0,0,0,0,0,0,0,0,0,0,0,0,0,
0,0,0,0,0,0,0,0,0,0,0,0,0,0,0,0,0,0,0,0,
0,0,0,0,0,0,0,0,0,0,0,0,0,0,0,0,0,0,0,0,
0,0,0,0,0,0,0,0,0,0,0,0,0,0,0,0,0,0,0,0,
0,0,0,0,0,0,0,0,0,0,0,0,0,0,0,0,0,0,0,0,
0,0,0,0,0,0,0,0,0,0,0,0,0,0,0,0,0,0,0,0,
0,0,0,0,0,0,0,0,0,0,0,0,0,0,0,0,0,0,0,0,
0,0,0,0,0,0,0,0,0,0,0,0,0,0,0,0,0,0,0,0,
0,0,0,0,0,0,0,0,0,0,0,0,0,0,0,0,0,0,0,0,
0,0,0,0,0,0,0,0,0,0,0,0,0,0,0,0,0,0,0,0,
0,0,0,0,0,0,0,0,0,0,0,0,0,0,0,0,0,0,0,0,
0,0,0,0,0,0,0,0,0,0,0,0,0,0,0,0,0,0,0,0,
0,0,0,0,0,0,0,0,0,0,0,0,0,0,0,0,0,0,0,0,
0,0,0,0,0,0,0,0,0,0,0,0,0,0,0,0,0,0,0,0,
0,0,0,0,0,0,0,0,0,0,0,0,0,0,0,0,0,0,0,0,
0,0,0,0,0,0,0,0,0,0,0,0,0,0,0,0,0,0,0,0,
0,0,0,0,0,0,0,0,0,0,0,0,0,0,0,0,0,0,0,0,
0,0,0,0,0,0,0,0,0,0,0,0,0,0,0,0,0,0,0,0,
0,0,0,0,0,0,0,0,0,0,0,0,0,0,0,0,0,0,0,0,
0,0,0,0,0,0,0,0,0,0,0,0,0,0,0,0,0,0,0,0,
0,0,0,0,0,0,0,0,0,0,0,0,0,0,0,0,0,0,0,0,
0,0,0,0,0,0,0,0,0,0,0,0,0,0,0,0,0,0,0,0,
0,0,0,0,0,0,0,0,0,0,0,0,0,0,0,0,0,0,0,0,
0,0,0,0,0,0,0,0,0,0,0,0,0,0,0,0,0,0,0,0,
0,0,0,0,0,0,0,0,0,0,0,0,0,0,0,0,0,0,0,0,
0,0,0,0,0,0,0,0,0,0,0,0,0,0,0,0,0,0,0,0,
0,0,0,0,0,0,0,0,0,0,0,0,0,0,0,0,0,0,0,0,
0,0,0,0,0,0,0,0,0,0,0,0,0,0,0,0,0,0,0,0,
0,0,0,0,0,0,0,0,0,0,0,0,0,0,0,0,0,0,0,0,
0,0,0,0,0,0,0,0,0,0,0,0,0,0,0,0,0,0,0,0,
0,0,0,0,0,0,0,0,0,0,0,0,0,0,0,0,0,0,0,0,
0,0,0,0,0,0,0,0,0,0,0,0,0,0,0,0,0,0,0,0,
0,0,0,0,0,0,0,0,0,0,0,0,0,0,0,0,0,0,0,0,
0,0,0,0,0,0,0,0,0,0,0,0,0,0,0,0,0,0,0,0,
0,0,0,0,0,0,0,0,0,0,0,0,0,0,0,0,0,0,0,0,
0,0,0,0,0,0,0,0,0,0,0,0,0,0,0,0,0,0,0,0,
0,0,0,0,0,0,0,0,0,0,0,0,0,0,0,0,0,0,0,0,
0,0,0,0,0,0,0,0,0,0,0,0,0,0,0,0,0,0,0,0,
0,0,0,0,0,0,0,0,0,0,0,0,0,0,0,0,0,0,0,0,
0,0,0,0,0,0,0,0,0,0,0,0,0,0,0,0,0,0,0,0,
0,0,0,0,0,0,0,0,0,0,0,0,0,0,0,0,0,0,0,0,
0,0,0,0,0,0,0,0,0,0,0,0,0,0,0,0,0,0,0,0,
0,0,0,0,0,0,0,0,0,0,0,0,0,0,0,0,0,0,0,0,
0,0,0,0,0,0,0,0,0,0,0,0,0,0,0,0,0,0,0,0,
614,614,614,614,614,614,614,614,614,614,614,614,614,614,614,614,614,614,614,614,
614,614,614,614,614,614,614,614,614,614,614,614,614,614,614,614,614,614,614,614
</data>
 </layer>
 <layer id="15" name="portal_open" width="20" height="48" visible="0">
  <data encoding="csv">
0,0,0,0,0,0,0,0,0,0,0,0,0,0,0,0,0,0,0,0,
0,613,0,0,0,0,0,0,0,0,0,0,0,0,0,0,0,0,0,0,
0,0,0,0,0,0,0,0,0,0,0,0,0,0,0,0,0,0,0,0,
0,0,0,0,0,0,0,0,0,0,0,0,0,0,0,0,0,0,0,0,
0,0,0,0,0,0,0,0,0,0,0,0,0,0,0,0,0,0,0,0,
0,0,0,0,0,0,0,0,0,0,0,0,0,0,0,0,0,0,0,0,
0,0,0,0,0,0,0,0,0,0,0,0,0,0,0,0,0,0,0,0,
0,0,0,0,0,0,0,0,0,0,0,0,0,0,0,0,0,0,0,0,
0,0,0,0,0,0,0,0,0,0,0,0,0,0,0,0,0,0,0,0,
0,0,0,0,0,0,0,0,0,0,0,0,0,0,0,0,0,0,0,0,
0,0,0,0,0,0,0,0,0,0,0,0,0,0,0,0,0,0,0,0,
0,0,0,0,0,0,0,0,0,0,0,0,0,0,0,0,0,0,0,0,
0,0,0,0,0,0,0,0,0,0,0,0,0,0,0,0,0,0,0,0,
0,0,0,0,0,0,0,0,0,0,0,0,0,0,0,0,0,0,0,0,
0,0,0,0,0,0,0,0,0,0,0,0,0,0,0,0,0,0,0,0,
0,0,0,0,0,0,0,0,0,0,0,0,0,0,0,0,0,0,0,0,
0,0,0,0,0,0,0,0,0,0,0,0,0,0,0,0,0,0,0,0,
0,0,0,0,0,0,0,0,0,0,0,0,0,0,0,0,0,0,0,0,
0,0,0,0,0,0,0,0,0,0,0,0,0,0,0,0,0,0,0,0,
0,0,0,0,0,0,0,0,0,0,0,0,0,0,0,0,0,0,0,0,
0,0,0,0,0,0,0,0,0,0,0,0,0,0,0,0,0,0,0,0,
0,0,0,0,0,0,0,0,0,0,0,0,0,0,0,0,0,0,0,0,
0,0,0,0,0,0,0,0,0,0,0,0,0,0,0,0,0,0,0,0,
0,0,0,0,0,0,0,0,0,0,0,0,0,0,0,0,0,0,0,0,
0,0,0,0,0,0,0,0,0,0,0,0,0,0,0,0,0,0,0,0,
0,0,0,0,0,0,0,0,0,0,0,0,0,0,0,0,0,0,0,0,
0,0,0,0,0,0,0,0,0,0,0,0,0,0,0,0,0,0,0,0,
0,0,0,0,0,0,0,0,0,0,0,0,0,0,0,0,0,0,0,0,
0,0,0,0,0,0,0,0,0,0,0,0,0,0,0,0,0,0,0,0,
0,0,0,0,0,0,0,0,0,0,0,0,0,0,0,0,0,0,0,0,
0,0,0,0,0,0,0,0,0,0,0,0,0,0,0,0,0,0,0,0,
0,0,0,0,0,0,0,0,0,0,0,0,0,0,0,0,0,0,0,0,
0,0,0,0,0,0,0,0,0,0,0,0,0,0,0,0,0,0,0,0,
0,0,0,0,0,0,0,0,0,0,0,0,0,0,0,0,0,0,0,0,
0,0,0,0,0,0,0,0,0,0,0,0,0,0,0,0,0,0,0,0,
0,0,0,0,0,0,0,0,0,0,0,0,0,0,0,0,0,0,0,0,
0,0,0,0,0,0,0,0,0,0,0,0,0,0,0,0,0,0,0,0,
0,0,0,0,0,0,0,0,0,0,0,0,0,0,0,0,0,0,0,0,
0,0,0,0,0,0,0,0,0,0,0,0,0,0,0,0,0,0,0,0,
0,0,0,0,0,0,0,0,0,0,0,0,0,0,0,0,0,0,0,0,
0,0,0,0,0,0,0,0,0,0,0,0,0,0,0,0,0,0,0,0,
0,0,0,0,0,0,0,0,0,0,0,0,0,0,0,0,0,0,0,0,
0,0,0,0,0,0,0,0,0,0,0,0,0,0,0,0,0,0,0,0,
0,0,0,0,0,0,0,0,0,0,0,0,0,0,0,0,0,0,0,0,
0,0,0,0,0,0,0,0,0,0,0,0,0,0,0,0,0,0,0,0,
0,0,0,0,0,0,0,0,0,0,0,0,0,0,0,0,0,0,0,0,
613,613,613,613,613,613,613,613,613,613,613,613,613,613,613,613,613,613,613,613,
613,613,613,613,613,613,613,613,613,613,613,613,613,613,613,613,613,613,613,613
</data>
 </layer>
 <objectgroup id="5" name="sand_zones">
  <object id="5" x="322.391" y="544" width="285.609" height="94.3913"/>
  <object id="6" x="352" y="512" width="224" height="32"/>
  <object id="7" x="544" y="480" width="96" height="32"/>
  <object id="8" x="576" y="352" width="64" height="128"/>
  <object id="9" x="608" y="160" width="32" height="192"/>
  <object id="10" x="544" y="1.75" width="96" height="158.25"/>
 </objectgroup>
 <objectgroup color="#00007f" id="4" name="collisions">
  <object id="1" x="0" y="-32" width="640" height="32"/>
  <object id="2" x="-32" y="0" width="32" height="1536"/>
  <object id="3" x="0" y="1536" width="640" height="32"/>
  <object id="12" x="640" y="0" width="32" height="1536"/>
  <object id="13" x="0" y="64" width="128" height="32"/>
  <object id="15" x="0" y="0">
   <polygon points="0,0 96,0 96,16 0,16"/>
  </object>
  <object id="16" x="96" y="96" width="96" height="96"/>
  <object id="17" x="96" y="192" width="64" height="32"/>
  <object id="18" x="256" y="96" width="288" height="32"/>
  <object id="19" x="512" y="128" width="32" height="32"/>
  <object id="20" x="544" y="160" width="64" height="192"/>
  <object id="21" x="544" y="352" width="32" height="128"/>
  <object id="22" x="352" y="480" width="192" height="32"/>
  <object id="23" x="576" y="512" width="64" height="32"/>
  <object id="24" x="608" y="544" width="32" height="96"/>
  <object id="25" x="320" y="639.091" width="320" height="32.9091"/>
  <object id="26" x="288" y="544" width="32" height="96.5455"/>
  <object id="27" x="288" y="512" width="64" height="32"/>
  <object id="28" x="320" y="480" width="32" height="32"/>
  <object id="29" x="256" y="128" width="32" height="96"/>
  <object id="30" x="288" y="224" width="32" height="32"/>
  <object id="31" x="320" y="256" width="32" height="96"/>
  <object id="32" x="256" y="352" width="64" height="32"/>
  <object id="34" x="160" y="352" width="32" height="64"/>
  <object id="35" x="0" y="480" width="192" height="32"/>
  <object id="36" x="160" y="448" width="32" height="32"/>
  <object id="37" x="36.9091" y="784">
   <polygon points="0,0 27.0909,0 27.0909,16 -13.5455,16 -13.5455,8 0,8"/>
  </object>
  <object id="38" x="81.9091" y="816">
   <polygon points="0,0 25.3939,0 25.3939,8 38.0909,8 38.0909,16 0,16 0,0"/>
  </object>
  <object id="39" x="112" y="864">
   <polygon points="0,0 16,0 16,16 8,16 8,8 0,8"/>
  </object>
  <object id="40" x="80" y="720">
   <polygon points="0,0 16,0 16,16 -8,16 -8,8 0,8"/>
  </object>
  <object id="41" x="96" y="704">
   <polygon points="0,0 32,0 32,16 8,16 8,32 0,32"/>
  </object>
  <object id="42" x="1.25" y="704">
   <polygon points="0,0 30.75,0 30.75,16 0,16"/>
  </object>
  <object id="43" x="64" y="640">
   <polygon points="0,0 64,0 64,48 32,48 32,32 40,32 40,16 0,16 0,0"/>
  </object>
  <object id="44" x="16" y="640">
   <polygon points="0,0 0,-96 -16,-96 -16,0"/>
  </object>
  <object id="45" x="96" y="576" width="32" height="32"/>
  <object id="46" x="96" y="512" width="32" height="32"/>
  <object id="47" x="0" y="512" width="32" height="32"/>
  <object id="48" x="256" y="384" width="32" height="32"/>
  <object id="49" x="224" y="416" width="32" height="64"/>
  <object id="50" x="256" y="480" width="32" height="32"/>
  <object id="51" x="192" y="512" width="32" height="160"/>
  <object id="52" x="224" y="672" width="32" height="32"/>
  <object id="53" x="256" y="704" width="32" height="32"/>
  <object id="54" x="288" y="736" width="32" height="32"/>
  <object id="55" x="320" y="768" width="224" height="32"/>
  <object id="56" x="352" y="672" width="224" height="32"/>
  <object id="57" x="576" y="704" width="32" height="32"/>
  <object id="59" x="608" y="736" width="32" height="160"/>
  <object id="61" x="96" y="928" width="32" height="192"/>
  <object id="62" x="0" y="896" width="32" height="256"/>
  <object id="63" x="128" y="1088" width="192" height="32"/>
  <object id="64" x="320" y="1056" width="320" height="32"/>
  <object id="65" x="416" y="1280" width="128" height="96"/>
  <object id="66" x="544" y="1376" width="64" height="32"/>
  <object id="67" x="608" y="1408" width="32" height="32"/>
  <object id="68" x="512" y="1248" width="64" height="32"/>
  <object id="69" x="544" y="1184" width="32" height="32"/>
  <object id="70" x="576" y="1216" width="32" height="32"/>
  <object id="71" x="480" y="1120" width="64" height="32"/>
  <object id="72" x="544" y="1152" width="32" height="32"/>
  <object id="73" x="416" y="1120" width="32" height="32"/>
  <object id="74" x="159.5" y="1312" width="96.5" height="32"/>
  <object id="75" x="0" y="1344" width="128" height="32"/>
  <object id="81" x="160.75" y="1296">
   <polygon points="0,0 44.2,0 55.25,8 55.25,16 0,16 0,0"/>
  </object>
  <object id="84" x="192" y="320" width="64" height="32"/>
  <object id="87" x="152" y="320">
   <polygon points="0,0 -24,0 -24,-16 -16,-16 -16,-8 0,-8"/>
  </object>
  <object id="88" x="96" y="256" width="32" height="64"/>
  <object id="89" x="64" y="320" width="32" height="160"/>
  <object id="90" x="96" y="384" width="32" height="96"/>
  <object id="91" x="128" y="448" width="32" height="32"/>
  <object id="92" x="224" y="800" width="320" height="32"/>
  <object id="93" x="224" y="704" width="32" height="96"/>
  <object id="94" x="128" y="672" width="96" height="32"/>
  <object id="95" x="128" y="512" width="32" height="160"/>
  <object id="96" x="160" y="704" width="64" height="32"/>
  <object id="97" x="160" y="864">
   <polygon points="0,0 64,0 48,16 0,16 0,0"/>
  </object>
  <object id="98" x="80" y="864">
   <polygon points="0,0 16,0 16,16 8,16 0,8 0,0"/>
  </object>
  <object id="99" x="158.5" y="1344" width="97.5" height="32"/>
  <object id="100" x="96" y="896" width="192" height="32"/>
  <object id="101" x="224" y="928" width="32" height="32"/>
  <object id="102" x="256" y="960" width="32" height="32"/>
  <object id="103" x="288" y="992" width="32" height="32"/>
  <object id="104" x="320" y="1024" width="32" height="32"/>
  <object id="105" x="352" y="992" width="32" height="32"/>
  <object id="106" x="384" y="960" width="32" height="32"/>
  <object id="107" x="416" y="928" width="32" height="32"/>
  <object id="112" x="128" y="1344" width="32" height="32"/>
  <object id="118" x="160" y="1280" width="32" height="32"/>
  <object id="119" x="96" y="1120" width="32" height="160"/>
  <object id="121" x="448" y="896" width="160" height="32"/>
 </objectgroup>
 <objectgroup id="10" name="water_zones"/>
 <objectgroup id="9" name="lava_zones">
  <object id="113" x="32" y="896" width="64" height="352"/>
  <object id="114" x="32" y="1248" width="64" height="96"/>
  <object id="116" x="0" y="1312" width="32" height="32"/>
  <object id="117" x="96" y="1280" width="64" height="64"/>
  <object id="120" x="0" y="1152" width="32" height="160"/>
 </objectgroup>
 <objectgroup id="6" name="end"/>
 <objectgroup id="8" name="runes">
  <object id="83" x="224" y="384" width="32" height="32">
   <properties>
    <property name="elementType" value="SAND"/>
    <property name="isSpawner" type="bool" value="true"/>
    <property name="runeID" type="int" value="0"/>
   </properties>
  </object>
  <object id="109" x="96" y="224" width="32" height="32">
   <properties>
    <property name="elementType" value="SAND"/>
    <property name="isSpawner" type="bool" value="false"/>
   </properties>
  </object>
  <object id="111" x="0" y="224" width="32" height="32">
   <properties>
    <property name="elementType" value="WATER"/>
    <property name="isSpawner" type="bool" value="true"/>
    <property name="runeID" type="int" value="1"/>
   </properties>
  </object>
  <object id="122" x="256" y="320" width="32" height="32">
   <properties>
    <property name="elementType" value="WATER"/>
    <property name="isSpawner" type="bool" value="false"/>
   </properties>
  </object>
  <object id="123" x="512" y="64" width="32" height="32">
   <properties>
    <property name="elementType" value="SAND"/>
    <property name="isSpawner" type="bool" value="false"/>
   </properties>
  </object>
  <object id="145" x="96" y="544" width="32" height="32">
   <properties>
    <property name="elementType" value="LAVA"/>
    <property name="isSpawner" type="bool" value="false"/>
   </properties>
  </object>
  <object id="146" x="-0.125" y="254.125" width="95.7083" height="65.4583">
   <properties>
    <property name="elementType" value="SAND"/>
    <property name="isContainer" type="bool" value="true"/>
    <property name="runeID" type="int" value="0"/>
   </properties>
  </object>
  <object id="147" x="-0.10415" y="319.646" width="63.9583" height="160.208">
   <properties>
    <property name="elementType" value="SAND"/>
    <property name="isContainer" type="bool" value="true"/>
    <property name="runeID" type="int" value="0"/>
   </properties>
  </object>
  <object id="149" x="285.917" y="517.542" width="151.708" height="60.125" rotation="90">
   <properties>
    <property name="elementType" value="WATER"/>
    <property name="isContainer" type="bool" value="true"/>
    <property name="runeID" type="int" value="1"/>
   </properties>
  </object>
  <object id="150" x="546.146" y="773.271" width="59.7087" height="121.458">
   <properties>
    <property name="elementType" value="WATER"/>
    <property name="isContainer" type="bool" value="true"/>
    <property name="runeID" type="int" value="1"/>
   </properties>
  </object>
  <object id="151" x="354.812" y="829.271" width="253.042" height="65.4583">
   <properties>
    <property name="elementType" value="WATER"/>
    <property name="isContainer" type="bool" value="true"/>
    <property name="runeID" type="int" value="1"/>
   </properties>
  </object>
  <object id="152" x="289.479" y="962.604" width="90.3753" height="28.125">
   <properties>
    <property name="elementType" value="WATER"/>
    <property name="isContainer" type="bool" value="true"/>
    <property name="runeID" type="int" value="1"/>
   </properties>
  </object>
  <object id="153" x="320" y="992" width="29.042" height="28.6667">
   <properties>
    <property name="elementType" value="WATER"/>
    <property name="isContainer" type="bool" value="true"/>
    <property name="runeID" type="int" value="1"/>
   </properties>
  </object>
  <object id="154" x="325.479" y="697.271" width="253.042" height="65.4583">
   <properties>
    <property name="elementType" value="WATER"/>
    <property name="isContainer" type="bool" value="true"/>
    <property name="runeID" type="int" value="1"/>
   </properties>
  </object>
  <object id="155" x="318.653" y="641.097" width="61.2152" height="57.2989" rotation="90">
   <properties>
    <property name="elementType" value="WATER"/>
    <property name="isContainer" type="bool" value="true"/>
    <property name="runeID" type="int" value="1"/>
   </properties>
  </object>
 </objectgroup>
 <objectgroup color="#ff0000" id="11" name="enemies">
  <object id="124" x="352" y="608" width="32" height="32">
   <properties>
    <property name="enemyType" value="slime"/>
   </properties>
  </object>
  <object id="131" x="410" y="532" width="32" height="32">
   <properties>
    <property name="enemyType" value="slime"/>
   </properties>
  </object>
  <object id="132" x="470.667" y="539.333" width="32" height="32">
   <properties>
    <property name="enemyType" value="slime"/>
   </properties>
  </object>
  <object id="133" x="507.333" y="588" width="32" height="32">
   <properties>
    <property name="enemyType" value="slime"/>
   </properties>
  </object>
  <object id="134" x="370.667" y="560" width="32" height="32">
   <properties>
    <property name="enemyType" value="slime"/>
   </properties>
  </object>
  <object id="135" x="438" y="576.667" width="32" height="32">
   <properties>
    <property name="enemyType" value="slime"/>
   </properties>
  </object>
  <object id="136" x="548.667" y="599.333" width="32" height="32">
   <properties>
    <property name="enemyType" value="slime"/>
   </properties>
  </object>
  <object id="137" x="564" y="555.333" width="32" height="32">
   <properties>
    <property name="enemyType" value="slime"/>
   </properties>
  </object>
  <object id="138" x="473.333" y="602" width="32" height="32">
   <properties>
    <property name="enemyType" value="slime"/>
   </properties>
  </object>
  <object id="139" x="528.667" y="521.333" width="32" height="32">
   <properties>
    <property name="enemyType" value="slime"/>
   </properties>
  </object>
  <object id="140" x="301.333" y="62" width="32" height="32">
   <properties>
    <property name="enemyType" value="slime"/>
   </properties>
  </object>
  <object id="141" x="403.333" y="64" width="32" height="32">
   <properties>
    <property name="enemyType" value="slime"/>
   </properties>
  </object>
  <object id="144" x="62.6667" y="606.667" width="32" height="32">
   <properties>
    <property name="enemyType" value="slime"/>
   </properties>
  </object>
 </objectgroup>
 <objectgroup color="#ffff00" id="12" name="keys" class="Key">
  <object id="157" x="388.697" y="607.788" width="29.0909" height="29.3334">
   <properties>
    <property name="isKey" type="bool" value="true"/>
   </properties>
  </object>
  <object id="158" x="0" y="1472" width="635.636" height="59.9697">
   <properties>
    <property name="isDoor" type="bool" value="true"/>
    <property name="spawnX" type="float" value="100"/>
    <property name="spawnY" type="float" value="250"/>
    <property name="targetMap" value="level3.tmx"/>
   </properties>
  </object>
 </objectgroup>
</map>
