<?xml version="1.0" encoding="UTF-8"?>
<map version="1.10" tiledversion="1.11.2" orientation="orthogonal" renderorder="right-down" width="30" height="20" tilewidth="32" tileheight="32" infinite="0" nextlayerid="2" nextobjectid="1">
 <tileset firstgid="1" source="frtest.tsx"/>
 <layer id="1" name="Tile Layer 1" width="30" height="20">
  <data encoding="csv">
1,2,3,4,0,0,0,0,0,0,0,0,0,0,0,0,0,0,0,0,0,0,0,0,0,0,0,0,0,0,
10,11,12,13,0,0,0,0,0,0,0,0,0,0,0,0,0,0,0,0,0,0,0,0,0,0,0,0,0,0,
10,11,12,13,0,0,0,0,0,0,0,0,0,0,0,0,0,0,0,0,0,0,0,0,0,0,0,0,0,0,
10,11,12,13,0,0,0,0,0,0,0,0,0,0,0,0,0,0,0,0,0,0,0,0,0,0,0,0,0,0,
10,11,12,13,0,0,0,0,0,0,0,0,0,0,0,0,0,0,0,0,0,0,0,0,0,0,0,0,0,0,
10,11,12,13,0,0,0,0,0,0,0,0,0,0,0,0,0,0,0,0,0,0,0,0,0,0,0,0,0,0,
10,11,12,13,0,0,0,0,0,0,0,0,0,0,0,0,0,0,0,0,0,0,0,0,0,0,0,0,0,0,
10,11,12,13,0,0,0,0,0,0,0,0,0,0,0,0,0,0,0,0,0,0,0,0,0,0,0,0,0,0,
10,11,12,13,0,0,0,0,0,0,0,0,0,0,0,0,0,0,0,0,0,0,0,0,0,0,0,0,0,0,
10,11,12,13,0,0,0,0,0,0,0,0,0,0,0,0,0,0,0,0,0,0,0,0,0,0,0,0,0,0,
10,11,12,13,0,0,1,2,3,2,3,2,3,2,3,2,3,2,3,2,3,4,34,0,0,0,0,0,0,0,
10,11,12,13,0,0,10,11,12,11,12,11,12,11,12,11,12,11,12,11,12,13,43,34,0,0,0,0,0,0,
10,11,12,13,0,0,19,20,21,20,21,20,21,20,21,20,21,20,21,20,21,22,9,43,34,0,0,0,0,0,
10,11,12,13,0,0,0,0,0,0,0,0,0,0,0,0,0,0,0,0,0,0,18,9,43,34,0,0,0,0,
10,11,12,13,0,0,0,0,0,0,0,0,0,0,0,0,0,0,0,0,0,0,27,18,9,43,34,35,35,35,
10,11,12,13,0,0,0,0,0,0,0,0,0,0,0,0,0,0,0,0,0,0,0,27,18,9,43,31,15,17,
10,11,12,13,0,0,0,0,0,0,0,0,0,0,0,0,0,0,0,0,0,0,0,0,18,18,9,9,9,9,
10,11,12,13,5,6,7,8,5,6,7,8,5,6,7,8,5,6,7,8,5,6,7,8,18,18,18,18,18,18,
19,20,21,22,14,15,15,15,15,15,15,15,15,15,15,15,15,15,15,15,15,16,16,17,27,27,27,27,27,27,
23,24,24,24,24,24,24,24,24,24,24,24,24,24,24,24,24,25,25,24,24,24,24,24,24,24,24,24,25,26
</data>
 </layer>
</map>
