<?xml version="1.0" encoding="UTF-8"?>
<map version="1.10" tiledversion="1.11.2" orientation="orthogonal" renderorder="right-down" width="60" height="12" tilewidth="32" tileheight="32" infinite="0" nextlayerid="24" nextobjectid="49">
 <tileset firstgid="1" name="terrain" tilewidth="32" tileheight="32" tilecount="96" columns="0">
  <grid orientation="orthogonal" width="1" height="1"/>
  <tile id="0">
   <image source="tilesets/terrainground/Tile_01.png" width="32" height="32"/>
  </tile>
  <tile id="1">
   <image source="tilesets/terrainground/Tile_02.png" width="32" height="32"/>
  </tile>
  <tile id="2">
   <image source="tilesets/terrainground/Tile_03.png" width="32" height="32"/>
  </tile>
  <tile id="3">
   <image source="tilesets/terrainground/Tile_04.png" width="32" height="32"/>
  </tile>
  <tile id="4">
   <image source="tilesets/terrainground/Tile_05.png" width="32" height="32"/>
  </tile>
  <tile id="5">
   <image source="tilesets/terrainground/Tile_06.png" width="32" height="32"/>
  </tile>
  <tile id="6">
   <image source="tilesets/terrainground/Tile_07.png" width="32" height="32"/>
  </tile>
  <tile id="7">
   <image source="tilesets/terrainground/Tile_08.png" width="32" height="32"/>
  </tile>
  <tile id="8">
   <image source="tilesets/terrainground/Tile_09.png" width="32" height="32"/>
  </tile>
  <tile id="9">
   <image source="tilesets/terrainground/Tile_10.png" width="32" height="32"/>
  </tile>
  <tile id="10">
   <image source="tilesets/terrainground/Tile_11.png" width="32" height="32"/>
  </tile>
  <tile id="11">
   <image source="tilesets/terrainground/Tile_12.png" width="32" height="32"/>
  </tile>
  <tile id="12">
   <image source="tilesets/terrainground/Tile_13.png" width="32" height="32"/>
  </tile>
  <tile id="13">
   <image source="tilesets/terrainground/Tile_14.png" width="32" height="32"/>
  </tile>
  <tile id="14">
   <image source="tilesets/terrainground/Tile_15.png" width="32" height="32"/>
  </tile>
  <tile id="15">
   <image source="tilesets/terrainground/Tile_16.png" width="32" height="32"/>
  </tile>
  <tile id="16">
   <image source="tilesets/terrainground/Tile_17.png" width="32" height="32"/>
  </tile>
  <tile id="17">
   <image source="tilesets/terrainground/Tile_18.png" width="32" height="32"/>
  </tile>
  <tile id="18">
   <image source="tilesets/terrainground/Tile_19.png" width="32" height="32"/>
  </tile>
  <tile id="19">
   <image source="tilesets/terrainground/Tile_20.png" width="32" height="32"/>
  </tile>
  <tile id="20">
   <image source="tilesets/terrainground/Tile_21.png" width="32" height="32"/>
  </tile>
  <tile id="21">
   <image source="tilesets/terrainground/Tile_22.png" width="32" height="32"/>
  </tile>
  <tile id="22">
   <image source="tilesets/terrainground/Tile_23.png" width="32" height="32"/>
  </tile>
  <tile id="23">
   <image source="tilesets/terrainground/Tile_24.png" width="32" height="32"/>
  </tile>
  <tile id="24">
   <image source="tilesets/terrainground/Tile_25.png" width="32" height="32"/>
  </tile>
  <tile id="25">
   <image source="tilesets/terrainground/Tile_26.png" width="32" height="32"/>
  </tile>
  <tile id="26">
   <image source="tilesets/terrainground/Tile_27.png" width="32" height="32"/>
  </tile>
  <tile id="27">
   <image source="tilesets/terrainground/Tile_28.png" width="32" height="32"/>
  </tile>
  <tile id="28">
   <image source="tilesets/terrainground/Tile_29.png" width="32" height="32"/>
  </tile>
  <tile id="29">
   <image source="tilesets/terrainground/Tile_30.png" width="32" height="32"/>
  </tile>
  <tile id="30">
   <image source="tilesets/terrainground/Tile_31.png" width="32" height="32"/>
  </tile>
  <tile id="31">
   <image source="tilesets/terrainground/Tile_32.png" width="32" height="32"/>
  </tile>
  <tile id="32">
   <image source="tilesets/terrainground/Tile_33.png" width="32" height="32"/>
  </tile>
  <tile id="33">
   <image source="tilesets/terrainground/Tile_34.png" width="32" height="32"/>
  </tile>
  <tile id="34">
   <image source="tilesets/terrainground/Tile_35.png" width="32" height="32"/>
  </tile>
  <tile id="35">
   <image source="tilesets/terrainground/Tile_36.png" width="32" height="32"/>
  </tile>
  <tile id="36">
   <image source="tilesets/terrainground/Tile_37.png" width="32" height="32"/>
  </tile>
  <tile id="37">
   <image source="tilesets/terrainground/Tile_38.png" width="32" height="32"/>
  </tile>
  <tile id="38">
   <image source="tilesets/terrainground/Tile_39.png" width="32" height="32"/>
  </tile>
  <tile id="39">
   <image source="tilesets/terrainground/Tile_40.png" width="32" height="32"/>
  </tile>
  <tile id="40">
   <image source="tilesets/terrainground/Tile_41.png" width="32" height="32"/>
  </tile>
  <tile id="41">
   <image source="tilesets/terrainground/Tile_42.png" width="32" height="32"/>
  </tile>
  <tile id="42">
   <image source="tilesets/terrainground/Tile_43.png" width="32" height="32"/>
  </tile>
  <tile id="43">
   <image source="tilesets/terrainground/Tile_44.png" width="32" height="32"/>
  </tile>
  <tile id="44">
   <image source="tilesets/terrainground/Tile_45.png" width="32" height="32"/>
  </tile>
  <tile id="45">
   <image source="tilesets/terrainground/Tile_46.png" width="32" height="32"/>
  </tile>
  <tile id="46">
   <image source="tilesets/terrainground/Tile_47.png" width="32" height="32"/>
  </tile>
  <tile id="47">
   <image source="tilesets/terrainground/Tile_48.png" width="32" height="32"/>
  </tile>
  <tile id="48">
   <image source="tilesets/terrainground/Tile_49.png" width="32" height="32"/>
  </tile>
  <tile id="49">
   <image source="tilesets/terrainground/Tile_50.png" width="32" height="32"/>
  </tile>
  <tile id="50">
   <image source="tilesets/terrainground/Tile_51.png" width="32" height="32"/>
  </tile>
  <tile id="51">
   <image source="tilesets/terrainground/Tile_52.png" width="32" height="32"/>
  </tile>
  <tile id="52">
   <image source="tilesets/terrainground/Tile_53.png" width="32" height="32"/>
  </tile>
  <tile id="53">
   <image source="tilesets/terrainground/Tile_54.png" width="32" height="32"/>
  </tile>
  <tile id="54">
   <image source="tilesets/terrainground/Tile_55.png" width="32" height="32"/>
  </tile>
  <tile id="55">
   <image source="tilesets/terrainground/Tile_56.png" width="32" height="32"/>
  </tile>
  <tile id="56">
   <image source="tilesets/terrainground/Tile_57.png" width="32" height="32"/>
  </tile>
  <tile id="57">
   <image source="tilesets/terrainground/Tile_58.png" width="32" height="32"/>
  </tile>
  <tile id="58">
   <image source="tilesets/terrainground/Tile_59.png" width="32" height="32"/>
  </tile>
  <tile id="59">
   <image source="tilesets/terrainground/Tile_60.png" width="32" height="32"/>
  </tile>
  <tile id="60">
   <image source="tilesets/terrainground/Tile_61.png" width="32" height="32"/>
  </tile>
  <tile id="61">
   <image source="tilesets/terrainground/Tile_62.png" width="32" height="32"/>
  </tile>
  <tile id="62">
   <image source="tilesets/terrainground/Tile_63.png" width="32" height="32"/>
  </tile>
  <tile id="63">
   <image source="tilesets/terrainground/Tile_64.png" width="32" height="32"/>
  </tile>
  <tile id="64">
   <image source="tilesets/terrainground/Tile_65.png" width="32" height="32"/>
  </tile>
  <tile id="65">
   <image source="tilesets/terrainground/Tile_66.png" width="32" height="32"/>
  </tile>
  <tile id="66">
   <image source="tilesets/terrainground/Tile_67.png" width="32" height="32"/>
  </tile>
  <tile id="67">
   <image source="tilesets/terrainground/Tile_68.png" width="32" height="32"/>
  </tile>
  <tile id="68">
   <image source="tilesets/terrainground/Tile_69.png" width="32" height="32"/>
  </tile>
  <tile id="69">
   <image source="tilesets/terrainground/Tile_70.png" width="32" height="32"/>
  </tile>
  <tile id="70">
   <image source="tilesets/terrainground/Tile_71.png" width="32" height="32"/>
  </tile>
  <tile id="71">
   <image source="tilesets/terrainground/Tile_72.png" width="32" height="32"/>
  </tile>
  <tile id="72">
   <image source="tilesets/terrainground/Tile_73.png" width="32" height="32"/>
  </tile>
  <tile id="73">
   <image source="tilesets/terrainground/Tile_74.png" width="32" height="32"/>
  </tile>
  <tile id="74">
   <image source="tilesets/terrainground/Tile_75.png" width="32" height="32"/>
  </tile>
  <tile id="75">
   <image source="tilesets/terrainground/Tile_76.png" width="32" height="32"/>
  </tile>
  <tile id="76">
   <image source="tilesets/terrainground/Tile_77.png" width="32" height="32"/>
  </tile>
  <tile id="77">
   <image source="tilesets/terrainground/Tile_78.png" width="32" height="32"/>
  </tile>
  <tile id="78">
   <image source="tilesets/terrainground/Tile_79.png" width="32" height="32"/>
  </tile>
  <tile id="79">
   <image source="tilesets/terrainground/Tile_80.png" width="32" height="32"/>
  </tile>
  <tile id="80">
   <image source="tilesets/terrainground/Tile_81.png" width="32" height="32"/>
  </tile>
  <tile id="81">
   <image source="tilesets/terrainground/Tile_82.png" width="32" height="32"/>
  </tile>
  <tile id="82">
   <image source="tilesets/terrainground/Tile_83.png" width="32" height="32"/>
  </tile>
  <tile id="83">
   <image source="tilesets/terrainground/Tile_84.png" width="32" height="32"/>
  </tile>
  <tile id="84">
   <image source="tilesets/terrainground/Tile_85.png" width="32" height="32"/>
  </tile>
  <tile id="85">
   <image source="tilesets/terrainground/Tile_86.png" width="32" height="32"/>
  </tile>
  <tile id="86">
   <image source="tilesets/terrainground/Tile_87.png" width="32" height="32"/>
  </tile>
  <tile id="87">
   <image source="tilesets/terrainground/Tile_88.png" width="32" height="32"/>
  </tile>
  <tile id="88">
   <image source="tilesets/terrainground/Tile_89.png" width="32" height="32"/>
  </tile>
  <tile id="89">
   <image source="tilesets/terrainground/Tile_90.png" width="32" height="32"/>
  </tile>
  <tile id="90">
   <image source="tilesets/terrainground/Tile_91.png" width="32" height="32"/>
  </tile>
  <tile id="91">
   <image source="tilesets/terrainground/Tile_92.png" width="32" height="32"/>
  </tile>
  <tile id="92">
   <image source="tilesets/terrainground/Tile_93.png" width="32" height="32"/>
  </tile>
  <tile id="93">
   <image source="tilesets/terrainground/Tile_94.png" width="32" height="32"/>
  </tile>
  <tile id="94">
   <image source="tilesets/terrainground/Tile_95.png" width="32" height="32"/>
  </tile>
  <tile id="95">
   <image source="tilesets/terrainground/Tile_96.png" width="32" height="32"/>
  </tile>
  <wangsets>
   <wangset name="Unnamed Set" type="corner" tile="-1">
    <wangcolor name="ground" color="#ff0000" tile="-1" probability="1"/>
    <wangtile tileid="1" wangid="0,0,0,1,0,1,0,0"/>
    <wangtile tileid="14" wangid="0,1,0,0,0,0,0,1"/>
   </wangset>
  </wangsets>
 </tileset>
 <tileset firstgid="97" name="props" tilewidth="175" tileheight="190" tilecount="71" columns="0">
  <grid orientation="orthogonal" width="1" height="1"/>
  <tile id="0">
   <image source="tilesets/props/Angel Statue.png" width="64" height="64"/>
  </tile>
  <tile id="1">
   <image source="tilesets/props/apple.png" width="7" height="7"/>
  </tile>
  <tile id="2">
   <image source="tilesets/props/applebasket.png" width="17" height="15"/>
  </tile>
  <tile id="3">
   <image source="tilesets/props/applepile.png" width="19" height="11"/>
  </tile>
  <tile id="4">
   <image source="tilesets/props/applepile2.png" width="28" height="18"/>
  </tile>
  <tile id="5">
   <image source="tilesets/props/axed.png" width="18" height="29"/>
  </tile>
  <tile id="6">
   <image source="tilesets/props/axed2.png" width="21" height="21"/>
  </tile>
  <tile id="7">
   <image source="tilesets/props/barrel1.png" width="15" height="18"/>
  </tile>
  <tile id="8">
   <image source="tilesets/props/barrel2.png" width="29" height="18"/>
  </tile>
  <tile id="9">
   <image source="tilesets/props/basket.png" width="17" height="15"/>
  </tile>
  <tile id="10">
   <image source="tilesets/props/basketfood.png" width="17" height="15"/>
  </tile>
  <tile id="11">
   <image source="tilesets/props/bottles.png" width="25" height="12"/>
  </tile>
  <tile id="12">
   <image source="tilesets/props/bottlwe.png" width="5" height="12"/>
  </tile>
  <tile id="13">
   <image source="tilesets/props/brick.png" width="50" height="51"/>
  </tile>
  <tile id="14">
   <image source="tilesets/props/bucket.png" width="12" height="12"/>
  </tile>
  <tile id="15">
   <image source="tilesets/props/bucket2.png" width="10" height="15"/>
  </tile>
  <tile id="16">
   <image source="tilesets/props/cauldron.png" width="19" height="15"/>
  </tile>
  <tile id="17">
   <image source="tilesets/props/chair.png" width="18" height="12"/>
  </tile>
  <tile id="18">
   <image source="tilesets/props/chair2.png" width="18" height="26"/>
  </tile>
  <tile id="19">
   <image source="tilesets/props/cloud1.png" width="25" height="10"/>
  </tile>
  <tile id="20">
   <image source="tilesets/props/cloud2.png" width="43" height="15"/>
  </tile>
  <tile id="21">
   <image source="tilesets/props/cloud3.png" width="55" height="16"/>
  </tile>
  <tile id="22">
   <image source="tilesets/props/cloud4.png" width="73" height="29"/>
  </tile>
  <tile id="23">
   <image source="tilesets/props/cloud5.png" width="110" height="35"/>
  </tile>
  <tile id="24">
   <image source="tilesets/props/cloud6.png" width="165" height="101"/>
  </tile>
  <tile id="25">
   <image source="tilesets/props/crate1.png" width="27" height="16"/>
  </tile>
  <tile id="26">
   <image source="tilesets/props/crate2.png" width="27" height="32"/>
  </tile>
  <tile id="27">
   <image source="tilesets/props/fallen.png" width="26" height="55"/>
  </tile>
  <tile id="28">
   <image source="tilesets/props/headstone.png" width="23" height="24"/>
  </tile>
  <tile id="29">
   <image source="tilesets/props/headstone2.png" width="21" height="24"/>
  </tile>
  <tile id="30">
   <image source="tilesets/props/headstone3.png" width="22" height="21"/>
  </tile>
  <tile id="31">
   <image source="tilesets/props/headstone4.png" width="21" height="27"/>
  </tile>
  <tile id="32">
   <image source="tilesets/props/headstone5.png" width="28" height="22"/>
  </tile>
  <tile id="33">
   <image source="tilesets/props/logs.png" width="47" height="21"/>
  </tile>
  <tile id="34">
   <image source="tilesets/props/poopbarrel.png" width="23" height="18"/>
  </tile>
  <tile id="35">
   <image source="tilesets/props/scarecrow.png" width="40" height="59"/>
  </tile>
  <tile id="36">
   <image source="tilesets/props/stool.png" width="14" height="13"/>
  </tile>
  <tile id="37">
   <image source="tilesets/props/table.png" width="39" height="19"/>
  </tile>
  <tile id="38">
   <image source="tilesets/props/tablefood.png" width="39" height="30"/>
  </tile>
  <tile id="39">
   <image source="tilesets/props/tent1.png" width="96" height="39"/>
  </tile>
  <tile id="40">
   <image source="tilesets/props/tent2.png" width="96" height="39"/>
  </tile>
  <tile id="41">
   <image source="tilesets/props/Tree1.png" width="62" height="103"/>
  </tile>
  <tile id="42">
   <image source="tilesets/props/Tree2.png" width="124" height="129"/>
  </tile>
  <tile id="43">
   <image source="tilesets/props/Tree3.png" width="175" height="190"/>
  </tile>
  <tile id="44">
   <image source="tilesets/props/Tree4.png" width="175" height="190"/>
  </tile>
  <tile id="45">
   <image source="tilesets/props/stone1.png" width="10" height="7"/>
  </tile>
  <tile id="46">
   <image source="tilesets/props/stone2.png" width="22" height="14"/>
  </tile>
  <tile id="47">
   <image source="tilesets/props/stone3.png" width="27" height="16"/>
  </tile>
  <tile id="48">
   <image source="tilesets/props/stone4.png" width="39" height="17"/>
  </tile>
  <tile id="49">
   <image source="tilesets/props/stone5.png" width="46" height="22"/>
  </tile>
  <tile id="50">
   <image source="tilesets/props/stone6.png" width="70" height="44"/>
  </tile>
  <tile id="51">
   <image source="tilesets/props/1.png" width="32" height="33"/>
  </tile>
  <tile id="52">
   <image source="tilesets/props/2.png" width="32" height="33"/>
  </tile>
  <tile id="53">
   <image source="tilesets/props/3.png" width="32" height="33"/>
  </tile>
  <tile id="54">
   <image source="tilesets/props/4.png" width="32" height="33"/>
  </tile>
  <tile id="55">
   <image source="tilesets/props/5.png" width="32" height="25"/>
  </tile>
  <tile id="56">
   <image source="tilesets/props/6.png" width="32" height="25"/>
  </tile>
  <tile id="57">
   <image source="tilesets/props/7.png" width="32" height="25"/>
  </tile>
  <tile id="58">
   <image source="tilesets/props/8.png" width="32" height="25"/>
  </tile>
  <tile id="59">
   <image source="tilesets/props/9.png" width="32" height="16"/>
  </tile>
  <tile id="60">
   <image source="tilesets/props/10.png" width="32" height="16"/>
  </tile>
  <tile id="61">
   <image source="tilesets/props/11.png" width="32" height="16"/>
  </tile>
  <tile id="62">
   <image source="tilesets/props/12.png" width="32" height="16"/>
  </tile>
  <tile id="63">
   <image source="tilesets/props/13.png" width="40" height="17"/>
  </tile>
  <tile id="64">
   <image source="tilesets/props/14.png" width="40" height="16"/>
  </tile>
  <tile id="65">
   <image source="tilesets/props/15.png" width="38" height="13"/>
  </tile>
  <tile id="66">
   <image source="tilesets/props/16.png" width="22" height="10"/>
  </tile>
  <tile id="67">
   <image source="tilesets/props/17.png" width="50" height="25"/>
  </tile>
  <tile id="68">
   <image source="tilesets/props/18.png" width="41" height="24"/>
  </tile>
  <tile id="69">
   <image source="tilesets/props/19.png" width="43" height="22"/>
  </tile>
  <tile id="70">
   <image source="tilesets/props/20.png" width="30" height="19"/>
  </tile>
 </tileset>
 <tileset firstgid="168" name="runes" tilewidth="32" tileheight="32" tilecount="9" columns="0">
  <grid orientation="orthogonal" width="1" height="1"/>
  <tile id="0">
   <image source="tilesets/runes/1-32x32.png" width="32" height="32"/>
  </tile>
  <tile id="1">
   <image source="tilesets/runes/2-32x32.png" width="32" height="32"/>
  </tile>
  <tile id="2">
   <image source="tilesets/runes/3-32x32.png" width="32" height="32"/>
  </tile>
  <tile id="3">
   <image source="tilesets/runes/4-32x32.png" width="32" height="32"/>
  </tile>
  <tile id="4">
   <image source="tilesets/runes/5-32x32.png" width="32" height="32"/>
  </tile>
  <tile id="5">
   <image source="tilesets/runes/6-32x32.png" width="32" height="32"/>
  </tile>
  <tile id="6">
   <image source="tilesets/runes/7-32x32.png" width="32" height="32"/>
  </tile>
  <tile id="7">
   <image source="tilesets/runes/8-32x32.png" width="32" height="32"/>
  </tile>
  <tile id="8">
   <image source="tilesets/runes/9-32x32.png" width="32" height="32"/>
  </tile>
 </tileset>
 <tileset firstgid="177" source="tilesets/props/Campfire sheet.tsx"/>
 <tileset firstgid="217" name="animated_rune_drop_clean_shadow" tilewidth="32" tileheight="32" tilecount="48" columns="24">
  <image source="../runes/arijkx_animated_runes_v1/basic/animated_rune_drop_clean_shadow.png" width="768" height="64"/>
 </tileset>
 <tileset firstgid="265" source="../runes/runesOnline.tsx"/>
 <group id="8" name="parallax">
  <imagelayer id="2" name="backdrop" parallaxx="0.01" repeatx="1">
   <image source="parralax/1.png" width="576" height="324"/>
  </imagelayer>
  <imagelayer id="4" name="background" parallaxx="0.25" repeatx="1">
   <image source="parralax/2.png" width="576" height="324"/>
  </imagelayer>
  <imagelayer id="5" name="middleground" parallaxx="0.6" repeatx="1">
   <image source="parralax/3.png" width="576" height="324"/>
  </imagelayer>
  <imagelayer id="6" name="middlemiddleground" parallaxx="0.65" repeatx="1">
   <image source="parralax/4.png" width="576" height="324"/>
  </imagelayer>
  <imagelayer id="7" name="foreground" parallaxx="0.8" repeatx="1">
   <image source="parralax/5.png" width="576" height="324"/>
  </imagelayer>
 </group>
 <layer id="9" name="terrainbackdrop" width="60" height="12">
  <data encoding="csv">
0,0,0,0,0,0,0,0,0,0,0,0,0,0,0,0,0,0,0,0,0,0,0,0,0,0,0,0,0,0,0,0,0,0,0,0,0,0,0,0,0,0,0,0,0,0,0,0,0,0,0,0,0,0,0,0,0,0,0,0,
0,0,0,73,73,73,0,0,0,0,0,0,0,0,0,0,0,0,0,0,0,0,0,0,0,73,73,0,0,73,73,0,0,0,0,0,0,0,0,0,0,0,0,0,0,0,0,0,0,0,0,0,0,0,0,0,0,0,0,0,
0,0,0,73,83,84,0,0,0,0,0,0,0,0,0,0,0,0,0,0,0,0,0,0,0,82,73,0,0,73,84,0,0,0,0,0,0,0,0,0,0,0,0,0,0,0,0,0,0,0,0,0,0,0,0,0,0,0,0,0,
0,0,0,73,0,0,0,0,0,0,0,0,0,0,0,0,0,0,0,0,0,0,0,0,0,0,79,0,0,81,0,0,0,0,0,0,0,0,0,0,0,0,0,0,0,0,0,0,0,0,0,0,0,0,0,0,0,0,0,0,
0,0,0,94,0,0,0,0,0,0,0,0,0,0,0,0,0,0,0,0,0,0,0,0,0,0,75,0,0,95,0,0,0,0,0,0,0,0,0,0,0,0,0,0,0,0,0,0,0,0,0,0,0,0,0,0,0,0,0,0,
0,0,0,75,0,0,0,0,0,0,0,0,0,0,0,0,0,0,0,0,0,0,0,0,0,0,80,0,0,94,0,0,0,0,0,0,0,0,0,0,0,0,0,0,0,0,0,0,0,0,0,0,0,0,0,0,0,0,0,0,
0,0,0,95,0,0,0,0,0,0,0,0,0,0,0,0,0,0,0,0,0,0,0,0,0,0,93,0,0,74,0,0,0,0,0,0,0,0,0,0,0,0,0,0,0,0,0,0,0,0,0,0,0,0,0,0,0,0,0,0,
0,0,0,94,0,0,0,0,0,0,0,0,0,0,0,0,0,0,0,0,0,0,0,0,0,0,79,0,0,81,0,0,0,0,0,0,0,0,0,0,0,0,0,0,0,0,0,0,0,0,0,0,0,0,0,0,0,0,0,0,
0,0,0,81,0,0,0,0,0,0,0,0,0,0,0,0,0,0,0,0,0,0,0,0,0,89,0,73,73,73,86,0,0,0,0,0,0,0,0,0,0,0,0,0,0,0,0,0,77,77,77,77,77,77,77,77,77,77,77,77,
0,0,0,74,0,0,0,0,0,0,0,0,0,0,0,0,0,0,0,0,0,0,0,0,0,95,0,73,73,73,73,0,0,0,0,0,0,0,0,0,0,0,0,0,0,0,0,0,73,73,73,73,73,73,73,73,73,73,73,73,
0,0,0,0,0,0,0,0,0,0,0,0,0,0,0,0,0,0,0,0,0,0,0,0,0,73,73,73,0,80,73,0,0,0,0,0,0,0,0,0,0,0,0,0,0,0,0,0,73,73,73,73,73,73,73,73,73,73,73,73,
0,0,0,0,0,0,0,0,0,0,0,0,0,0,0,0,0,0,0,0,0,0,0,0,0,0,0,0,0,0,0,0,0,0,0,0,0,0,0,0,0,0,0,0,0,0,0,0,0,0,0,0,0,0,0,0,0,0,0,0
</data>
 </layer>
 <layer id="1" name="terrain" width="60" height="12">
  <data encoding="csv">
9,11,11,11,11,12,0,0,0,0,0,0,0,0,0,0,0,0,0,0,0,0,0,0,0,9,11,11,11,11,12,0,0,0,0,0,0,0,0,0,0,0,0,0,0,0,0,0,0,0,0,0,0,0,0,0,0,0,0,0,
61,4,19,57,57,58,0,0,0,0,0,0,0,0,0,0,0,0,0,0,0,0,0,0,0,56,57,20,19,57,58,0,0,0,0,0,0,0,0,0,0,0,0,0,0,0,0,0,0,0,0,0,0,0,0,0,0,0,0,0,
61,4,62,0,0,0,0,0,0,0,0,0,0,0,0,0,0,0,0,0,0,0,0,0,0,0,0,61,62,0,0,0,0,0,0,0,0,0,0,0,0,0,0,0,0,0,0,0,0,0,0,0,0,0,0,0,0,0,0,0,
61,4,62,0,0,0,0,0,0,0,0,0,0,0,0,0,0,0,0,0,0,0,0,0,0,0,0,61,62,0,0,0,0,0,0,0,0,0,0,0,0,0,0,0,0,0,0,0,0,0,0,0,0,0,0,0,0,0,0,0,
61,4,62,0,0,0,0,0,0,0,0,0,0,0,0,0,0,0,0,0,0,0,0,0,0,0,0,61,62,0,0,0,0,0,0,0,0,0,0,0,0,0,0,0,0,0,0,0,0,0,0,0,0,0,0,0,0,0,0,0,
61,4,62,0,0,0,0,0,0,0,0,0,0,0,0,0,0,0,0,0,0,0,0,0,0,0,0,61,62,0,0,0,0,0,0,0,0,0,0,0,0,0,0,0,0,0,0,0,0,0,0,0,0,0,0,0,0,0,0,0,
61,4,62,0,0,0,0,0,0,0,0,0,0,0,0,0,0,0,0,0,0,0,0,0,0,0,0,61,62,0,0,0,0,0,0,0,0,0,0,0,0,0,0,0,0,0,0,0,0,0,0,0,0,0,0,0,0,0,0,0,
61,4,62,0,0,0,0,0,0,0,0,0,0,0,0,0,0,0,0,0,0,0,0,0,0,0,0,25,28,0,0,0,0,0,0,0,0,0,0,0,0,0,0,0,0,0,0,0,0,0,0,0,0,0,0,0,0,0,0,0,
61,4,62,0,0,0,0,0,0,0,0,0,0,0,0,0,0,0,0,0,0,0,0,43,3,0,1,50,50,51,0,1,2,2,2,2,2,2,2,2,2,2,2,2,2,2,2,3,0,0,0,0,0,0,0,0,0,0,0,0,
25,26,28,0,0,0,0,0,0,0,0,0,0,0,0,0,0,0,0,0,0,0,43,55,66,0,29,0,0,0,0,65,15,15,15,15,15,15,15,15,15,15,15,15,15,15,15,66,0,0,0,0,0,0,0,0,0,0,0,0,
1,2,2,2,2,2,2,2,2,2,2,2,2,2,2,2,2,2,2,2,2,2,55,15,64,0,0,0,38,0,0,63,4,4,4,4,4,4,4,4,4,4,4,4,4,4,4,64,0,0,0,0,0,0,0,0,0,0,0,0,
67,27,27,27,27,27,27,27,27,27,27,27,27,27,27,27,27,27,27,27,27,27,27,27,68,69,27,27,27,27,70,67,27,27,27,27,27,27,27,27,27,27,27,27,27,27,27,68,21,22,22,22,22,22,22,22,22,22,22,23
</data>
 </layer>
 <layer id="12" name="props(trees/rocks)" width="60" height="12">
  <data encoding="csv">
0,0,0,0,0,0,0,0,118,0,0,118,0,0,0,0,0,0,0,0,0,0,0,0,0,0,0,0,0,0,0,0,0,0,0,0,0,0,0,0,0,0,0,0,0,0,0,0,0,0,0,0,0,0,0,0,0,0,0,0,
0,0,0,0,0,0,0,0,0,118,0,0,0,0,0,0,0,0,0,0,0,0,0,0,0,0,0,0,0,0,0,0,0,0,119,0,0,0,0,0,0,118,0,0,0,0,0,0,0,0,0,0,0,0,0,117,0,0,0,0,
0,0,0,0,0,0,0,0,0,0,0,0,117,0,0,0,0,0,0,0,0,0,0,0,0,0,0,0,0,0,0,0,0,0,0,0,0,0,119,0,0,0,0,0,0,0,0,0,0,0,0,0,0,0,0,0,0,0,0,0,
0,0,0,0,0,0,0,0,0,0,0,0,0,0,0,0,121,0,0,0,0,0,0,0,0,0,0,0,0,0,0,0,0,0,0,0,0,0,0,0,0,0,0,0,0,0,121,0,0,0,0,0,0,0,0,0,120,0,0,0,
0,0,0,0,0,0,0,0,0,0,0,0,0,0,0,0,0,0,0,0,0,0,0,0,0,0,0,0,0,0,0,0,0,0,0,0,0,0,0,0,0,0,0,0,0,0,0,0,0,0,0,0,0,0,0,0,0,0,0,0,
0,0,0,0,0,0,0,0,0,0,0,0,0,0,0,0,0,0,0,0,0,0,0,0,0,0,0,0,0,0,0,0,0,0,0,0,0,0,0,0,0,0,0,0,0,0,0,0,0,0,0,0,0,0,0,0,0,0,0,0,
0,0,0,0,0,0,0,0,0,0,0,0,0,0,0,0,0,0,0,0,0,0,0,0,0,0,0,0,0,0,0,0,0,0,0,0,0,0,0,0,0,0,0,0,0,0,0,0,0,0,0,0,0,0,0,0,0,0,0,0,
0,0,0,0,0,0,0,0,0,0,0,0,0,0,0,0,0,0,0,0,0,0,0,0,0,0,0,0,0,0,0,140,0,0,139,0,0,140,0,139,140,0,0,0,0,0,0,0,0,0,0,0,0,0,0,0,0,0,0,0,
0,0,0,0,0,0,0,0,0,0,0,0,0,0,0,0,0,0,0,0,0,0,0,0,0,0,0,0,0,0,0,0,0,0,0,0,0,0,0,0,0,0,0,0,0,0,0,0,0,0,0,0,0,0,0,0,0,0,0,0,
143,144,145,147,146,143,141,0,0,138,139,0,140,0,0,0,139,0,0,138,0,0,0,0,0,0,0,0,0,0,0,0,0,0,0,0,0,0,0,0,0,0,0,0,0,0,0,0,0,0,0,0,0,0,0,0,0,0,0,0,
0,0,0,0,0,0,0,0,0,0,0,0,0,0,0,0,0,0,0,0,0,0,0,0,0,0,0,0,0,0,0,0,0,0,0,0,0,0,0,0,0,0,0,0,0,0,0,0,0,0,0,0,0,0,0,0,0,0,0,0,
0,0,0,0,0,0,0,0,0,0,0,0,0,0,0,0,0,0,0,0,0,0,0,0,0,0,0,0,0,0,0,0,0,0,0,0,0,0,0,0,0,0,0,0,0,0,0,0,0,0,0,0,0,0,0,0,0,0,0,0
</data>
 </layer>
 <layer id="22" name="props3(bgcamp" width="60" height="12">
  <data encoding="csv">
0,0,0,0,0,0,0,0,0,0,0,0,0,0,0,0,0,0,0,0,0,0,0,0,0,0,0,0,0,0,0,0,0,0,0,0,0,0,0,0,0,0,0,0,0,0,0,0,0,0,0,0,0,0,0,0,0,0,0,0,
0,0,0,0,0,0,0,0,0,0,0,0,0,0,0,0,0,0,0,0,0,0,0,0,0,0,0,0,0,0,0,0,0,0,0,0,0,0,0,0,0,0,0,0,0,0,0,0,0,0,0,0,0,0,0,0,0,0,0,0,
0,0,0,0,0,0,0,0,0,0,0,0,0,0,0,0,0,0,0,0,0,0,0,0,0,0,0,0,0,0,0,0,0,0,0,0,0,0,0,0,0,0,0,0,0,0,0,0,0,0,0,0,0,0,0,0,0,0,0,0,
0,0,0,0,0,0,0,0,0,0,0,0,0,0,0,0,0,0,0,0,0,0,0,0,0,0,0,0,0,0,0,0,0,0,0,0,0,0,0,0,0,0,0,0,0,0,0,0,0,0,0,0,0,0,0,0,0,0,0,0,
0,0,0,0,0,0,0,0,0,0,0,0,0,0,0,0,0,0,0,0,0,0,0,0,0,0,0,0,0,0,0,0,0,0,0,0,0,0,0,0,0,0,0,0,0,0,0,0,0,0,0,0,0,0,0,0,0,0,0,0,
0,0,0,0,0,0,0,0,0,0,0,0,0,0,0,0,0,0,0,0,0,0,0,0,0,0,0,0,0,0,0,0,0,0,0,0,0,0,0,0,0,0,0,0,0,0,0,0,0,0,0,0,0,0,0,0,0,0,0,0,
0,0,0,0,0,0,0,0,0,0,0,0,0,0,0,0,0,0,0,0,0,0,0,0,0,0,0,0,0,0,0,0,0,0,0,0,0,0,0,0,0,0,0,0,0,98,0,0,0,0,0,0,0,0,0,0,0,0,0,0,
0,0,0,0,0,0,0,0,0,0,0,0,0,0,0,0,0,0,0,0,0,0,0,0,0,0,0,0,0,0,0,132,0,0,0,115,0,0,0,0,177,0,0,0,0,123,0,124,0,0,0,0,0,0,0,0,0,0,0,0,
0,0,0,0,0,0,0,0,0,0,0,0,0,0,0,0,0,0,0,0,0,0,0,0,0,0,0,0,0,0,0,0,0,0,0,0,0,0,0,0,0,0,0,0,0,0,0,0,0,0,0,0,0,0,0,0,0,0,0,0,
0,0,0,0,0,0,0,0,0,0,0,0,0,0,0,0,0,0,0,0,0,0,0,0,0,0,0,0,0,0,0,0,0,0,0,0,0,0,0,0,0,0,0,0,0,0,0,0,0,0,0,0,0,0,0,0,0,0,0,0,
0,0,0,0,0,0,0,0,0,0,0,0,0,0,0,0,0,0,0,0,0,0,0,0,0,0,0,0,0,0,0,0,0,0,0,0,0,0,0,0,0,0,0,0,0,0,0,0,0,0,0,0,0,0,0,0,0,0,0,0,
0,0,0,0,0,0,0,0,0,0,0,0,0,0,0,0,0,0,0,0,0,0,0,0,0,0,0,0,0,0,0,0,0,0,0,0,0,0,0,0,0,0,0,0,0,0,0,0,0,0,0,0,0,0,0,0,0,0,0,0
</data>
 </layer>
 <layer id="11" name="props2(camp)" width="60" height="12">
  <data encoding="csv">
0,0,0,0,0,0,0,0,0,0,0,0,0,0,0,0,0,0,0,0,0,0,0,0,0,0,0,0,0,0,0,0,0,0,0,0,0,0,0,0,0,0,0,0,0,0,0,0,0,0,0,0,0,0,0,0,0,0,0,0,
0,0,0,0,0,0,0,0,0,0,0,0,0,0,0,0,0,0,0,0,0,0,0,0,0,0,0,0,0,0,0,0,0,0,0,0,0,0,0,0,0,0,0,0,0,0,0,0,0,0,0,0,0,0,0,0,0,0,0,0,
0,0,0,0,0,0,0,0,0,0,0,0,0,0,0,0,0,0,0,0,0,0,0,0,0,0,0,0,0,0,0,0,0,0,0,0,0,0,0,0,0,0,0,0,0,0,0,0,0,0,0,0,0,0,0,0,0,0,0,0,
0,0,0,0,0,0,0,0,0,0,0,0,0,0,0,0,0,0,0,0,0,0,0,0,0,0,0,0,0,0,0,0,0,0,0,0,0,0,0,0,0,0,0,0,0,0,0,0,0,0,0,0,0,0,0,0,0,0,0,0,
0,0,0,0,0,0,0,0,0,0,0,0,0,0,0,0,0,0,0,0,0,0,0,0,0,0,0,0,0,0,0,0,0,0,0,0,0,0,0,0,0,0,0,0,0,0,0,0,0,0,0,0,0,0,0,0,0,0,0,0,
0,0,0,0,0,0,0,0,0,0,0,0,0,0,0,0,0,0,0,0,0,0,0,0,0,0,0,0,0,0,0,0,0,0,0,0,0,0,0,0,0,0,0,0,0,0,0,0,0,0,0,0,0,0,0,0,0,0,0,0,
0,0,0,0,0,0,0,0,0,0,0,0,0,0,0,0,0,0,0,0,0,0,0,0,0,0,0,0,0,0,0,0,0,0,0,0,0,0,0,0,0,0,0,0,0,0,0,0,0,0,0,0,0,0,0,0,0,0,0,0,
0,0,0,0,0,0,0,0,0,0,0,0,0,0,0,0,0,0,0,0,0,0,0,0,0,0,0,0,0,0,0,0,130,103,0,135,136,0,0,0,0,0,137,101,105,108,0,0,0,0,0,0,0,0,0,0,0,0,0,0,
0,0,0,0,0,0,0,0,0,0,0,0,0,0,0,0,0,0,0,0,0,0,0,0,0,0,0,0,0,0,0,0,0,0,0,0,0,0,0,0,0,0,0,0,0,0,0,0,0,0,0,0,0,0,0,0,0,0,0,0,
0,0,0,0,0,0,0,0,0,0,0,0,0,0,0,0,0,0,0,0,0,0,0,0,0,0,0,0,0,0,0,0,0,0,0,0,0,0,0,0,0,0,0,0,0,0,0,0,0,0,0,0,0,0,0,0,0,0,0,0,
0,0,0,0,0,0,0,0,0,0,0,0,0,0,0,0,0,0,0,0,0,0,0,0,0,0,0,0,0,0,0,0,0,0,0,0,0,0,0,0,0,0,0,0,0,0,0,0,0,0,0,0,0,0,0,0,0,0,0,0,
0,0,0,0,0,0,0,0,0,0,0,0,0,0,0,0,0,0,0,0,0,0,0,0,0,0,0,0,0,0,0,0,0,0,0,0,0,0,0,0,0,0,0,0,0,0,0,0,0,0,0,0,0,0,0,0,0,0,0,0
</data>
 </layer>
 <layer id="17" name="runes_visual" width="60" height="12">
  <data encoding="csv">
0,0,0,0,0,0,0,0,0,0,0,0,0,0,0,0,0,0,0,0,0,0,0,0,0,0,0,0,0,0,0,0,0,0,0,0,0,0,0,0,0,0,0,0,0,0,0,0,0,0,0,0,0,0,0,0,0,0,0,0,
0,0,0,0,0,0,0,0,0,0,0,0,0,0,0,0,0,0,0,0,0,0,0,0,0,0,0,0,0,0,0,0,0,0,0,0,0,0,0,0,0,0,0,0,0,0,0,0,0,0,0,0,0,0,0,0,0,0,0,0,
0,0,0,0,0,0,0,0,0,0,0,0,0,0,0,0,0,0,0,0,0,0,0,0,0,0,0,0,0,0,0,0,0,0,0,0,0,0,0,0,0,0,0,0,0,0,0,0,0,0,0,0,0,0,0,0,0,0,0,0,
0,0,0,0,0,0,0,0,0,0,0,0,0,0,0,0,0,0,0,0,0,0,0,0,0,0,0,0,0,0,0,0,0,0,0,0,0,0,0,0,0,0,0,0,0,0,0,0,0,0,0,0,0,0,0,0,0,0,0,0,
0,0,0,0,0,0,0,0,0,0,0,0,0,0,0,0,0,0,0,0,0,0,0,0,0,0,0,0,0,0,0,0,0,0,0,0,0,0,0,0,0,0,0,0,0,0,0,0,0,0,0,0,0,0,0,0,0,0,0,0,
0,0,0,0,0,0,0,0,0,0,0,0,0,0,0,0,0,0,0,0,0,0,0,0,0,0,0,0,0,0,0,0,0,0,0,0,0,0,0,0,0,0,0,0,0,0,0,0,0,0,0,0,0,0,0,0,0,0,0,0,
0,0,0,0,0,0,0,0,0,0,0,0,0,0,0,0,0,0,0,0,0,0,0,0,0,0,0,0,0,0,0,0,0,0,0,0,0,0,0,0,0,0,0,0,0,0,0,0,0,0,0,0,0,0,0,0,0,0,0,0,
0,0,0,0,0,0,0,0,0,0,0,0,0,0,0,0,0,0,0,0,0,0,0,0,0,0,277,0,0,0,0,0,0,0,0,0,0,0,0,0,0,0,0,0,0,0,0,277,0,0,0,0,0,0,0,0,0,0,0,0,
0,0,0,0,0,0,0,0,0,0,0,0,0,0,0,0,0,0,0,0,0,0,0,0,0,0,0,0,0,0,0,0,0,0,0,0,0,0,0,0,0,0,0,0,0,0,0,0,0,0,0,0,0,0,0,0,0,0,0,0,
0,0,0,0,0,0,0,0,0,0,0,0,0,0,0,0,0,0,0,0,0,0,0,0,0,0,0,0,289,0,0,0,0,0,0,0,0,0,0,0,0,0,0,0,0,0,0,0,0,0,0,0,0,0,0,0,0,0,0,0,
0,0,0,0,0,0,0,0,0,0,0,0,0,0,0,0,0,0,0,0,0,0,0,0,0,0,0,0,0,0,0,0,0,0,0,0,0,0,0,0,0,0,0,0,0,0,0,0,0,0,0,0,0,0,0,0,0,0,0,0,
0,0,0,0,0,0,0,0,0,0,0,0,0,0,0,0,0,0,0,0,0,0,0,0,0,0,0,0,0,0,0,0,0,0,0,0,0,0,0,0,0,0,0,0,0,0,0,0,0,0,0,0,0,0,0,0,0,0,0,0
</data>
 </layer>
 <objectgroup color="#00aa00" id="13" name="collisions">
  <object id="1" x="0" y="0" width="192" height="64"/>
  <object id="2" x="0" y="64" width="96" height="256"/>
  <object id="3" x="0" y="320" width="800" height="64"/>
  <object id="4" x="767.75" y="256.354">
   <polygon points="0,0 -65.0417,64.1042 0,64.1042"/>
  </object>
  <object id="5" x="768" y="256" width="32" height="64"/>
  <object id="6" x="832" y="256" width="32" height="64"/>
  <object id="7" x="864" y="256" width="96" height="32"/>
  <object id="8" x="896" y="320" width="32" height="32"/>
  <object id="9" x="800" y="352" width="192" height="32"/>
  <object id="10" x="992" y="256" width="544" height="128"/>
  <object id="11" x="1536" y="352" width="384" height="32"/>
  <object id="12" x="800" y="0" width="192" height="64"/>
  <object id="13" x="864" y="64" width="64" height="192"/>
  <object id="48" x="1920" y="160" width="64" height="192"/>
 </objectgroup>
 <objectgroup id="23" name="transitions">
  <properties>
   <property name="spawnX" type="float" value="100"/>
   <property name="spawnY" type="float" value="200"/>
   <property name="targetMap" value="level1fr2.tmx"/>
  </properties>
  <object id="47" x="1887.99" y="0.0113636" width="32.0118" height="351.984">
   <properties>
    <property name="spawnX" type="float" value="100"/>
    <property name="spawnY" type="float" value="200"/>
    <property name="targetMap" value="level1fr2.tmx"/>
   </properties>
  </object>
 </objectgroup>
 <objectgroup color="#00aaff" id="14" name="water_zones">
  <object id="14" x="1536" y="256" width="384" height="96"/>
 </objectgroup>
 <objectgroup color="#ffffff" id="16" name="runes">
  <object id="34" x="832" y="224" width="32" height="32">
   <properties>
    <property name="elementType" value="SAND"/>
    <property name="isSpawner" type="bool" value="false"/>
   </properties>
  </object>
  <object id="38" x="896.545" y="287.818" width="32" height="32">
   <properties>
    <property name="elementType" value="SAND"/>
    <property name="isSpawner" type="bool" value="true"/>
    <property name="runeID" type="int" value="1"/>
   </properties>
  </object>
  <object id="40" x="1504" y="224" width="32" height="32">
   <properties>
    <property name="elementType" value="WATER"/>
    <property name="isSpawner" type="bool" value="false"/>
   </properties>
  </object>
  <object id="41" x="800" y="256" width="32" height="96">
   <properties>
    <property name="elementType" value="SAND"/>
    <property name="isContainer" type="bool" value="true"/>
    <property name="runeID" type="int" value="1"/>
   </properties>
  </object>
  <object id="42" x="832" y="320" width="64" height="32">
   <properties>
    <property name="elementType" value="SAND"/>
    <property name="isContainer" type="bool" value="true"/>
    <property name="runeID" type="int" value="1"/>
   </properties>
  </object>
  <object id="43" x="864" y="288" width="128" height="32">
   <properties>
    <property name="elementType" value="SAND"/>
    <property name="isContainer" type="bool" value="true"/>
    <property name="runeID" type="int" value="1"/>
   </properties>
  </object>
  <object id="44" x="928" y="320" width="64" height="32">
   <properties>
    <property name="elementType" value="SAND"/>
    <property name="isContainer" type="bool" value="true"/>
    <property name="runeID" type="int" value="1"/>
   </properties>
  </object>
  <object id="45" x="960" y="256" width="32" height="32">
   <properties>
    <property name="elementType" value="SAND"/>
    <property name="isContainer" type="bool" value="true"/>
    <property name="runeID" type="int" value="1"/>
   </properties>
  </object>
 </objectgroup>
</map>
