<?xml version="1.0" encoding="UTF-8"?>
<map version="1.10" tiledversion="1.11.2" orientation="orthogonal" renderorder="right-down" width="40" height="12" tilewidth="32" tileheight="32" infinite="0" nextlayerid="17" nextobjectid="88">
 <tileset firstgid="1" source="../runes/runesOnline.tsx"/>
 <tileset firstgid="181" source="tilesets/terrainground/Level1_terrain.tsx"/>
 <group id="2" name="parallax">
  <imagelayer id="4" name="backdrop" parallaxx="0.01" repeatx="1">
   <image source="parralax/1.png" width="576" height="324"/>
  </imagelayer>
  <imagelayer id="3" name="background" parallaxx="0.25" repeatx="1">
   <image source="parralax/2.png" width="576" height="324"/>
  </imagelayer>
  <imagelayer id="5" name="middleground" parallaxx="0.6" repeatx="1">
   <image source="parralax/3.png" width="576" height="324"/>
  </imagelayer>
  <imagelayer id="6" name="middlemiddleground" offsetx="10" offsety="2" parallaxx="0.65" repeatx="1">
   <image source="parralax/4.png" width="576" height="324"/>
  </imagelayer>
  <imagelayer id="7" name="foreground" parallaxx="0.8" repeatx="1">
   <image source="parralax/5.png" width="576" height="324"/>
  </imagelayer>
 </group>
 <layer id="8" name="terrainbackdrop" width="40" height="12">
  <data encoding="csv">
0,0,0,0,0,0,0,0,0,0,0,0,0,0,0,0,0,0,0,0,0,0,0,0,0,0,0,0,0,0,0,0,0,0,0,0,0,0,0,0,
0,0,0,0,0,0,0,0,0,0,0,0,0,0,0,0,0,0,0,0,0,0,0,0,0,0,0,0,0,0,0,0,0,0,0,0,0,0,0,0,
0,0,0,0,0,0,0,0,0,0,0,0,0,0,0,0,0,0,0,0,0,0,0,0,0,0,0,0,0,0,0,0,0,0,0,0,0,0,0,0,
0,0,0,0,0,0,0,0,0,0,0,0,0,0,0,0,0,0,240,240,240,240,0,0,0,0,0,0,0,0,0,0,0,0,0,0,0,0,0,0,
0,0,0,0,0,0,0,0,0,0,0,0,0,0,0,0,0,0,0,241,242,0,0,0,0,0,0,0,0,0,0,0,0,0,0,0,0,0,0,0,
0,0,0,0,0,0,0,0,0,0,0,0,0,0,0,0,0,0,0,241,242,0,0,0,0,0,0,0,0,0,0,0,0,0,0,0,0,0,0,0,
0,0,0,0,0,0,0,0,0,0,0,0,0,0,0,0,0,0,0,0,0,0,0,0,0,0,0,0,0,0,0,0,0,0,0,0,0,0,0,0,
0,0,0,0,0,0,0,0,0,0,0,0,0,0,0,0,0,0,0,0,0,0,0,0,0,0,0,0,0,0,0,0,0,0,0,0,0,0,0,0,
0,0,0,0,0,0,0,0,0,0,0,0,0,0,0,0,0,0,0,184,0,0,0,0,0,0,0,0,0,0,0,0,0,0,0,0,0,0,0,0,
0,0,0,0,0,0,0,0,0,0,0,0,0,0,0,0,0,0,0,0,0,0,0,0,0,0,0,0,0,0,0,0,0,0,0,0,0,0,0,0,
0,0,0,0,0,0,0,0,0,0,0,0,0,262,263,263,217,217,217,217,217,207,207,207,0,0,0,0,0,0,0,0,0,0,0,0,0,0,0,0,
0,0,0,0,0,0,0,0,0,0,0,0,0,0,0,0,0,0,0,0,0,0,0,0,0,0,0,0,0,0,0,0,0,0,0,0,0,0,0,0
</data>
 </layer>
 <layer id="1" name="terrain" width="40" height="12">
  <data encoding="csv">
0,0,0,0,0,0,0,0,0,0,0,0,0,0,0,0,0,0,0,0,0,0,0,0,0,0,0,0,0,0,0,0,0,0,0,0,0,0,0,0,
0,0,0,0,0,0,0,0,0,0,0,0,0,0,0,0,0,0,0,0,0,0,0,0,0,0,0,0,0,0,0,0,0,0,0,0,229,230,230,231,
0,0,0,0,0,0,0,0,0,0,0,0,0,0,0,0,0,0,0,0,0,0,0,0,0,0,0,0,0,0,0,0,0,0,0,0,0,0,0,0,
0,0,0,0,0,0,0,0,0,0,0,0,0,0,0,0,0,0,229,230,230,231,0,0,0,0,0,0,0,0,0,0,0,0,0,0,0,0,0,0,
0,0,0,0,0,0,0,0,0,0,0,0,0,0,0,0,0,0,0,215,216,0,0,0,0,0,0,0,0,0,0,0,0,0,0,0,224,228,226,0,
0,0,0,0,0,0,0,0,0,0,0,0,0,0,0,0,0,0,0,0,0,0,0,0,0,0,0,0,0,0,0,0,0,0,0,0,0,240,0,0,
0,0,0,0,0,0,0,0,0,0,0,0,0,0,223,183,0,182,182,182,182,182,183,0,0,0,0,0,0,0,0,0,0,0,0,0,0,240,0,0,
0,0,0,0,0,0,0,0,0,0,0,0,0,223,235,246,184,217,217,217,219,219,219,245,210,191,222,0,0,0,0,0,0,0,0,0,0,240,256,258,
0,0,0,0,0,0,0,0,0,0,0,0,181,235,194,221,200,1073742058,3221225706,217,242,184,184,245,210,241,234,222,0,0,0,0,0,0,0,0,0,240,253,255,
0,0,0,0,0,0,0,0,0,0,0,0,193,195,195,196,207,234,235,198,242,184,219,194,210,241,204,234,202,202,202,202,202,202,202,202,202,250,275,253,
0,0,0,0,0,0,0,0,0,0,0,0,241,184,184,184,224,225,225,225,225,225,225,225,203,215,216,184,184,184,184,184,184,184,184,184,184,250,253,260,
202,202,202,202,202,202,202,202,202,202,202,202,191,191,191,191,191,191,191,191,191,191,191,191,191,236,237,237,237,237,237,237,237,237,237,237,237,250,253,253
</data>
 </layer>
 <layer id="13" name="runes_visual" width="40" height="12">
  <data encoding="csv">
0,0,0,0,0,0,0,0,0,0,0,0,0,0,0,0,0,0,0,0,0,0,0,0,0,0,0,0,0,0,0,0,0,0,0,0,0,0,0,0,
0,0,0,0,0,0,0,0,0,0,0,0,0,0,0,0,0,0,0,0,0,0,0,0,0,0,0,0,0,0,0,0,0,0,0,0,0,0,0,0,
0,0,0,0,0,0,0,0,0,0,0,0,0,0,0,0,0,0,0,0,0,0,0,0,0,0,0,0,0,0,0,0,0,0,0,0,0,0,0,0,
0,0,0,0,0,0,0,0,0,0,0,0,0,0,0,0,0,0,0,0,0,0,0,0,0,0,0,0,0,0,0,0,0,0,0,0,0,0,0,0,
0,0,0,0,0,0,0,0,0,0,0,0,0,0,0,0,0,0,0,0,0,0,0,0,0,0,0,0,0,0,0,0,0,0,0,0,0,0,0,0,
0,0,0,0,0,0,0,0,0,0,0,0,0,0,0,0,0,0,13,0,0,13,0,0,0,0,0,0,0,0,0,0,0,0,0,0,0,0,0,0,
0,0,0,0,0,0,0,0,0,0,0,0,0,0,0,0,0,0,0,0,0,0,0,0,0,25,0,0,0,0,0,0,0,0,0,0,0,0,0,0,
0,0,0,0,0,0,0,0,0,0,0,0,0,0,0,0,0,0,0,0,0,0,0,0,0,0,0,0,0,0,0,0,0,0,0,0,0,0,0,0,
0,0,0,0,0,0,0,0,0,0,0,0,0,0,0,0,0,0,0,0,0,0,0,0,0,0,0,0,0,0,0,0,0,0,0,0,0,0,0,0,
0,0,0,0,0,0,0,0,0,0,0,0,0,0,0,0,0,0,0,25,0,0,0,0,0,0,0,0,0,0,0,0,0,0,0,0,0,0,0,0,
0,0,0,0,0,0,0,0,0,0,0,0,0,0,0,0,0,0,0,0,0,0,0,0,0,0,0,0,0,0,0,0,0,0,0,0,0,0,0,0,
0,0,0,0,0,0,0,0,0,0,0,0,0,0,0,0,0,0,0,0,0,0,0,0,0,0,0,0,0,0,0,0,0,0,0,0,0,0,0,0
</data>
 </layer>
 <objectgroup color="#00aa00" id="10" name="collisions">
  <object id="42" x="0" y="352" width="384" height="32"/>
  <object id="44" x="0" y="1" width="3" height="351"/>
  <object id="50" x="512.016" y="320.046" width="255.984" height="63.957"/>
  <object id="45" x="384" y="256.001" width="128.005" height="126.999"/>
  <object id="63" x="437.341" y="223.966">
   <polygon points="10.6654,0 10.6654,32.0317 -21.3307,32.0317"/>
  </object>
  <object id="47" x="544" y="192" width="192" height="32"/>
  <object id="48" x="576" y="96" width="128" height="32"/>
  <object id="49" x="608" y="128" width="64" height="64"/>
  <object id="52" x="768" y="288.008" width="512" height="96"/>
  <object id="60" x="832" y="288">
   <polygon points="0,-31.9896 0.0078125,-63.9961 32.0011,-32.0021"/>
  </object>
  <object id="54" x="668" y="256" width="4" height="64.0469"/>
  <object id="55" x="735" y="224" width="2" height="64"/>
  <object id="61" x="768" y="224" width="64" height="64.0066"/>
  <object id="65" x="469.349" y="191.988">
   <polygon points="10.6484,0 10.6484,32.0121 -21.2969,32.0121"/>
  </object>
  <object id="66" x="448.006" y="223.996" width="63.9943" height="32.0012"/>
  <object id="67" x="480.002" y="192.016" width="31.9935" height="31.9798"/>
  <object id="68" x="864.004" y="320.004">
   <polygon points="0,-31.9896 0.0078125,-63.9961 32.0011,-32.0021"/>
  </object>
  <object id="69" x="831.994" y="256.006" width="32.0178" height="32.0036"/>
  <object id="80" x="1280" y="-203" width="32" height="587"/>
  <object id="84" x="1152" y="32" width="128" height="32"/>
  <object id="85" x="1152" y="128" width="96" height="32"/>
  <object id="86" x="1184" y="160" width="32" height="128"/>
 </objectgroup>
 <objectgroup id="16" name="transitions">
  <object id="78" x="1215.66" y="269.333" width="63.6667" height="16.915">
   <properties>
    <property name="spawnX" type="float" value="100"/>
    <property name="spawnY" type="float" value="400"/>
    <property name="targetMap" value="level2.tmx"/>
   </properties>
  </object>
 </objectgroup>
 <objectgroup color="#00aaff" id="9" name="water_zones">
  <object id="73" x="3.0013" y="256" width="381" height="96"/>
 </objectgroup>
 <objectgroup color="#ffffff" id="12" name="runes">
  <object id="9" x="575.911" y="160.028" width="32" height="32">
   <properties>
    <property name="elementType" value="SAND"/>
    <property name="isSpawner" type="bool" value="false"/>
   </properties>
  </object>
  <object id="18" x="512.003" y="224" width="155.998" height="96.0371">
   <properties>
    <property name="elementType" value="SAND"/>
    <property name="isContainer" type="bool" value="true"/>
    <property name="runeID" type="int" value="1"/>
   </properties>
  </object>
  <object id="25" x="672.076" y="224.255" width="62.9207" height="95.692">
   <properties>
    <property name="elementType" value="SAND"/>
    <property name="isContainer" type="bool" value="true"/>
    <property name="runeID" type="int" value="1"/>
   </properties>
  </object>
  <object id="35" x="800.263" y="192.008" width="31.5152" height="32">
   <properties>
    <property name="elementType" value="WATER"/>
    <property name="isSpawner" type="bool" value="true"/>
    <property name="runeID" type="int" value="3"/>
   </properties>
  </object>
  <object id="36" x="607.991" y="288.008" width="32" height="32">
   <properties>
    <property name="elementType" value="SAND"/>
    <property name="isSpawner" type="bool" value="true"/>
    <property name="runeID" type="int" value="1"/>
   </properties>
  </object>
  <object id="37" x="671.999" y="160.004" width="32" height="32">
   <properties>
    <property name="elementType" value="WATER"/>
    <property name="isSpawner" type="bool" value="false"/>
   </properties>
  </object>
  <object id="62" x="737.271" y="223.915" width="30.9715" height="96.1192">
   <properties>
    <property name="elementType" value="SAND"/>
    <property name="isContainer" type="bool" value="true"/>
    <property name="runeID" type="int" value="1"/>
   </properties>
  </object>
  <object id="71" x="910.504" y="223">
   <properties>
    <property name="elementType" value="WATER"/>
    <property name="isContainer" type="bool" value="true"/>
    <property name="runeID" type="int" value="3"/>
   </properties>
   <polygon points="0,0 38.6425,64.0078 270.497,64.0078 270.497,0"/>
  </object>
  <object id="87" x="1118.33" y="0.666667">
   <properties>
    <property name="elementType" value="WATER"/>
    <property name="isContainer" type="bool" value="true"/>
    <property name="runeID" type="int" value="3"/>
   </properties>
   <polygon points="0,0 22.9282,30.3411 160.497,30.3411 160.497,0"/>
  </object>
 </objectgroup>
</map>
